assets/luts/01_warm_studio.cube
TITLE "Warm Studio"
LUT_3D_SIZE 5
DOMAIN_MIN 0.0 0.0 0.0
DOMAIN_MAX 1.0 1.0 1.0
0.000000 0.000000 0.000000
0.249603 0.000000 0.000000
0.540206 0.000000 0.000000
0.830809 0.000000 0.000000
1.000000 0.000000 0.000000
0.000000 0.229538 0.000000
0.247842 0.229239 0.000000
0.538445 0.228940 0.000000
0.829048 0.228641 0.000000
1.000000 0.228342 0.000000
0.000000 0.505326 0.000000
0.246081 0.505027 0.000000
0.536684 0.504728 0.000000
0.827287 0.504429 0.000000
1.000000 0.504130 0.000000
0.000000 0.781114 0.000000
0.244320 0.780815 0.000000
0.534923 0.780516 0.000000
0.825526 0.780217 0.000000
1.000000 0.779918 0.000000
0.000000 1.000000 0.000000
0.242559 1.000000 0.000000
0.533162 1.000000 0.000000
0.823765 1.000000 0.000000
1.000000 1.000000 0.000000
0.000000 0.000000 0.205671
0.249261 0.000000 0.206119
0.539864 0.000000 0.206568
0.830467 0.000000 0.207016
1.000000 0.000000 0.207465
0.000000 0.229424 0.206551
0.247500 0.229125 0.207000
0.538103 0.228826 0.207448
0.828706 0.228527 0.207897
1.000000 0.228228 0.208345
0.000000 0.505212 0.207432
0.245739 0.504913 0.207880
0.536342 0.504614 0.208329
0.826945 0.504315 0.208777
1.000000 0.504016 0.209226
0.000000 0.781000 0.208312
0.243978 0.780701 0.208761
0.534581 0.780402 0.209209
0.825184 0.780103 0.209658
1.000000 0.779804 0.210106
0.000000 1.000000 0.209193
0.242217 1.000000 0.209641
0.532820 1.000000 0.210090
0.823423 1.000000 0.210538
1.000000 1.000000 0.210987
0.000000 0.000000 0.464342
0.248919 0.000000 0.464790
0.539522 0.000000 0.465239
0.830125 0.000000 0.465687
1.000000 0.000000 0.466136
0.000000 0.229310 0.465222
0.247158 0.229011 0.465671
0.537761 0.228712 0.466119
0.828364 0.228413 0.466568
1.000000 0.228114 0.467016
0.000000 0.505098 0.466103
0.245397 0.504799 0.466551
0.536000 0.504500 0.467000
0.826603 0.504201 0.467448
1.000000 0.503902 0.467897
0.000000 0.780886 0.466983
0.243636 0.780587 0.467432
0.534239 0.780288 0.467880
0.824842 0.779989 0.468329
1.000000 0.779690 0.468777
0.000000 1.000000 0.467864
0.241875 1.000000 0.468312
0.532478 1.000000 0.468761
0.823081 1.000000 0.469209
1.000000 1.000000 0.469658
0.000000 0.000000 0.723013
0.248577 0.000000 0.723461
0.539180 0.000000 0.723910
0.829783 0.000000 0.724358
1.000000 0.000000 0.724807
0.000000 0.229196 0.723893
0.246816 0.228897 0.724342
0.537419 0.228598 0.724790
0.828022 0.228299 0.725239
1.000000 0.228000 0.725687
0.000000 0.504984 0.724774
0.245055 0.504685 0.725222
0.535658 0.504386 0.725671
0.826261 0.504087 0.726119
1.000000 0.503788 0.726568
0.000000 0.780772 0.725654
0.243294 0.780473 0.726103
0.533897 0.780174 0.726551
0.824500 0.779875 0.727000
1.000000 0.779576 0.727448
0.000000 1.000000 0.726535
0.241533 1.000000 0.726983
0.532136 1.000000 0.727432
0.822739 1.000000 0.727880
1.000000 1.000000 0.728329
0.000000 0.000000 0.981684
0.248235 0.000000 0.982132
0.538838 0.000000 0.982581
0.829441 0.000000 0.983030
1.000000 0.000000 0.983478
0.000000 0.229082 0.982564
0.246474 0.228783 0.983013
0.537077 0.228484 0.983461
0.827680 0.228185 0.983910
1.000000 0.227886 0.984359
0.000000 0.504870 0.983445
0.244713 0.504571 0.983893
0.535316 0.504272 0.984342
0.825919 0.503973 0.984791
1.000000 0.503674 0.985239
0.000000 0.780658 0.984325
0.242952 0.780359 0.984774
0.533555 0.780060 0.985223
0.824158 0.779761 0.985671
1.000000 0.779462 0.986120
0.000000 1.000000 0.985206
0.241191 1.000000 0.985654
0.531794 1.000000 0.986103
0.822397 1.000000 0.986552
1.000000 1.000000 0.987000
