assets/luts/01_warm_studio.cube
TITLE "Warm Studio"
LUT_3D_SIZE 17
DOMAIN_MIN 0.0 0.0 0.0
DOMAIN_MAX 1.0 1.0 1.0
0.000000 0.000000 0.000000
0.031651 0.000000 0.000000
0.104301 0.000000 0.000000
0.176952 0.000000 0.000000
0.249603 0.000000 0.000000
0.322254 0.000000 0.000000
0.394904 0.000000 0.000000
0.467555 0.000000 0.000000
0.540206 0.000000 0.000000
0.612857 0.000000 0.000000
0.685507 0.000000 0.000000
0.758158 0.000000 0.000000
0.830809 0.000000 0.000000
0.903460 0.000000 0.000000
0.976111 0.000000 0.000000
1.000000 0.000000 0.000000
1.000000 0.000000 0.000000
0.000000 0.022697 0.000000
0.031210 0.022622 0.000000
0.103861 0.022547 0.000000
0.176512 0.022473 0.000000
0.249163 0.022398 0.000000
0.321813 0.022323 0.000000
0.394464 0.022248 0.000000
0.467115 0.022174 0.000000
0.539766 0.022099 0.000000
0.612417 0.022024 0.000000
0.685067 0.021949 0.000000
0.757718 0.021875 0.000000
0.830369 0.021800 0.000000
0.903020 0.021725 0.000000
0.975670 0.021650 0.000000
1.000000 0.021576 0.000000
1.000000 0.021501 0.000000
0.000000 0.091644 0.000000
0.030770 0.091569 0.000000
0.103421 0.091494 0.000000
0.176072 0.091420 0.000000
0.248722 0.091345 0.000000
0.321373 0.091270 0.000000
0.394024 0.091195 0.000000
0.466675 0.091121 0.000000
0.539326 0.091046 0.000000
0.611976 0.090971 0.000000
0.684627 0.090896 0.000000
0.757278 0.090822 0.000000
0.829929 0.090747 0.000000
0.902579 0.090672 0.000000
0.975230 0.090597 0.000000
1.000000 0.090523 0.000000
1.000000 0.090448 0.000000
0.000000 0.160591 0.000000
0.030330 0.160516 0.000000
0.102981 0.160441 0.000000
0.175632 0.160367 0.000000
0.248282 0.160292 0.000000
0.320933 0.160217 0.000000
0.393584 0.160142 0.000000
0.466235 0.160068 0.000000
0.538885 0.159993 0.000000
0.611536 0.159918 0.000000
0.684187 0.159843 0.000000
0.756838 0.159769 0.000000
0.829488 0.159694 0.000000
0.902139 0.159619 0.000000
0.974790 0.159544 0.000000
1.000000 0.159470 0.000000
1.000000 0.159395 0.000000
0.000000 0.229538 0.000000
0.029890 0.229463 0.000000
0.102540 0.229388 0.000000
0.175191 0.229314 0.000000
0.247842 0.229239 0.000000
0.320493 0.229164 0.000000
0.393143 0.229089 0.000000
0.465794 0.229015 0.000000
0.538445 0.228940 0.000000
0.611096 0.228865 0.000000
0.683746 0.228790 0.000000
0.756397 0.228716 0.000000
0.829048 0.228641 0.000000
0.901699 0.228566 0.000000
0.974350 0.228491 0.000000
1.000000 0.228417 0.000000
1.000000 0.228342 0.000000
0.000000 0.298485 0.000000
0.029449 0.298410 0.000000
0.102100 0.298335 0.000000
0.174751 0.298261 0.000000
0.247402 0.298186 0.000000
0.320052 0.298111 0.000000
0.392703 0.298036 0.000000
0.465354 0.297962 0.000000
0.538005 0.297887 0.000000
0.610656 0.297812 0.000000
0.683306 0.297737 0.000000
0.755957 0.297663 0.000000
0.828608 0.297588 0.000000
0.901259 0.297513 0.000000
0.973909 0.297438 0.000000
1.000000 0.297364 0.000000
1.000000 0.297289 0.000000
0.000000 0.367432 0.000000
0.029009 0.367357 0.000000
0.101660 0.367282 0.000000
0.174311 0.367208 0.000000
0.246962 0.367133 0.000000
0.319612 0.367058 0.000000
0.392263 0.366983 0.000000
0.464914 0.366909 0.000000
0.537565 0.366834 0.000000
0.610215 0.366759 0.000000
0.682866 0.366684 0.000000
0.755517 0.366610 0.000000
0.828168 0.366535 0.000000
0.900818 0.366460 0.000000
0.973469 0.366385 0.000000
1.000000 0.366311 0.000000
1.000000 0.366236 0.000000
0.000000 0.436379 0.000000
0.028569 0.436304 0.000000
0.101220 0.436229 0.000000
0.173871 0.436155 0.000000
0.246521 0.436080 0.000000
0.319172 0.436005 0.000000
0.391823 0.435930 0.000000
0.464474 0.435856 0.000000
0.537124 0.435781 0.000000
0.609775 0.435706 0.000000
0.682426 0.435632 0.000000
0.755077 0.435557 0.000000
0.827727 0.435482 0.000000
0.900378 0.435407 0.000000
0.973029 0.435333 0.000000
1.000000 0.435258 0.000000
1.000000 0.435183 0.000000
0.000000 0.505326 0.000000
0.028129 0.505251 0.000000
0.100779 0.505176 0.000000
0.173430 0.505102 0.000000
0.246081 0.505027 0.000000
0.318732 0.504952 0.000000
0.391382 0.504877 0.000000
0.464033 0.504803 0.000000
0.536684 0.504728 0.000000
0.609335 0.504653 0.000000
0.681985 0.504578 0.000000
0.754636 0.504504 0.000000
0.827287 0.504429 0.000000
0.899938 0.504354 0.000000
0.972589 0.504279 0.000000
1.000000 0.504205 0.000000
1.000000 0.504130 0.000000
0.000000 0.574273 0.000000
0.027688 0.574198 0.000000
0.100339 0.574123 0.000000
0.172990 0.574049 0.000000
0.245641 0.573974 0.000000
0.318291 0.573899 0.000000
0.390942 0.573824 0.000000
0.463593 0.573750 0.000000
0.536244 0.573675 0.000000
0.608895 0.573600 0.000000
0.681545 0.573525 0.000000
0.754196 0.573451 0.000000
0.826847 0.573376 0.000000
0.899498 0.573301 0.000000
0.972148 0.573226 0.000000
1.000000 0.573152 0.000000
1.000000 0.573077 0.000000
0.000000 0.643220 0.000000
0.027248 0.643145 0.000000
0.099899 0.643070 0.000000
0.172550 0.642996 0.000000
0.245200 0.642921 0.000000
0.317851 0.642846 0.000000
0.390502 0.642771 0.000000
0.463153 0.642697 0.000000
0.535803 0.642622 0.000000
0.608454 0.642547 0.000000
0.681105 0.642472 0.000000
0.753756 0.642398 0.000000
0.826407 0.642323 0.000000
0.899057 0.642248 0.000000
0.971708 0.642173 0.000000
1.000000 0.642099 0.000000
1.000000 0.642024 0.000000
0.000000 0.712167 0.000000
0.026808 0.712092 0.000000
0.099459 0.712017 0.000000
0.172110 0.711943 0.000000
0.244760 0.711868 0.000000
0.317411 0.711793 0.000000
0.390062 0.711718 0.000000
0.462713 0.711644 0.000000
0.535363 0.711569 0.000000
0.608014 0.711494 0.000000
0.680665 0.711419 0.000000
0.753316 0.711345 0.000000
0.825966 0.711270 0.000000
0.898617 0.711195 0.000000
0.971268 0.711120 0.000000
1.000000 0.711046 0.000000
1.000000 0.710971 0.000000
0.000000 0.781114 0.000000
0.026368 0.781039 0.000000
0.099018 0.780964 0.000000
0.171669 0.780890 0.000000
0.244320 0.780815 0.000000
0.316971 0.780740 0.000000
0.389621 0.780666 0.000000
0.462272 0.780591 0.000000
0.534923 0.780516 0.000000
0.607574 0.780441 0.000000
0.680225 0.780366 0.000000
0.752875 0.780292 0.000000
0.825526 0.780217 0.000000
0.898177 0.780142 0.000000
0.970828 0.780068 0.000000
1.000000 0.779993 0.000000
1.000000 0.779918 0.000000
0.000000 0.850061 0.000000
0.025927 0.849986 0.000000
0.098578 0.849911 0.000000
0.171229 0.849837 0.000000
0.243880 0.849762 0.000000
0.316530 0.849687 0.000000
0.389181 0.849612 0.000000
0.461832 0.849538 0.000000
0.534483 0.849463 0.000000
0.607134 0.849388 0.000000
0.679784 0.849313 0.000000
0.752435 0.849239 0.000000
0.825086 0.849164 0.000000
0.897737 0.849089 0.000000
0.970387 0.849014 0.000000
1.000000 0.848940 0.000000
1.000000 0.848865 0.000000
0.000000 0.919008 0.000000
0.025487 0.918933 0.000000
0.098138 0.918859 0.000000
0.170789 0.918784 0.000000
0.243440 0.918709 0.000000
0.316090 0.918634 0.000000
0.388741 0.918559 0.000000
0.461392 0.918485 0.000000
0.534042 0.918410 0.000000
0.606693 0.918335 0.000000
0.679344 0.918261 0.000000
0.751995 0.918186 0.000000
0.824646 0.918111 0.000000
0.897296 0.918036 0.000000
0.969947 0.917961 0.000000
1.000000 0.917887 0.000000
1.000000 0.917812 0.000000
0.000000 0.987955 0.000000
0.025047 0.987880 0.000000
0.097698 0.987806 0.000000
0.170349 0.987731 0.000000
0.242999 0.987656 0.000000
0.315650 0.987581 0.000000
0.388301 0.987506 0.000000
0.460952 0.987432 0.000000
0.533602 0.987357 0.000000
0.606253 0.987282 0.000000
0.678904 0.987207 0.000000
0.751555 0.987133 0.000000
0.824205 0.987058 0.000000
0.896856 0.986983 0.000000
0.969507 0.986908 0.000000
1.000000 0.986834 0.000000
1.000000 0.986759 0.000000
0.000000 1.000000 0.000000
0.024607 1.000000 0.000000
0.097257 1.000000 0.000000
0.169908 1.000000 0.000000
0.242559 1.000000 0.000000
0.315210 1.000000 0.000000
0.387860 1.000000 0.000000
0.460511 1.000000 0.000000
0.533162 1.000000 0.000000
0.605813 1.000000 0.000000
0.678463 1.000000 0.000000
0.751114 1.000000 0.000000
0.823765 1.000000 0.000000
0.896416 1.000000 0.000000
0.969067 1.000000 0.000000
1.000000 1.000000 0.000000
1.000000 1.000000 0.000000
0.000000 0.000000 0.011668
0.031565 0.000000 0.011780
0.104216 0.000000 0.011892
0.176867 0.000000 0.012004
0.249518 0.000000 0.012116
0.322168 0.000000 0.012228
0.394819 0.000000 0.012340
0.467470 0.000000 0.012453
0.540121 0.000000 0.012565
0.612771 0.000000 0.012677
0.685422 0.000000 0.012789
0.758073 0.000000 0.012901
0.830724 0.000000 0.013013
0.903374 0.000000 0.013125
0.976025 0.000000 0.013237
1.000000 0.000000 0.013350
1.000000 0.000000 0.013462
0.000000 0.022668 0.011888
0.031125 0.022594 0.012000
0.103776 0.022519 0.012112
0.176427 0.022444 0.012224
0.249077 0.022369 0.012336
0.321728 0.022295 0.012448
0.394379 0.022220 0.012561
0.467030 0.022145 0.012673
0.539680 0.022070 0.012785
0.612331 0.021996 0.012897
0.684982 0.021921 0.013009
0.757633 0.021846 0.013121
0.830283 0.021771 0.013233
0.902934 0.021697 0.013345
0.975585 0.021622 0.013458
1.000000 0.021547 0.013570
1.000000 0.021472 0.013682
0.000000 0.091615 0.012108
0.030685 0.091541 0.012220
0.103335 0.091466 0.012332
0.175986 0.091391 0.012444
0.248637 0.091316 0.012556
0.321288 0.091242 0.012669
0.393938 0.091167 0.012781
0.466589 0.091092 0.012893
0.539240 0.091017 0.013005
0.611891 0.090943 0.013117
0.684541 0.090868 0.013229
0.757192 0.090793 0.013341
0.829843 0.090718 0.013453
0.902494 0.090644 0.013566
0.975145 0.090569 0.013678
1.000000 0.090494 0.013790
1.000000 0.090419 0.013902
0.000000 0.160562 0.012328
0.030244 0.160488 0.012440
0.102895 0.160413 0.012552
0.175546 0.160338 0.012664
0.248197 0.160263 0.012777
0.320847 0.160189 0.012889
0.393498 0.160114 0.013001
0.466149 0.160039 0.013113
0.538800 0.159964 0.013225
0.611451 0.159890 0.013337
0.684101 0.159815 0.013449
0.756752 0.159740 0.013561
0.829403 0.159665 0.013674
0.902054 0.159591 0.013786
0.974704 0.159516 0.013898
1.000000 0.159441 0.014010
1.000000 0.159366 0.014122
0.000000 0.229509 0.012548
0.029804 0.229435 0.012660
0.102455 0.229360 0.012772
0.175106 0.229285 0.012885
0.247756 0.229210 0.012997
0.320407 0.229136 0.013109
0.393058 0.229061 0.013221
0.465709 0.228986 0.013333
0.538359 0.228911 0.013445
0.611010 0.228837 0.013557
0.683661 0.228762 0.013669
0.756312 0.228687 0.013782
0.828963 0.228612 0.013894
0.901613 0.228538 0.014006
0.974264 0.228463 0.014118
1.000000 0.228388 0.014230
1.000000 0.228313 0.014342
0.000000 0.298456 0.012768
0.029364 0.298382 0.012880
0.102015 0.298307 0.012993
0.174666 0.298232 0.013105
0.247316 0.298157 0.013217
0.319967 0.298083 0.013329
0.392618 0.298008 0.013441
0.465269 0.297933 0.013553
0.537919 0.297858 0.013665
0.610570 0.297784 0.013777
0.683221 0.297709 0.013890
0.755872 0.297634 0.014002
0.828522 0.297559 0.014114
0.901173 0.297485 0.014226
0.973824 0.297410 0.014338
1.000000 0.297335 0.014450
1.000000 0.297260 0.014562
0.000000 0.367403 0.012988
0.028924 0.367329 0.013101
0.101574 0.367254 0.013213
0.174225 0.367179 0.013325
0.246876 0.367104 0.013437
0.319527 0.367030 0.013549
0.392177 0.366955 0.013661
0.464828 0.366880 0.013773
0.537479 0.366805 0.013885
0.610130 0.366731 0.013998
0.682781 0.366656 0.014110
0.755431 0.366581 0.014222
0.828082 0.366506 0.014334
0.900733 0.366432 0.014446
0.973384 0.366357 0.014558
1.000000 0.366282 0.014670
1.000000 0.366207 0.014782
0.000000 0.436350 0.013209
0.028483 0.436276 0.013321
0.101134 0.436201 0.013433
0.173785 0.436126 0.013545
0.246436 0.436051 0.013657
0.319086 0.435977 0.013769
0.391737 0.435902 0.013881
0.464388 0.435827 0.013993
0.537039 0.435752 0.014106
0.609689 0.435678 0.014218
0.682340 0.435603 0.014330
0.754991 0.435528 0.014442
0.827642 0.435453 0.014554
0.900293 0.435379 0.014666
0.972943 0.435304 0.014778
1.000000 0.435229 0.014890
1.000000 0.435154 0.015003
0.000000 0.505297 0.013429
0.028043 0.505223 0.013541
0.100694 0.505148 0.013653
0.173345 0.505073 0.013765
0.245995 0.504998 0.013877
0.318646 0.504924 0.013989
0.391297 0.504849 0.014101
0.463948 0.504774 0.014214
0.536598 0.504699 0.014326
0.609249 0.504625 0.014438
0.681900 0.504550 0.014550
0.754551 0.504475 0.014662
0.827202 0.504400 0.014774
0.899852 0.504326 0.014886
0.972503 0.504251 0.014998
1.000000 0.504176 0.015111
1.000000 0.504101 0.015223
0.000000 0.574244 0.013649
0.027603 0.574170 0.013761
0.100254 0.574095 0.013873
0.172905 0.574020 0.013985
0.245555 0.573945 0.014097
0.318206 0.573871 0.014209
0.390857 0.573796 0.014322
0.463508 0.573721 0.014434
0.536158 0.573646 0.014546
0.608809 0.573572 0.014658
0.681460 0.573497 0.014770
0.754111 0.573422 0.014882
0.826761 0.573347 0.014994
0.899412 0.573273 0.015106
0.972063 0.573198 0.015219
1.000000 0.573123 0.015331
1.000000 0.573048 0.015443
0.000000 0.643191 0.013869
0.027163 0.643117 0.013981
0.099813 0.643042 0.014093
0.172464 0.642967 0.014205
0.245115 0.642892 0.014317
0.317766 0.642818 0.014430
0.390416 0.642743 0.014542
0.463067 0.642668 0.014654
0.535718 0.642593 0.014766
0.608369 0.642519 0.014878
0.681019 0.642444 0.014990
0.753670 0.642369 0.015102
0.826321 0.642294 0.015214
0.898972 0.642220 0.015327
0.971623 0.642145 0.015439
1.000000 0.642070 0.015551
1.000000 0.641995 0.015663
0.000000 0.712138 0.014089
0.026722 0.712064 0.014201
0.099373 0.711989 0.014313
0.172024 0.711914 0.014425
0.244675 0.711839 0.014538
0.317325 0.711765 0.014650
0.389976 0.711690 0.014762
0.462627 0.711615 0.014874
0.535278 0.711540 0.014986
0.607929 0.711466 0.015098
0.680579 0.711391 0.015210
0.753230 0.711316 0.015322
0.825881 0.711241 0.015435
0.898532 0.711167 0.015547
0.971182 0.711092 0.015659
1.000000 0.711017 0.015771
1.000000 0.710942 0.015883
0.000000 0.781085 0.014309
0.026282 0.781011 0.014421
0.098933 0.780936 0.014533
0.171584 0.780861 0.014646
0.244234 0.780786 0.014758
0.316885 0.780712 0.014870
0.389536 0.780637 0.014982
0.462187 0.780562 0.015094
0.534838 0.780488 0.015206
0.607488 0.780413 0.015318
0.680139 0.780338 0.015430
0.752790 0.780263 0.015543
0.825441 0.780188 0.015655
0.898091 0.780114 0.015767
0.970742 0.780039 0.015879
1.000000 0.779964 0.015991
1.000000 0.779890 0.016103
0.000000 0.850032 0.014529
0.025842 0.849958 0.014641
0.098493 0.849883 0.014754
0.171144 0.849808 0.014866
0.243794 0.849733 0.014978
0.316445 0.849659 0.015090
0.389096 0.849584 0.015202
0.461747 0.849509 0.015314
0.534397 0.849434 0.015426
0.607048 0.849360 0.015538
0.679699 0.849285 0.015651
0.752350 0.849210 0.015763
0.825000 0.849135 0.015875
0.897651 0.849061 0.015987
0.970302 0.848986 0.016099
1.000000 0.848911 0.016211
1.000000 0.848836 0.016323
0.000000 0.918979 0.014749
0.025402 0.918905 0.014862
0.098052 0.918830 0.014974
0.170703 0.918755 0.015086
0.243354 0.918681 0.015198
0.316005 0.918606 0.015310
0.388655 0.918531 0.015422
0.461306 0.918456 0.015534
0.533957 0.918381 0.015646
0.606608 0.918307 0.015759
0.679258 0.918232 0.015871
0.751909 0.918157 0.015983
0.824560 0.918083 0.016095
0.897211 0.918008 0.016207
0.969862 0.917933 0.016319
1.000000 0.917858 0.016431
1.000000 0.917783 0.016543
0.000000 0.987926 0.014970
0.024961 0.987852 0.015082
0.097612 0.987777 0.015194
0.170263 0.987702 0.015306
0.242914 0.987627 0.015418
0.315564 0.987553 0.015530
0.388215 0.987478 0.015642
0.460866 0.987403 0.015754
0.533517 0.987328 0.015867
0.606168 0.987254 0.015979
0.678818 0.987179 0.016091
0.751469 0.987104 0.016203
0.824120 0.987030 0.016315
0.896771 0.986955 0.016427
0.969421 0.986880 0.016539
1.000000 0.986805 0.016651
1.000000 0.986730 0.016764
0.000000 1.000000 0.015190
0.024521 1.000000 0.015302
0.097172 1.000000 0.015414
0.169823 1.000000 0.015526
0.242473 1.000000 0.015638
0.315124 1.000000 0.015750
0.387775 1.000000 0.015862
0.460426 1.000000 0.015975
0.533077 1.000000 0.016087
0.605727 1.000000 0.016199
0.678378 1.000000 0.016311
0.751029 1.000000 0.016423
0.823680 1.000000 0.016535
0.896330 1.000000 0.016647
0.968981 1.000000 0.016759
1.000000 1.000000 0.016872
1.000000 1.000000 0.016984
0.000000 0.000000 0.076335
0.031480 0.000000 0.076448
0.104130 0.000000 0.076560
0.176781 0.000000 0.076672
0.249432 0.000000 0.076784
0.322083 0.000000 0.076896
0.394733 0.000000 0.077008
0.467384 0.000000 0.077120
0.540035 0.000000 0.077232
0.612686 0.000000 0.077345
0.685337 0.000000 0.077457
0.757987 0.000000 0.077569
0.830638 0.000000 0.077681
0.903289 0.000000 0.077793
0.975940 0.000000 0.077905
1.000000 0.000000 0.078017
1.000000 0.000000 0.078129
0.000000 0.022640 0.076556
0.031039 0.022565 0.076668
0.103690 0.022490 0.076780
0.176341 0.022416 0.076892
0.248992 0.022341 0.077004
0.321642 0.022266 0.077116
0.394293 0.022191 0.077228
0.466944 0.022117 0.077340
0.539595 0.022042 0.077453
0.612245 0.021967 0.077565
0.684896 0.021892 0.077677
0.757547 0.021818 0.077789
0.830198 0.021743 0.077901
0.902849 0.021668 0.078013
0.975499 0.021593 0.078125
1.000000 0.021519 0.078237
1.000000 0.021444 0.078350
0.000000 0.091587 0.076776
0.030599 0.091512 0.076888
0.103250 0.091437 0.077000
0.175901 0.091363 0.077112
0.248551 0.091288 0.077224
0.321202 0.091213 0.077336
0.393853 0.091138 0.077448
0.466504 0.091064 0.077561
0.539154 0.090989 0.077673
0.611805 0.090914 0.077785
0.684456 0.090839 0.077897
0.757107 0.090765 0.078009
0.829758 0.090690 0.078121
0.902408 0.090615 0.078233
0.975059 0.090540 0.078345
1.000000 0.090466 0.078458
1.000000 0.090391 0.078570
0.000000 0.160534 0.076996
0.030159 0.160459 0.077108
0.102810 0.160384 0.077220
0.175461 0.160310 0.077332
0.248111 0.160235 0.077444
0.320762 0.160160 0.077556
0.393413 0.160085 0.077669
0.466064 0.160011 0.077781
0.538714 0.159936 0.077893
0.611365 0.159861 0.078005
0.684016 0.159786 0.078117
0.756667 0.159712 0.078229
0.829317 0.159637 0.078341
0.901968 0.159562 0.078453
0.974619 0.159487 0.078566
1.000000 0.159413 0.078678
1.000000 0.159338 0.078790
0.000000 0.229481 0.077216
0.029719 0.229406 0.077328
0.102369 0.229331 0.077440
0.175020 0.229257 0.077552
0.247671 0.229182 0.077664
0.320322 0.229107 0.077777
0.392973 0.229032 0.077889
0.465623 0.228958 0.078001
0.538274 0.228883 0.078113
0.610925 0.228808 0.078225
0.683576 0.228733 0.078337
0.756226 0.228659 0.078449
0.828877 0.228584 0.078561
0.901528 0.228509 0.078674
0.974179 0.228434 0.078786
1.000000 0.228360 0.078898
1.000000 0.228285 0.079010
0.000000 0.298428 0.077436
0.029278 0.298353 0.077548
0.101929 0.298278 0.077660
0.174580 0.298204 0.077772
0.247231 0.298129 0.077885
0.319881 0.298054 0.077997
0.392532 0.297979 0.078109
0.465183 0.297905 0.078221
0.537834 0.297830 0.078333
0.610485 0.297755 0.078445
0.683135 0.297680 0.078557
0.755786 0.297606 0.078669
0.828437 0.297531 0.078782
0.901088 0.297456 0.078894
0.973738 0.297381 0.079006
1.000000 0.297307 0.079118
1.000000 0.297232 0.079230
0.000000 0.367375 0.077656
0.028838 0.367300 0.077768
0.101489 0.367225 0.077880
0.174140 0.367151 0.077993
0.246790 0.367076 0.078105
0.319441 0.367001 0.078217
0.392092 0.366926 0.078329
0.464743 0.366852 0.078441
0.537394 0.366777 0.078553
0.610044 0.366702 0.078665
0.682695 0.366627 0.078777
0.755346 0.366553 0.078890
0.827997 0.366478 0.079002
0.900647 0.366403 0.079114
0.973298 0.366328 0.079226
1.000000 0.366254 0.079338
1.000000 0.366179 0.079450
0.000000 0.436322 0.077876
0.028398 0.436247 0.077988
0.101049 0.436173 0.078101
0.173700 0.436098 0.078213
0.246350 0.436023 0.078325
0.319001 0.435948 0.078437
0.391652 0.435873 0.078549
0.464303 0.435799 0.078661
0.536953 0.435724 0.078773
0.609604 0.435649 0.078885
0.682255 0.435574 0.078998
0.754906 0.435500 0.079110
0.827556 0.435425 0.079222
0.900207 0.435350 0.079334
0.972858 0.435275 0.079446
1.000000 0.435201 0.079558
1.000000 0.435126 0.079670
0.000000 0.505269 0.078096
0.027958 0.505194 0.078209
0.100608 0.505119 0.078321
0.173259 0.505045 0.078433
0.245910 0.504970 0.078545
0.318561 0.504895 0.078657
0.391211 0.504820 0.078769
0.463862 0.504746 0.078881
0.536513 0.504671 0.078993
0.609164 0.504596 0.079106
0.681814 0.504521 0.079218
0.754465 0.504447 0.079330
0.827116 0.504372 0.079442
0.899767 0.504297 0.079554
0.972418 0.504222 0.079666
1.000000 0.504148 0.079778
1.000000 0.504073 0.079890
0.000000 0.574216 0.078317
0.027517 0.574141 0.078429
0.100168 0.574066 0.078541
0.172819 0.573992 0.078653
0.245470 0.573917 0.078765
0.318120 0.573842 0.078877
0.390771 0.573767 0.078989
0.463422 0.573693 0.079101
0.536073 0.573618 0.079214
0.608724 0.573543 0.079326
0.681374 0.573468 0.079438
0.754025 0.573394 0.079550
0.826676 0.573319 0.079662
0.899327 0.573244 0.079774
0.971977 0.573169 0.079886
1.000000 0.573095 0.079998
1.000000 0.573020 0.080111
0.000000 0.643163 0.078537
0.027077 0.643088 0.078649
0.099728 0.643013 0.078761
0.172379 0.642939 0.078873
0.245029 0.642864 0.078985
0.317680 0.642789 0.079097
0.390331 0.642714 0.079209
0.462982 0.642640 0.079322
0.535633 0.642565 0.079434
0.608283 0.642490 0.079546
0.680934 0.642415 0.079658
0.753585 0.642341 0.079770
0.826236 0.642266 0.079882
0.898886 0.642191 0.079994
0.971537 0.642116 0.080106
1.000000 0.642042 0.080219
1.000000 0.641967 0.080331
0.000000 0.712110 0.078757
0.026637 0.712035 0.078869
0.099288 0.711960 0.078981
0.171939 0.711886 0.079093
0.244589 0.711811 0.079205
0.317240 0.711736 0.079317
0.389891 0.711661 0.079430
0.462542 0.711587 0.079542
0.535192 0.711512 0.079654
0.607843 0.711437 0.079766
0.680494 0.711362 0.079878
0.753145 0.711288 0.079990
0.825795 0.711213 0.080102
0.898446 0.711138 0.080214
0.971097 0.711063 0.080327
1.000000 0.710989 0.080439
1.000000 0.710914 0.080551
0.000000 0.781057 0.078977
0.026197 0.780982 0.079089
0.098847 0.780907 0.079201
0.171498 0.780833 0.079313
0.244149 0.780758 0.079425
0.316800 0.780683 0.079538
0.389450 0.780609 0.079650
0.462101 0.780534 0.079762
0.534752 0.780459 0.079874
0.607403 0.780384 0.079986
0.680053 0.780309 0.080098
0.752704 0.780235 0.080210
0.825355 0.780160 0.080322
0.898006 0.780085 0.080435
0.970657 0.780010 0.080547
1.000000 0.779936 0.080659
1.000000 0.779861 0.080771
0.000000 0.850004 0.079197
0.025756 0.849929 0.079309
0.098407 0.849854 0.079421
0.171058 0.849780 0.079533
0.243709 0.849705 0.079646
0.316359 0.849630 0.079758
0.389010 0.849555 0.079870
0.461661 0.849481 0.079982
0.534312 0.849406 0.080094
0.606963 0.849331 0.080206
0.679613 0.849256 0.080318
0.752264 0.849182 0.080430
0.824915 0.849107 0.080543
0.897566 0.849032 0.080655
0.970216 0.848957 0.080767
1.000000 0.848883 0.080879
1.000000 0.848808 0.080991
0.000000 0.918951 0.079417
0.025316 0.918876 0.079529
0.097967 0.918802 0.079641
0.170618 0.918727 0.079754
0.243268 0.918652 0.079866
0.315919 0.918577 0.079978
0.388570 0.918502 0.080090
0.461221 0.918428 0.080202
0.533872 0.918353 0.080314
0.606522 0.918278 0.080426
0.679173 0.918203 0.080538
0.751824 0.918129 0.080651
0.824475 0.918054 0.080763
0.897125 0.917979 0.080875
0.969776 0.917905 0.080987
1.000000 0.917830 0.081099
1.000000 0.917755 0.081211
0.000000 0.987898 0.079637
0.024876 0.987823 0.079749
0.097527 0.987748 0.079862
0.170178 0.987674 0.079974
0.242828 0.987599 0.080086
0.315479 0.987524 0.080198
0.388130 0.987449 0.080310
0.460781 0.987375 0.080422
0.533431 0.987300 0.080534
0.606082 0.987225 0.080646
0.678733 0.987150 0.080759
0.751384 0.987076 0.080871
0.824034 0.987001 0.080983
0.896685 0.986926 0.081095
0.969336 0.986851 0.081207
1.000000 0.986777 0.081319
1.000000 0.986702 0.081431
0.000000 1.000000 0.079857
0.024436 1.000000 0.079970
0.097086 1.000000 0.080082
0.169737 1.000000 0.080194
0.242388 1.000000 0.080306
0.315039 1.000000 0.080418
0.387689 1.000000 0.080530
0.460340 1.000000 0.080642
0.532991 1.000000 0.080754
0.605642 1.000000 0.080867
0.678292 1.000000 0.080979
0.750943 1.000000 0.081091
0.823594 1.000000 0.081203
0.896245 1.000000 0.081315
0.968896 1.000000 0.081427
1.000000 1.000000 0.081539
1.000000 1.000000 0.081651
0.000000 0.000000 0.141003
0.031394 0.000000 0.141115
0.104045 0.000000 0.141227
0.176696 0.000000 0.141340
0.249346 0.000000 0.141452
0.321997 0.000000 0.141564
0.394648 0.000000 0.141676
0.467299 0.000000 0.141788
0.539950 0.000000 0.141900
0.612600 0.000000 0.142012
0.685251 0.000000 0.142124
0.757902 0.000000 0.142237
0.830553 0.000000 0.142349
0.903203 0.000000 0.142461
0.975854 0.000000 0.142573
1.000000 0.000000 0.142685
1.000000 0.000000 0.142797
0.000000 0.022611 0.141223
