assets/luts/01_warm_studio.cube
TITLE "Warm Studio"
LUT_3D_SIZE 9
DOMAIN_MIN 0.0 0.0 0.0
DOMAIN_MAX 1.0 1.0 1.0
0.000000 0.000000 0.000000
0.104301 0.000000 0.000000
0.249603 0.000000 0.000000
0.394904 0.000000 0.000000
0.540206 0.000000 0.000000
0.685507 0.000000 0.000000
0.830809 0.000000 0.000000
0.976111 0.000000 0.000000
1.000000 0.000000 0.000000
0.000000 0.091644 0.000000
0.103421 0.091494 0.000000
0.248722 0.091345 0.000000
0.394024 0.091195 0.000000
0.539326 0.091046 0.000000
0.684627 0.090896 0.000000
0.829929 0.090747 0.000000
0.975230 0.090597 0.000000
1.000000 0.090448 0.000000
0.000000 0.229538 0.000000
0.102540 0.229388 0.000000
0.247842 0.229239 0.000000
0.393143 0.229089 0.000000
0.538445 0.228940 0.000000
0.683746 0.228790 0.000000
0.829048 0.228641 0.000000
0.974350 0.228491 0.000000
1.000000 0.228342 0.000000
0.000000 0.367432 0.000000
0.101660 0.367282 0.000000
0.246962 0.367133 0.000000
0.392263 0.366983 0.000000
0.537565 0.366834 0.000000
0.682866 0.366684 0.000000
0.828168 0.366535 0.000000
0.973469 0.366385 0.000000
1.000000 0.366236 0.000000
0.000000 0.505326 0.000000
0.100779 0.505176 0.000000
0.246081 0.505027 0.000000
0.391382 0.504877 0.000000
0.536684 0.504728 0.000000
0.681985 0.504578 0.000000
0.827287 0.504429 0.000000
0.972589 0.504279 0.000000
1.000000 0.504130 0.000000
0.000000 0.643220 0.000000
0.099899 0.643070 0.000000
0.245200 0.642921 0.000000
0.390502 0.642771 0.000000
0.535803 0.642622 0.000000
0.681105 0.642472 0.000000
0.826407 0.642323 0.000000
0.971708 0.642173 0.000000
1.000000 0.642024 0.000000
0.000000 0.781114 0.000000
0.099018 0.780964 0.000000
0.244320 0.780815 0.000000
0.389621 0.780666 0.000000
0.534923 0.780516 0.000000
0.680225 0.780366 0.000000
0.825526 0.780217 0.000000
0.970828 0.780068 0.000000
1.000000 0.779918 0.000000
0.000000 0.919008 0.000000
0.098138 0.918859 0.000000
0.243440 0.918709 0.000000
0.388741 0.918559 0.000000
0.534042 0.918410 0.000000
0.679344 0.918261 0.000000
0.824646 0.918111 0.000000
0.969947 0.917961 0.000000
1.000000 0.917812 0.000000
0.000000 1.000000 0.000000
0.097257 1.000000 0.000000
0.242559 1.000000 0.000000
0.387860 1.000000 0.000000
0.533162 1.000000 0.000000
0.678463 1.000000 0.000000
0.823765 1.000000 0.000000
0.969067 1.000000 0.000000
1.000000 1.000000 0.000000
0.000000 0.000000 0.076335
0.104130 0.000000 0.076560
0.249432 0.000000 0.076784
0.394733 0.000000 0.077008
0.540035 0.000000 0.077232
0.685337 0.000000 0.077457
0.830638 0.000000 0.077681
0.975940 0.000000 0.077905
1.000000 0.000000 0.078129
0.000000 0.091587 0.076776
0.103250 0.091437 0.077000
0.248551 0.091288 0.077224
0.393853 0.091138 0.077448
0.539154 0.090989 0.077673
0.684456 0.090839 0.077897
0.829758 0.090690 0.078121
0.975059 0.090540 0.078345
1.000000 0.090391 0.078570
0.000000 0.229481 0.077216
0.102369 0.229331 0.077440
0.247671 0.229182 0.077664
0.392973 0.229032 0.077889
0.538274 0.228883 0.078113
0.683576 0.228733 0.078337
0.828877 0.228584 0.078561
0.974179 0.228434 0.078786
1.000000 0.228285 0.079010
0.000000 0.367375 0.077656
0.101489 0.367225 0.077880
0.246790 0.367076 0.078105
0.392092 0.366926 0.078329
0.537394 0.366777 0.078553
0.682695 0.366627 0.078777
0.827997 0.366478 0.079002
0.973298 0.366328 0.079226
1.000000 0.366179 0.079450
0.000000 0.505269 0.078096
0.100608 0.505119 0.078321
0.245910 0.504970 0.078545
0.391211 0.504820 0.078769
0.536513 0.504671 0.078993
0.681814 0.504521 0.079218
0.827116 0.504372 0.079442
0.972418 0.504222 0.079666
1.000000 0.504073 0.079890
0.000000 0.643163 0.078537
0.099728 0.643013 0.078761
0.245029 0.642864 0.078985
0.390331 0.642714 0.079209
0.535633 0.642565 0.079434
0.680934 0.642415 0.079658
0.826236 0.642266 0.079882
0.971537 0.642116 0.080106
1.000000 0.641967 0.080331
0.000000 0.781057 0.078977
0.098847 0.780907 0.079201
0.244149 0.780758 0.079425
0.389450 0.780609 0.079650
0.534752 0.780459 0.079874
0.680053 0.780309 0.080098
0.825355 0.780160 0.080322
0.970657 0.780010 0.080547
1.000000 0.779861 0.080771
0.000000 0.918951 0.079417
0.097967 0.918802 0.079641
0.243268 0.918652 0.079866
0.388570 0.918502 0.080090
0.533872 0.918353 0.080314
0.679173 0.918203 0.080538
0.824475 0.918054 0.080763
0.969776 0.917905 0.080987
1.000000 0.917755 0.081211
0.000000 1.000000 0.079857
0.097086 1.000000 0.080082
0.242388 1.000000 0.080306
0.387689 1.000000 0.080530
0.532991 1.000000 0.080754
0.678292 1.000000 0.080979
0.823594 1.000000 0.081203
0.968896 1.000000 0.081427
1.000000 1.000000 0.081651
0.000000 0.000000 0.205671
0.103959 0.000000 0.205895
0.249261 0.000000 0.206119
0.394562 0.000000 0.206344
0.539864 0.000000 0.206568
0.685165 0.000000 0.206792
0.830467 0.000000 0.207016
0.975769 0.000000 0.207241
1.000000 0.000000 0.207465
0.000000 0.091530 0.206111
0.103079 0.091380 0.206335
0.248381 0.091231 0.206560
0.393682 0.091081 0.206784
0.538984 0.090932 0.207008
0.684285 0.090782 0.207232
0.829587 0.090633 0.207457
0.974888 0.090483 0.207681
1.000000 0.090334 0.207905
0.000000 0.229424 0.206551
0.102198 0.229274 0.206776
0.247500 0.229125 0.207000
0.392801 0.228975 0.207224
0.538103 0.228826 0.207448
0.683404 0.228676 0.207673
0.828706 0.228527 0.207897
0.974008 0.228377 0.208121
1.000000 0.228228 0.208345
0.000000 0.367318 0.206992
0.101318 0.367168 0.207216
0.246619 0.367019 0.207440
0.391921 0.366869 0.207664
0.537223 0.366720 0.207889
0.682524 0.366570 0.208113
0.827826 0.366421 0.208337
0.973127 0.366271 0.208561
1.000000 0.366122 0.208786
0.000000 0.505212 0.207432
0.100437 0.505062 0.207656
0.245739 0.504913 0.207880
0.391040 0.504763 0.208105
0.536342 0.504614 0.208329
0.681643 0.504464 0.208553
0.826945 0.504315 0.208777
0.972247 0.504165 0.209002
1.000000 0.504016 0.209226
0.000000 0.643106 0.207872
0.099557 0.642956 0.208096
0.244858 0.642807 0.208321
0.390160 0.642657 0.208545
0.535462 0.642508 0.208769
0.680763 0.642358 0.208993
0.826065 0.642209 0.209218
0.971366 0.642059 0.209442
1.000000 0.641910 0.209666
0.000000 0.781000 0.208312
0.098676 0.780851 0.208537
0.243978 0.780701 0.208761
0.389280 0.780551 0.208985
0.534581 0.780402 0.209209
0.679882 0.780253 0.209434
0.825184 0.780103 0.209658
0.970486 0.779953 0.209882
1.000000 0.779804 0.210106
0.000000 0.918894 0.208753
0.097796 0.918744 0.208977
0.243097 0.918595 0.209201
0.388399 0.918446 0.209425
0.533701 0.918296 0.209650
0.679002 0.918146 0.209874
0.824304 0.917997 0.210098
0.969605 0.917848 0.210322
1.000000 0.917698 0.210547
0.000000 1.000000 0.209193
0.096915 1.000000 0.209417
0.242217 1.000000 0.209641
0.387518 1.000000 0.209866
0.532820 1.000000 0.210090
0.678121 1.000000 0.210314
0.823423 1.000000 0.210538
0.968725 1.000000 0.210763
1.000000 1.000000 0.210987
0.000000 0.000000 0.335006
0.103788 0.000000 0.335231
0.249090 0.000000 0.335455
0.394392 0.000000 0.335679
0.539693 0.000000 0.335904
0.684994 0.000000 0.336128
0.830296 0.000000 0.336352
0.975598 0.000000 0.336576
1.000000 0.000000 0.336801
0.000000 0.091473 0.335447
0.102908 0.091323 0.335671
0.248209 0.091174 0.335895
0.393511 0.091024 0.336120
0.538813 0.090875 0.336344
0.684114 0.090725 0.336568
0.829416 0.090576 0.336792
0.974717 0.090426 0.337016
1.000000 0.090277 0.337241
0.000000 0.229367 0.335887
0.102027 0.229217 0.336111
0.247329 0.229068 0.336336
0.392630 0.228918 0.336560
0.537932 0.228769 0.336784
0.683233 0.228619 0.337008
0.828535 0.228470 0.337232
0.973837 0.228320 0.337457
1.000000 0.228171 0.337681
0.000000 0.367261 0.336327
0.101147 0.367111 0.336552
0.246448 0.366962 0.336776
0.391750 0.366812 0.337000
0.537052 0.366663 0.337224
0.682353 0.366513 0.337448
0.827655 0.366364 0.337673
0.972956 0.366214 0.337897
1.000000 0.366065 0.338121
0.000000 0.505155 0.336767
0.100266 0.505005 0.336992
0.245568 0.504856 0.337216
0.390869 0.504706 0.337440
0.536171 0.504557 0.337664
0.681472 0.504407 0.337889
0.826774 0.504258 0.338113
0.972076 0.504108 0.338337
1.000000 0.503959 0.338562
0.000000 0.643049 0.337208
0.099386 0.642899 0.337432
0.244688 0.642750 0.337656
0.389989 0.642600 0.337880
0.535291 0.642451 0.338105
0.680592 0.642301 0.338329
0.825894 0.642152 0.338553
0.971195 0.642002 0.338778
1.000000 0.641853 0.339002
0.000000 0.780943 0.337648
0.098505 0.780794 0.337872
0.243807 0.780644 0.338097
0.389108 0.780494 0.338321
0.534410 0.780345 0.338545
0.679711 0.780195 0.338769
0.825013 0.780046 0.338994
0.970315 0.779896 0.339218
1.000000 0.779747 0.339442
0.000000 0.918837 0.338088
0.097625 0.918687 0.338313
0.242926 0.918538 0.338537
0.388228 0.918389 0.338761
0.533529 0.918239 0.338985
0.678831 0.918090 0.339209
0.824133 0.917940 0.339434
0.969434 0.917790 0.339658
1.000000 0.917641 0.339882
0.000000 1.000000 0.338529
0.096744 1.000000 0.338753
0.242046 1.000000 0.338977
0.387347 1.000000 0.339201
0.532649 1.000000 0.339425
0.677951 1.000000 0.339650
0.823252 1.000000 0.339874
0.968554 1.000000 0.340098
1.000000 1.000000 0.340322
0.000000 0.000000 0.464342
0.103617 0.000000 0.464566
0.248919 0.000000 0.464790
0.394220 0.000000 0.465015
0.539522 0.000000 0.465239
0.684823 0.000000 0.465463
0.830125 0.000000 0.465687
0.975427 0.000000 0.465912
1.000000 0.000000 0.466136
0.000000 0.091416 0.464782
0.102737 0.091266 0.465006
0.248038 0.091117 0.465231
0.393340 0.090967 0.465455
0.538641 0.090818 0.465679
0.683943 0.090668 0.465903
0.829245 0.090519 0.466128
0.974546 0.090369 0.466352
1.000000 0.090220 0.466576
0.000000 0.229310 0.465222
0.101856 0.229160 0.465447
0.247158 0.229011 0.465671
0.392459 0.228861 0.465895
0.537761 0.228712 0.466119
0.683063 0.228562 0.466344
0.828364 0.228413 0.466568
0.973666 0.228263 0.466792
1.000000 0.228114 0.467016
0.000000 0.367204 0.465663
0.100976 0.367054 0.465887
0.246277 0.366905 0.466111
0.391579 0.366755 0.466335
0.536880 0.366606 0.466560
0.682182 0.366456 0.466784
0.827484 0.366307 0.467008
0.972785 0.366157 0.467232
1.000000 0.366008 0.467457
0.000000 0.505098 0.466103
0.100095 0.504948 0.466327
0.245397 0.504799 0.466551
0.390699 0.504649 0.466776
0.536000 0.504500 0.467000
0.681302 0.504350 0.467224
0.826603 0.504201 0.467448
0.971905 0.504051 0.467673
1.000000 0.503902 0.467897
0.000000 0.642992 0.466543
0.099215 0.642842 0.466767
0.244516 0.642693 0.466992
0.389818 0.642543 0.467216
0.535120 0.642394 0.467440
0.680421 0.642244 0.467664
0.825723 0.642095 0.467889
0.971024 0.641945 0.468113
1.000000 0.641796 0.468337
0.000000 0.780886 0.466983
0.098334 0.780736 0.467208
0.243636 0.780587 0.467432
0.388937 0.780438 0.467656
0.534239 0.780288 0.467880
0.679540 0.780138 0.468105
0.824842 0.779989 0.468329
0.970144 0.779840 0.468553
1.000000 0.779690 0.468777
0.000000 0.918780 0.467424
0.097454 0.918631 0.467648
0.242755 0.918481 0.467872
0.388057 0.918331 0.468096
0.533359 0.918182 0.468321
0.678660 0.918033 0.468545
0.823962 0.917883 0.468769
0.969263 0.917733 0.468993
1.000000 0.917584 0.469218
0.000000 1.000000 0.467864
0.096573 1.000000 0.468088
0.241875 1.000000 0.468312
0.387176 1.000000 0.468537
0.532478 1.000000 0.468761
0.677779 1.000000 0.468985
0.823081 1.000000 0.469209
0.968383 1.000000 0.469434
1.000000 1.000000 0.469658
0.000000 0.000000 0.593677
0.103446 0.000000 0.593902
0.248748 0.000000 0.594126
0.394049 0.000000 0.594350
0.539351 0.000000 0.594574
0.684652 0.000000 0.594799
0.829954 0.000000 0.595023
0.975256 0.000000 0.595247
1.000000 0.000000 0.595471
0.000000 0.091359 0.594118
0.102566 0.091209 0.594342
0.247867 0.091060 0.594566
0.393169 0.090910 0.594790
0.538471 0.090761 0.595015
0.683772 0.090611 0.595239
0.829074 0.090462 0.595463
0.974375 0.090312 0.595687
1.000000 0.090163 0.595912
0.000000 0.229253 0.594558
0.101685 0.229103 0.594782
0.246987 0.228954 0.595006
0.392288 0.228804 0.595231
0.537590 0.228655 0.595455
0.682891 0.228505 0.595679
0.828193 0.228356 0.595903
0.973495 0.228206 0.596128
1.000000 0.228057 0.596352
0.000000 0.367147 0.594998
0.100805 0.366997 0.595222
0.246106 0.366848 0.595447
0.391408 0.366698 0.595671
0.536710 0.366549 0.595895
0.682011 0.366399 0.596119
0.827313 0.366250 0.596344
0.972614 0.366100 0.596568
1.000000 0.365951 0.596792
0.000000 0.505041 0.595438
0.099924 0.504891 0.595663
0.245226 0.504742 0.595887
0.390527 0.504592 0.596111
0.535829 0.504443 0.596335
0.681130 0.504293 0.596560
0.826432 0.504144 0.596784
0.971734 0.503994 0.597008
1.000000 0.503845 0.597232
0.000000 0.642935 0.595879
0.099044 0.642785 0.596103
0.244345 0.642636 0.596327
0.389647 0.642486 0.596551
0.534949 0.642337 0.596776
0.680250 0.642187 0.597000
0.825552 0.642038 0.597224
0.970853 0.641888 0.597448
1.000000 0.641739 0.597673
0.000000 0.780829 0.596319
0.098163 0.780679 0.596543
0.243465 0.780530 0.596767
0.388766 0.780381 0.596992
0.534068 0.780231 0.597216
0.679369 0.780081 0.597440
0.824671 0.779932 0.597664
0.969973 0.779782 0.597889
1.000000 0.779633 0.598113
0.000000 0.918723 0.596759
0.097283 0.918574 0.596984
0.242584 0.918424 0.597208
0.387886 0.918274 0.597432
0.533188 0.918125 0.597656
0.678489 0.917976 0.597880
0.823791 0.917826 0.598105
0.969092 0.917677 0.598329
1.000000 0.917527 0.598553
0.000000 1.000000 0.597199
0.096402 1.000000 0.597424
0.241704 1.000000 0.597648
0.387006 1.000000 0.597872
0.532307 1.000000 0.598096
0.677608 1.000000 0.598321
0.822910 1.000000 0.598545
0.968212 1.000000 0.598769
1.000000 1.000000 0.598993
0.000000 0.000000 0.723013
0.103275 0.000000 0.723237
0.248577 0.000000 0.723461
0.393878 0.000000 0.723686
0.539180 0.000000 0.723910
0.684481 0.000000 0.724134
0.829783 0.000000 0.724358
0.975085 0.000000 0.724583
1.000000 0.000000 0.724807
0.000000 0.091302 0.723453
0.102395 0.091152 0.723677
0.247696 0.091003 0.723902
0.392998 0.090853 0.724126
0.538300 0.090704 0.724350
0.683601 0.090554 0.724574
0.828903 0.090405 0.724799
0.974204 0.090255 0.725023
1.000000 0.090106 0.725247
0.000000 0.229196 0.723893
0.101514 0.229046 0.724118
0.246816 0.228897 0.724342
0.392118 0.228747 0.724566
0.537419 0.228598 0.724790
0.682720 0.228448 0.725015
0.828022 0.228299 0.725239
0.973324 0.228149 0.725463
1.000000 0.228000 0.725687
0.000000 0.367090 0.724334
0.100634 0.366940 0.724558
0.245936 0.366791 0.724782
0.391237 0.366641 0.725006
0.536539 0.366492 0.725231
0.681840 0.366342 0.725455
0.827142 0.366193 0.725679
0.972443 0.366043 0.725903
1.000000 0.365894 0.726128
0.000000 0.504984 0.724774
0.099753 0.504834 0.724998
0.245055 0.504685 0.725222
0.390356 0.504535 0.725447
0.535658 0.504386 0.725671
0.680959 0.504236 0.725895
0.826261 0.504087 0.726119
0.971563 0.503937 0.726344
1.000000 0.503788 0.726568
0.000000 0.642878 0.725214
0.098873 0.642728 0.725438
0.244174 0.642579 0.725663
0.389476 0.642429 0.725887
0.534778 0.642280 0.726111
0.680079 0.642130 0.726335
0.825381 0.641981 0.726560
0.970682 0.641831 0.726784
1.000000 0.641682 0.727008
0.000000 0.780772 0.725654
0.097992 0.780622 0.725879
0.243294 0.780473 0.726103
0.388595 0.780323 0.726327
0.533897 0.780174 0.726551
0.679198 0.780025 0.726776
0.824500 0.779875 0.727000
0.969802 0.779725 0.727224
1.000000 0.779576 0.727448
0.000000 0.918666 0.726095
0.097112 0.918516 0.726319
0.242414 0.918367 0.726543
0.387715 0.918218 0.726767
0.533017 0.918068 0.726992
0.678318 0.917918 0.727216
0.823620 0.917769 0.727440
0.968921 0.917620 0.727664
1.000000 0.917470 0.727889
0.000000 1.000000 0.726535
0.096231 1.000000 0.726759
0.241533 1.000000 0.726983
0.386834 1.000000 0.727208
0.532136 1.000000 0.727432
0.677437 1.000000 0.727656
0.822739 1.000000 0.727880
0.968041 1.000000 0.728105
1.000000 1.000000 0.728329
0.000000 0.000000 0.852349
0.103104 0.000000 0.852573
0.248406 0.000000 0.852797
0.393707 0.000000 0.853021
0.539009 0.000000 0.853245
0.684310 0.000000 0.853470
0.829612 0.000000 0.853694
0.974914 0.000000 0.853918
1.000000 0.000000 0.854143
0.000000 0.091245 0.852789
0.102224 0.091095 0.853013
0.247525 0.090946 0.853237
0.392827 0.090796 0.853461
0.538129 0.090647 0.853686
0.683430 0.090497 0.853910
0.828732 0.090348 0.854134
0.974033 0.090198 0.854359
1.000000 0.090049 0.854583
0.000000 0.229139 0.853229
0.101343 0.228989 0.853453
0.246645 0.228840 0.853677
0.391946 0.228690 0.853902
0.537248 0.228541 0.854126
0.682549 0.228391 0.854350
0.827851 0.228242 0.854575
0.973153 0.228092 0.854799
1.000000 0.227943 0.855023
0.000000 0.367033 0.853669
0.100463 0.366883 0.853893
0.245764 0.366734 0.854118
0.391066 0.366584 0.854342
0.536367 0.366435 0.854566
0.681669 0.366285 0.854791
0.826971 0.366136 0.855015
0.972272 0.365986 0.855239
1.000000 0.365837 0.855463
0.000000 0.504927 0.854109
0.099582 0.504777 0.854334
0.244884 0.504628 0.854558
0.390185 0.504478 0.854782
0.535487 0.504329 0.855007
0.680788 0.504179 0.855231
0.826090 0.504030 0.855455
0.971392 0.503880 0.855679
1.000000 0.503731 0.855904
0.000000 0.642821 0.854550
0.098702 0.642671 0.854774
0.244003 0.642522 0.854998
0.389305 0.642372 0.855222
0.534606 0.642223 0.855447
0.679908 0.642073 0.855671
0.825210 0.641924 0.855895
0.970511 0.641774 0.856120
1.000000 0.641625 0.856344
0.000000 0.780715 0.854990
0.097821 0.780566 0.855214
0.243123 0.780416 0.855438
0.388425 0.780266 0.855663
0.533726 0.780117 0.855887
0.679028 0.779968 0.856111
0.824329 0.779818 0.856336
0.969631 0.779668 0.856560
1.000000 0.779519 0.856784
0.000000 0.918609 0.855430
0.096941 0.918459 0.855654
0.242242 0.918310 0.855879
0.387544 0.918161 0.856103
0.532845 0.918011 0.856327
0.678147 0.917861 0.856552
0.823449 0.917712 0.856776
0.968750 0.917562 0.857000
1.000000 0.917413 0.857224
0.000000 1.000000 0.855870
0.096060 1.000000 0.856095
0.241362 1.000000 0.856319
0.386663 1.000000 0.856543
0.531965 1.000000 0.856768
0.677266 1.000000 0.856992
0.822568 1.000000 0.857216
0.967870 1.000000 0.857440
1.000000 1.000000 0.857665
0.000000 0.000000 0.981684
0.102933 0.000000 0.981908
0.248235 0.000000 0.982132
0.393536 0.000000 0.982357
0.538838 0.000000 0.982581
0.684140 0.000000 0.982805
0.829441 0.000000 0.983030
0.974743 0.000000 0.983254
1.000000 0.000000 0.983478
0.000000 0.091188 0.982124
0.102053 0.091038 0.982348
0.247354 0.090889 0.982573
0.392656 0.090739 0.982797
0.537957 0.090590 0.983021
0.683259 0.090440 0.983245
0.828561 0.090291 0.983470
0.973862 0.090141 0.983694
1.000000 0.089992 0.983918
0.000000 0.229082 0.982564
0.101172 0.228932 0.982789
0.246474 0.228783 0.983013
0.391775 0.228633 0.983237
0.537077 0.228484 0.983461
0.682378 0.228334 0.983686
0.827680 0.228185 0.983910
0.972982 0.228035 0.984134
1.000000 0.227886 0.984359
0.000000 0.366976 0.983005
0.100292 0.366826 0.983229
0.245593 0.366677 0.983453
0.390895 0.366527 0.983677
0.536197 0.366378 0.983902
0.681498 0.366228 0.984126
0.826800 0.366079 0.984350
0.972101 0.365929 0.984575
1.000000 0.365780 0.984799
0.000000 0.504870 0.983445
0.099411 0.504720 0.983669
0.244713 0.504571 0.983893
0.390014 0.504421 0.984118
0.535316 0.504272 0.984342
0.680617 0.504122 0.984566
0.825919 0.503973 0.984791
0.971221 0.503823 0.985015
1.000000 0.503674 0.985239
0.000000 0.642764 0.983885
0.098531 0.642614 0.984109
0.243832 0.642465 0.984334
0.389134 0.642315 0.984558
0.534436 0.642166 0.984782
0.679737 0.642016 0.985007
0.825039 0.641867 0.985231
0.970340 0.641717 0.985455
1.000000 0.641568 0.985679
0.000000 0.780658 0.984325
0.097650 0.780508 0.984550
0.242952 0.780359 0.984774
0.388253 0.780210 0.984998
0.533555 0.780060 0.985223
0.678856 0.779910 0.985447
0.824158 0.779761 0.985671
0.969460 0.779612 0.985895
1.000000 0.779462 0.986120
0.000000 0.918552 0.984766
0.096770 0.918403 0.984990
0.242071 0.918253 0.985214
0.387373 0.918103 0.985438
0.532675 0.917954 0.985663
0.677976 0.917805 0.985887
0.823278 0.917655 0.986111
0.968579 0.917505 0.986336
1.000000 0.917356 0.986560
0.000000 1.000000 0.985206
0.095889 1.000000 0.985430
0.241191 1.000000 0.985654
0.386492 1.000000 0.985879
0.531794 1.000000 0.986103
0.677095 1.000000 0.986327
0.822397 1.000000 0.986552
0.967699 1.000000 0.986776
1.000000 1.000000 0.987000
