assets/luts/02_cool_cinema.cube
TITLE "Cool Cinema (teal & orange)"
LUT_3D_SIZE 17
DOMAIN_MIN 0.0 0.0 0.0
DOMAIN_MAX 1.0 1.0 1.0
0.000000 0.000000 0.000000
0.000000 0.000000 0.000000
0.015864 0.000000 0.000000
0.091296 0.000000 0.000000
0.166728 0.000000 0.000000
0.242159 0.000000 0.000000
0.317591 0.000000 0.000000
0.393023 0.000000 0.000000
0.468455 0.000000 0.000000
0.543887 0.000000 0.000000
0.619319 0.000000 0.000000
0.694751 0.000000 0.000000
0.770182 0.000000 0.000000
0.845614 0.000000 0.000000
0.921046 0.000000 0.000000
0.996478 0.000000 0.000000
1.000000 0.000000 0.000000
0.000000 0.000000 0.000000
0.000000 0.000000 0.000000
0.019166 0.000000 0.000000
0.094598 0.000000 0.000000
0.170029 0.000000 0.000000
0.245461 0.000000 0.000000
0.320893 0.000000 0.000000
0.396325 0.000000 0.000000
0.471757 0.000000 0.000000
0.547189 0.000000 0.000000
0.622621 0.000000 0.000000
0.698052 0.000000 0.000000
0.773484 0.000000 0.000000
0.848916 0.000000 0.000000
0.924348 0.000000 0.000000
0.999780 0.000000 0.000000
1.000000 0.000000 0.000000
0.000000 0.067739 0.000000
0.000000 0.067291 0.000000
0.022468 0.066842 0.000000
0.097899 0.066393 0.000000
0.173331 0.065945 0.000000
0.248763 0.065496 0.000000
0.324195 0.065048 0.000000
0.399627 0.064599 0.000000
0.475059 0.064151 0.000000
0.550491 0.063702 0.000000
0.625922 0.063254 0.000000
0.701354 0.062806 0.000000
0.776786 0.062357 0.000000
0.852218 0.061908 0.000000
0.927650 0.061460 0.000000
1.000000 0.061011 0.000000
1.000000 0.060563 0.000000
0.000000 0.140609 0.000000
0.000000 0.140160 0.000000
0.025769 0.139712 0.000000
0.101201 0.139263 0.000000
0.176633 0.138815 0.000000
0.252065 0.138366 0.000000
0.327497 0.137918 0.000000
0.402929 0.137469 0.000000
0.478361 0.137021 0.000000
0.553793 0.136572 0.000000
0.629224 0.136124 0.000000
0.704656 0.135675 0.000000
0.780088 0.135227 0.000000
0.855520 0.134778 0.000000
0.930952 0.134330 0.000000
1.000000 0.133881 0.000000
1.000000 0.133433 0.000000
0.000000 0.213478 0.000000
0.000000 0.213030 0.000000
0.029071 0.212581 0.000000
0.104503 0.212133 0.000000
0.179935 0.211684 0.000000
0.255367 0.211236 0.000000
0.330799 0.210787 0.000000
0.406231 0.210339 0.000000
0.481662 0.209890 0.000000
0.557094 0.209442 0.000000
0.632526 0.208993 0.000000
0.707958 0.208545 0.000000
0.783390 0.208096 0.000000
0.858822 0.207648 0.000000
0.934254 0.207199 0.000000
1.000000 0.206751 0.000000
1.000000 0.206302 0.000000
0.000000 0.286347 0.000000
0.000000 0.285899 0.000000
0.032373 0.285450 0.000000
0.107805 0.285002 0.000000
0.183237 0.284554 0.000000
0.258669 0.284105 0.000000
0.334101 0.283656 0.000000
0.409533 0.283208 0.000000
0.484964 0.282759 0.000000
0.560396 0.282311 0.000000
0.635828 0.281863 0.000000
0.711260 0.281414 0.000000
0.786692 0.280965 0.000000
0.862124 0.280517 0.000000
0.937556 0.280068 0.000000
1.000000 0.279620 0.000000
1.000000 0.279172 0.000000
0.000000 0.359217 0.000000
0.000000 0.358769 0.000000
0.035675 0.358320 0.000000
0.111107 0.357872 0.000000
0.186539 0.357423 0.000000
0.261971 0.356975 0.000000
0.337403 0.356526 0.000000
0.412834 0.356078 0.000000
0.488266 0.355629 0.000000
0.563698 0.355181 0.000000
0.639130 0.354732 0.000000
0.714562 0.354284 0.000000
0.789994 0.353835 0.000000
0.865426 0.353387 0.000000
0.940858 0.352938 0.000000
1.000000 0.352511 0.000000
1.000000 0.352959 0.000000
0.000000 0.432087 0.000000
0.000000 0.431638 0.000000
0.038977 0.431190 0.000000
0.114409 0.430741 0.000000
0.189841 0.430293 0.000000
0.265273 0.429844 0.000000
0.340704 0.429396 0.000000
0.416136 0.428947 0.000000
0.491568 0.428499 0.000000
0.567000 0.428050 0.000000
0.642432 0.427602 0.000000
0.717864 0.427153 0.000000
0.793296 0.426705 0.000000
0.868727 0.426256 0.000000
0.944528 0.426693 0.000000
1.000000 0.427141 0.000000
1.000000 0.427590 0.000000
0.000000 0.504956 0.000000
0.000000 0.504507 0.000000
0.042279 0.504059 0.000000
0.117711 0.503610 0.000000
0.193143 0.503162 0.000000
0.268574 0.502714 0.000000
0.344006 0.502265 0.000000
0.419438 0.501816 0.000000
0.494870 0.501368 0.000000
0.570302 0.500919 0.000000
0.645734 0.500471 0.000000
0.721166 0.500023 0.000000
0.796952 0.500426 0.000000
0.872758 0.500875 0.000000
0.948564 0.501323 0.000000
1.000000 0.501772 0.000000
1.000000 0.502220 0.000000
0.000000 0.577825 0.000000
0.000000 0.577377 0.000000
0.045581 0.576928 0.000000
0.121013 0.576480 0.000000
0.196444 0.576032 0.000000
0.271876 0.575583 0.000000
0.347308 0.575134 0.000000
0.422740 0.574686 0.000000
0.498172 0.574237 0.000000
0.573604 0.573789 0.000000
0.649377 0.574159 0.000000
0.725182 0.574608 0.000000
0.800988 0.575056 0.000000
0.876794 0.575505 0.000000
0.952599 0.575954 0.000000
1.000000 0.576402 0.000000
1.000000 0.576850 0.000000
0.000000 0.650695 0.000000
0.000000 0.650246 0.000000
0.048882 0.649798 0.000000
0.124314 0.649349 0.000000
0.199746 0.648901 0.000000
0.275178 0.648452 0.000000
0.350610 0.648004 0.000000
0.426042 0.647555 0.000000
0.501801 0.647893 0.000000
0.577607 0.648342 0.000000
0.653412 0.648790 0.000000
0.729218 0.649238 0.000000
0.805024 0.649687 0.000000
0.880829 0.650135 0.000000
0.956635 0.650584 0.000000
1.000000 0.651033 0.000000
1.000000 0.651481 0.000000
0.000000 0.723564 0.000000
0.000000 0.723116 0.000000
0.052184 0.722667 0.000000
0.127616 0.722219 0.000000
0.203048 0.721770 0.000000
0.278480 0.721322 0.000000
0.354226 0.721626 0.000000
0.430031 0.722075 0.000000
0.505837 0.722523 0.000000
0.581642 0.722972 0.000000
0.657448 0.723420 0.000000
0.733254 0.723869 0.000000
0.809059 0.724317 0.000000
0.884865 0.724766 0.000000
0.960671 0.725214 0.000000
1.000000 0.725663 0.000000
1.000000 0.726111 0.000000
0.000000 0.796434 0.000000
0.000000 0.795985 0.000000
0.055486 0.795537 0.000000
0.130918 0.795088 0.000000
0.206650 0.795360 0.000000
0.282456 0.795808 0.000000
0.358261 0.796257 0.000000
0.434067 0.796705 0.000000
0.509872 0.797154 0.000000
0.585678 0.797602 0.000000
0.661484 0.798051 0.000000
0.737289 0.798499 0.000000
0.813095 0.798948 0.000000
0.888901 0.799396 0.000000
0.964706 0.799845 0.000000
1.000000 0.800293 0.000000
1.000000 0.800742 0.000000
0.000000 0.869303 0.000000
0.000000 0.868855 0.000000
0.059074 0.869093 0.000000
0.134880 0.869542 0.000000
0.210686 0.869990 0.000000
0.286491 0.870439 0.000000
0.362297 0.870887 0.000000
0.438103 0.871336 0.000000
0.513908 0.871784 0.000000
0.589714 0.872233 0.000000
0.665519 0.872681 0.000000
0.741325 0.873130 0.000000
0.817131 0.873578 0.000000
0.892936 0.874027 0.000000
0.968742 0.874475 0.000000
1.000000 0.874924 0.000000
1.000000 0.875372 0.000000
0.000000 0.942827 0.000000
0.000000 0.943276 0.000000
0.063110 0.943724 0.000000
0.138916 0.944172 0.000000
0.214721 0.944621 0.000000
0.290527 0.945070 0.000000
0.366333 0.945518 0.000000
0.442138 0.945967 0.000000
0.517944 0.946415 0.000000
0.593749 0.946863 0.000000
0.669555 0.947312 0.000000
0.745361 0.947761 0.000000
0.821166 0.948209 0.000000
0.896972 0.948658 0.000000
0.972777 0.949106 0.000000
1.000000 0.949554 0.000000
1.000000 0.950003 0.000000
0.000000 1.000000 0.000000
0.000000 1.000000 0.000000
0.067146 1.000000 0.000000
0.142951 1.000000 0.000000
0.218757 1.000000 0.000000
0.294563 1.000000 0.000000
0.370368 1.000000 0.000000
0.446174 1.000000 0.000000
0.521979 1.000000 0.000000
0.597785 1.000000 0.000000
0.673591 1.000000 0.000000
0.749396 1.000000 0.000000
0.825202 1.000000 0.000000
0.901007 1.000000 0.000000
0.976813 1.000000 0.000000
1.000000 1.000000 0.000000
1.000000 1.000000 0.000000
0.000000 1.000000 0.000000
0.000000 1.000000 0.000000
0.071181 1.000000 0.000000
0.146987 1.000000 0.000000
0.222793 1.000000 0.000000
0.298598 1.000000 0.000000
0.374404 1.000000 0.000000
0.450209 1.000000 0.000000
0.526015 1.000000 0.000000
0.601821 1.000000 0.000000
0.677626 1.000000 0.000000
0.753432 1.000000 0.000000
0.829237 1.000000 0.000000
0.905043 1.000000 0.000000
0.980849 1.000000 0.000000
1.000000 1.000000 0.000000
1.000000 1.000000 0.000000
0.000000 0.000000 0.057681
0.000000 0.000000 0.054878
0.016505 0.000000 0.052075
0.091937 0.000000 0.049272
0.167369 0.000000 0.046469
0.242801 0.000000 0.043666
0.318233 0.000000 0.040863
0.393664 0.000000 0.038059
0.469096 0.000000 0.035256
0.544528 0.000000 0.032453
0.619960 0.000000 0.029650
0.695392 0.000000 0.026847
0.770824 0.000000 0.024044
0.846256 0.000000 0.021241
0.921687 0.000000 0.018438
0.997119 0.000000 0.015634
1.000000 0.000000 0.012831
0.000000 0.000000 0.052178
0.000000 0.000000 0.049375
0.019807 0.000000 0.046572
0.095239 0.000000 0.043769
0.170671 0.000000 0.040966
0.246103 0.000000 0.038163
0.321534 0.000000 0.035359
0.396966 0.000000 0.032556
0.472398 0.000000 0.029753
0.547830 0.000000 0.026950
0.623262 0.000000 0.024147
0.698694 0.000000 0.021344
0.774126 0.000000 0.018541
0.849557 0.000000 0.015738
0.924989 0.000000 0.012934
1.000000 0.000000 0.010131
1.000000 0.000000 0.007328
0.000000 0.067568 0.046675
0.000000 0.067119 0.043872
0.023109 0.066671 0.041069
0.098541 0.066222 0.038266
0.173973 0.065774 0.035463
0.249404 0.065325 0.032659
0.324836 0.064877 0.029856
0.400268 0.064428 0.027053
0.475700 0.063980 0.024250
0.551132 0.063531 0.021447
0.626564 0.063083 0.018644
0.701996 0.062634 0.015841
0.777427 0.062186 0.013038
0.852859 0.061737 0.010234
0.928291 0.061289 0.007431
1.000000 0.060840 0.004628
1.000000 0.060392 0.001825
0.000000 0.140438 0.041172
0.000000 0.139989 0.038369
0.026411 0.139541 0.035566
0.101843 0.139092 0.032763
0.177274 0.138644 0.029959
0.252706 0.138195 0.027156
0.328138 0.137747 0.024353
0.403570 0.137298 0.021550
0.479002 0.136850 0.018747
0.554434 0.136401 0.015944
0.629866 0.135953 0.013141
0.705297 0.135504 0.010338
0.780729 0.135056 0.007534
0.856161 0.134607 0.004731
0.931593 0.134159 0.001928
1.000000 0.133710 0.000000
1.000000 0.133262 0.000000
0.000000 0.213307 0.035669
0.000000 0.212859 0.032866
0.029712 0.212410 0.030063
0.105144 0.211962 0.027259
0.180576 0.211513 0.024456
0.256008 0.211065 0.021653
0.331440 0.210616 0.018850
0.406872 0.210168 0.016047
0.482304 0.209719 0.013244
0.557736 0.209271 0.010441
0.633167 0.208822 0.007638
0.708599 0.208374 0.004834
0.784031 0.207925 0.002031
0.859463 0.207477 0.000000
0.934895 0.207028 0.000000
1.000000 0.206580 0.000000
1.000000 0.206131 0.000000
0.000000 0.286177 0.030166
0.000000 0.285728 0.027363
0.033014 0.285280 0.024559
0.108446 0.284831 0.021756
0.183878 0.284382 0.018953
0.259310 0.283934 0.016150
0.334742 0.283486 0.013347
0.410174 0.283037 0.010544
0.485606 0.282589 0.007741
0.561037 0.282140 0.004938
0.636469 0.281691 0.002134
0.711901 0.281243 0.000000
0.787333 0.280795 0.000000
0.862765 0.280346 0.000000
0.938197 0.279898 0.000000
1.000000 0.279449 0.000000
1.000000 0.279000 0.000000
0.000000 0.359046 0.024663
0.000000 0.358598 0.021859
0.036316 0.358149 0.019056
0.111748 0.357701 0.016253
0.187180 0.357252 0.013450
0.262612 0.356804 0.010647
0.338044 0.356355 0.007844
0.413476 0.355907 0.005041
0.488907 0.355458 0.002238
0.564339 0.355010 0.000000
0.639771 0.354561 0.000000
0.715203 0.354113 0.000000
0.790635 0.353664 0.000000
0.866067 0.353216 0.000000
0.941499 0.352767 0.000000
1.000000 0.352682 0.000000
1.000000 0.353130 0.000000
0.000000 0.431916 0.019159
0.000000 0.431467 0.016356
0.039618 0.431019 0.013553
0.115050 0.430570 0.010750
0.190482 0.430122 0.007947
0.265914 0.429673 0.005144
0.341346 0.429225 0.002341
0.416778 0.428776 0.000000
0.492209 0.428328 0.000000
0.567641 0.427879 0.000000
0.643073 0.427430 0.000000
0.718505 0.426982 0.000000
0.793937 0.426534 0.000000
0.869506 0.426415 0.000000
0.945312 0.426864 0.000000
1.000000 0.427312 0.000000
1.000000 0.427761 0.000000
0.000000 0.504785 0.013656
0.000000 0.504336 0.010853
0.042920 0.503888 0.008050
0.118352 0.503440 0.005247
0.193784 0.502991 0.002444
0.269216 0.502543 0.000000
0.344648 0.502094 0.000000
0.420079 0.501645 0.000000
0.495511 0.501197 0.000000
0.570943 0.500749 0.000000
0.646375 0.500300 0.000000
0.721931 0.500148 0.000000
0.797736 0.500597 0.000000
0.873542 0.501046 0.000000
0.949348 0.501494 0.000000
1.000000 0.501942 0.000000
1.000000 0.502391 0.000000
0.000000 0.577654 0.008153
0.000000 0.577206 0.005350
0.046222 0.576758 0.002547
0.121654 0.576309 0.000000
0.197086 0.575860 0.000000
0.272517 0.575412 0.000000
0.347949 0.574963 0.000000
0.423381 0.574515 0.000000
0.498813 0.574067 0.000000
0.574355 0.573882 0.000000
0.650161 0.574330 0.000000
0.725966 0.574779 0.000000
0.801772 0.575228 0.000000
0.877577 0.575676 0.000000
0.953383 0.576124 0.000000
1.000000 0.576573 0.000000
1.000000 0.577021 0.000000
0.000000 0.650524 0.002650
0.000000 0.650075 0.000000
0.049524 0.649627 0.000000
0.124956 0.649178 0.000000
0.200387 0.648730 0.000000
0.275819 0.648281 0.000000
0.351251 0.647833 0.000000
0.426779 0.647616 0.000000
0.502585 0.648064 0.000000
0.578391 0.648512 0.000000
0.654196 0.648961 0.000000
0.730002 0.649409 0.000000
0.805807 0.649858 0.000000
0.881613 0.650307 0.000000
0.957419 0.650755 0.000000
1.000000 0.651203 0.000000
1.000000 0.651652 0.000000
0.000000 0.723393 0.000000
0.000000 0.722945 0.000000
0.052826 0.722496 0.000000
0.128258 0.722048 0.000000
0.203689 0.721599 0.000000
0.279204 0.721349 0.000000
0.355009 0.721797 0.000000
0.430815 0.722246 0.000000
0.506621 0.722694 0.000000
0.582426 0.723143 0.000000
0.658232 0.723591 0.000000
0.734037 0.724040 0.000000
0.809843 0.724488 0.000000
0.885649 0.724937 0.000000
0.961454 0.725385 0.000000
1.000000 0.725834 0.000000
1.000000 0.726282 0.000000
0.000000 0.796263 0.000000
0.000000 0.795814 0.000000
0.056127 0.795366 0.000000
0.131628 0.795082 0.000000
0.207434 0.795531 0.000000
0.283239 0.795979 0.000000
0.359045 0.796428 0.000000
0.434851 0.796876 0.000000
0.510656 0.797325 0.000000
0.586462 0.797773 0.000000
0.662268 0.798222 0.000000
0.738073 0.798670 0.000000
0.813879 0.799119 0.000000
0.889684 0.799567 0.000000
0.965490 0.800016 0.000000
1.000000 0.800464 0.000000
1.000000 0.800913 0.000000
0.000000 0.869132 0.000000
0.000000 0.868816 0.000000
0.059858 0.869264 0.000000
0.135664 0.869713 0.000000
0.211469 0.870161 0.000000
0.287275 0.870610 0.000000
0.363081 0.871058 0.000000
0.438886 0.871507 0.000000
0.514692 0.871955 0.000000
0.590498 0.872404 0.000000
0.666303 0.872852 0.000000
0.742109 0.873301 0.000000
0.817914 0.873749 0.000000
0.893720 0.874198 0.000000
0.969526 0.874646 0.000000
1.000000 0.875095 0.000000
1.000000 0.875543 0.000000
0.000000 0.942998 0.000000
0.000000 0.943446 0.000000
0.063894 0.943895 0.000000
0.139699 0.944344 0.000000
0.215505 0.944792 0.000000
0.291311 0.945241 0.000000
0.367116 0.945689 0.000000
0.442922 0.946137 0.000000
0.518728 0.946586 0.000000
0.594533 0.947035 0.000000
0.670339 0.947483 0.000000
0.746144 0.947932 0.000000
0.821950 0.948380 0.000000
0.897756 0.948828 0.000000
0.973561 0.949277 0.000000
1.000000 0.949726 0.000000
1.000000 0.950174 0.000000
0.000000 1.000000 0.000000
0.000000 1.000000 0.000000
0.067929 1.000000 0.000000
0.143735 1.000000 0.000000
0.219541 1.000000 0.000000
0.295346 1.000000 0.000000
0.371152 1.000000 0.000000
0.446958 1.000000 0.000000
0.522763 1.000000 0.000000
0.598569 1.000000 0.000000
0.674374 1.000000 0.000000
0.750180 1.000000 0.000000
0.825986 1.000000 0.000000
0.901791 1.000000 0.000000
0.977597 1.000000 0.000000
1.000000 1.000000 0.000000
1.000000 1.000000 0.000000
0.000000 1.000000 0.000000
0.000000 1.000000 0.000000
0.071965 1.000000 0.000000
0.147771 1.000000 0.000000
0.223576 1.000000 0.000000
0.299382 1.000000 0.000000
0.375188 1.000000 0.000000
0.450993 1.000000 0.000000
0.526799 1.000000 0.000000
0.602604 1.000000 0.000000
0.678410 1.000000 0.000000
0.754216 1.000000 0.000000
0.830021 1.000000 0.000000
0.905827 1.000000 0.000000
0.981633 1.000000 0.000000
1.000000 1.000000 0.000000
1.000000 1.000000 0.000000
0.000000 0.000000 0.130362
0.000000 0.000000 0.127559
0.017146 0.000000 0.124756
0.092578 0.000000 0.121953
0.168010 0.000000 0.119150
0.243442 0.000000 0.116347
0.318874 0.000000 0.113544
0.394306 0.000000 0.110741
0.469738 0.000000 0.107937
0.545169 0.000000 0.105134
0.620601 0.000000 0.102331
0.696033 0.000000 0.099528
0.771465 0.000000 0.096725
0.846897 0.000000 0.093922
0.922329 0.000000 0.091119
0.997761 0.000000 0.088316
1.000000 0.000000 0.085512
0.000000 0.000000 0.124859
0.000000 0.000000 0.122056
0.020448 0.000000 0.119253
0.095880 0.000000 0.116450
0.171312 0.000000 0.113647
0.246744 0.000000 0.110844
0.322176 0.000000 0.108041
0.397608 0.000000 0.105237
0.473039 0.000000 0.102434
0.548471 0.000000 0.099631
0.623903 0.000000 0.096828
0.699335 0.000000 0.094025
0.774767 0.000000 0.091222
0.850199 0.000000 0.088419
0.925631 0.000000 0.085616
1.000000 0.000000 0.082813
1.000000 0.000000 0.080009
0.000000 0.067397 0.119356
0.000000 0.066948 0.116553
0.023750 0.066500 0.113750
0.099182 0.066051 0.110947
0.174614 0.065603 0.108144
0.250046 0.065154 0.105341
0.325478 0.064706 0.102538
0.400909 0.064257 0.099734
0.476341 0.063809 0.096931
0.551773 0.063361 0.094128
0.627205 0.062912 0.091325
0.702637 0.062463 0.088522
0.778069 0.062015 0.085719
0.853501 0.061566 0.082916
0.928933 0.061118 0.080113
1.000000 0.060670 0.077309
1.000000 0.060221 0.074506
0.000000 0.140267 0.113853
0.000000 0.139818 0.111050
0.027052 0.139370 0.108247
0.102484 0.138921 0.105444
0.177916 0.138473 0.102641
0.253348 0.138024 0.099837
0.328779 0.137576 0.097034
0.404211 0.137127 0.094231
0.479643 0.136679 0.091428
0.555075 0.136230 0.088625
0.630507 0.135782 0.085822
0.705939 0.135333 0.083019
0.781371 0.134885 0.080216
0.856802 0.134436 0.077412
0.932234 0.133988 0.074609
1.000000 0.133539 0.071806
1.000000 0.133091 0.069003
0.000000 0.213136 0.108350
0.000000 0.212688 0.105547
0.030354 0.212239 0.102744
0.105786 0.211791 0.099941
0.181218 0.211342 0.097137
0.256649 0.210894 0.094334
0.332081 0.210445 0.091531
0.407513 0.209997 0.088728
0.482945 0.209548 0.085925
0.558377 0.209100 0.083122
0.633809 0.208651 0.080319
0.709241 0.208203 0.077516
0.784672 0.207754 0.074713
0.860104 0.207306 0.071909
0.935536 0.206857 0.069106
1.000000 0.206409 0.066303
1.000000 0.205960 0.063500
0.000000 0.286006 0.102847
0.000000 0.285557 0.100044
0.033656 0.285108 0.097241
0.109088 0.284660 0.094438
0.184519 0.284212 0.091634
0.259951 0.283763 0.088831
0.335383 0.283315 0.086028
0.410815 0.282866 0.083225
0.486247 0.282417 0.080422
0.561679 0.281969 0.077619
0.637111 0.281521 0.074816
0.712542 0.281072 0.072013
0.787974 0.280624 0.069209
0.863406 0.280175 0.066406
0.938838 0.279726 0.063603
1.000000 0.279278 0.060800
1.000000 0.278830 0.057997
0.000000 0.358875 0.097344
0.000000 0.358427 0.094541
0.036957 0.357978 0.091737
0.112389 0.357530 0.088934
0.187821 0.357081 0.086131
0.263253 0.356633 0.083328
0.338685 0.356184 0.080525
0.414117 0.355736 0.077722
0.489549 0.355287 0.074919
0.564981 0.354839 0.072116
0.640412 0.354390 0.069312
0.715844 0.353942 0.066509
0.791276 0.353493 0.063706
0.866708 0.353045 0.060903
0.942140 0.352596 0.058100
1.000000 0.352853 0.056031
1.000000 0.353301 0.054163
0.000000 0.431745 0.091841
0.000000 0.431296 0.089037
0.040259 0.430847 0.086234
0.115691 0.430399 0.083431
0.191123 0.429951 0.080628
0.266555 0.429502 0.077825
0.341987 0.429054 0.075022
0.417419 0.428605 0.072219
0.492851 0.428156 0.069416
0.568283 0.427708 0.066613
0.643714 0.427260 0.063809
0.719146 0.426811 0.061006
0.794578 0.426363 0.058203
0.870290 0.426586 0.056100
0.946096 0.427035 0.054231
1.000000 0.427483 0.052362
1.000000 0.427932 0.050494
0.000000 0.504614 0.086337
0.000000 0.504166 0.083534
0.043561 0.503717 0.080731
0.118993 0.503269 0.077928
0.194425 0.502820 0.075125
0.269857 0.502371 0.072322
0.345289 0.501923 0.069519
0.420721 0.501475 0.066716
0.496152 0.501026 0.063913
0.571584 0.500578 0.061109
0.647016 0.500129 0.058306
0.722714 0.500320 0.056169
0.798520 0.500768 0.054300
0.874326 0.501216 0.052431
0.950131 0.501665 0.050562
1.000000 0.502113 0.048694
1.000000 0.502562 0.046825
0.000000 0.577484 0.080834
0.000000 0.577035 0.078031
0.046863 0.576587 0.075228
0.122295 0.576138 0.072425
0.197727 0.575689 0.069622
0.273159 0.575241 0.066819
0.348591 0.574792 0.064016
0.424023 0.574344 0.061213
0.499454 0.573896 0.058409
0.575139 0.574053 0.056237
0.650944 0.574501 0.054369
0.726750 0.574950 0.052500
0.802556 0.575399 0.050631
0.878361 0.575847 0.048763
0.954167 0.576295 0.046894
1.000000 0.576744 0.045025
1.000000 0.577192 0.043156
0.000000 0.650353 0.075331
0.000000 0.649904 0.072528
0.050165 0.649456 0.069725
0.125597 0.649007 0.066922
0.201029 0.648559 0.064119
0.276461 0.648110 0.061316
0.351893 0.647662 0.058513
0.427563 0.647786 0.056306
0.503369 0.648235 0.054438
0.579174 0.648683 0.052569
0.654980 0.649132 0.050700
0.730786 0.649581 0.048831
0.806591 0.650029 0.046963
0.882397 0.650477 0.045094
0.958202 0.650926 0.043225
1.000000 0.651374 0.041356
1.000000 0.651823 0.039487
0.000000 0.723222 0.069828
0.000000 0.722774 0.067025
0.053467 0.722325 0.064222
0.128899 0.721877 0.061419
0.204331 0.721428 0.058616
0.279988 0.721520 0.056375
0.355793 0.721968 0.054506
0.431599 0.722417 0.052637
0.507404 0.722865 0.050769
0.583210 0.723314 0.048900
0.659016 0.723762 0.047031
0.734821 0.724211 0.045163
0.810627 0.724659 0.043294
0.886432 0.725108 0.041425
0.962238 0.725556 0.039556
1.000000 0.726005 0.037687
1.000000 0.726453 0.035819
0.000000 0.796092 0.064325
0.000000 0.795643 0.061522
0.056769 0.795195 0.058719
0.132412 0.795253 0.056444
0.208218 0.795702 0.054575
0.284023 0.796150 0.052706
0.359829 0.796599 0.050838
0.435634 0.797047 0.048969
0.511440 0.797496 0.047100
0.587246 0.797944 0.045231
0.663051 0.798393 0.043363
0.738857 0.798841 0.041494
0.814662 0.799290 0.039625
0.890468 0.799738 0.037756
0.966274 0.800187 0.035887
1.000000 0.800635 0.034019
1.000000 0.801084 0.032150
0.000000 0.868961 0.058822
0.000000 0.868987 0.056513
0.060642 0.869435 0.054644
0.136448 0.869884 0.052775
0.212253 0.870332 0.050906
0.288059 0.870781 0.049037
0.363864 0.871229 0.047169
0.439670 0.871678 0.045300
0.515476 0.872126 0.043431
0.591281 0.872575 0.041563
0.667087 0.873023 0.039694
0.742892 0.873472 0.037825
0.818698 0.873920 0.035956
0.894504 0.874369 0.034088
0.970309 0.874817 0.032219
1.000000 0.875266 0.030350
1.000000 0.875714 0.028481
0.000000 0.943169 0.054712
0.000000 0.943617 0.052844
0.064677 0.944066 0.050975
0.140483 0.944515 0.049106
0.216289 0.944963 0.047238
0.292094 0.945411 0.045369
0.367900 0.945860 0.043500
0.443706 0.946308 0.041631
0.519511 0.946757 0.039762
0.595317 0.947206 0.037894
0.671122 0.947654 0.036025
0.746928 0.948102 0.034156
0.822734 0.948551 0.032287
0.898539 0.948999 0.030419
0.974345 0.949448 0.028550
1.000000 0.949897 0.026681
1.000000 0.950345 0.024813
0.000000 1.000000 0.051044
0.000000 1.000000 0.049175
0.068713 1.000000 0.047306
0.144519 1.000000 0.045437
0.220324 1.000000 0.043569
0.296130 1.000000 0.041700
0.371936 1.000000 0.039831
0.447741 1.000000 0.037962
0.523547 1.000000 0.036094
0.599352 1.000000 0.034225
0.675158 1.000000 0.032356
0.750964 1.000000 0.030488
0.826769 1.000000 0.028619
0.902575 1.000000 0.026750
0.978381 1.000000 0.024881
1.000000 1.000000 0.023012
1.000000 1.000000 0.021144
0.000000 1.000000 0.047375
0.000000 1.000000 0.045506
0.072749 1.000000 0.043637
0.148554 1.000000 0.041769
0.224360 1.000000 0.039900
0.300166 1.000000 0.038031
0.375971 1.000000 0.036163
0.451777 1.000000 0.034294
0.527582 1.000000 0.032425
0.603388 1.000000 0.030556
0.679194 1.000000 0.028687
0.754999 1.000000 0.026819
0.830805 1.000000 0.024950
0.906611 1.000000 0.023081
0.982416 1.000000 0.021213
1.000000 1.000000 0.019344
1.000000 1.000000 0.017475
0.000000 0.000000 0.203044
0.000000 0.000000 0.200241
0.017787 0.000000 0.197438
0.093219 0.000000 0.194634
0.168651 0.000000 0.191831
0.244083 0.000000 0.189028
0.319515 0.000000 0.186225
0.394947 0.000000 0.183422
0.470379 0.000000 0.180619
0.545811 0.000000 0.177816
0.621242 0.000000 0.175013
0.696674 0.000000 0.172209
0.772106 0.000000 0.169406
0.847538 0.000000 0.166603
0.922970 0.000000 0.163800
0.998402 0.000000 0.160997
1.000000 0.000000 0.158194
0.000000 0.000000 0.197541
