assets/luts/02_cool_cinema.cube
TITLE "Cool Cinema (teal & orange)"
LUT_3D_SIZE 9
DOMAIN_MIN 0.0 0.0 0.0
DOMAIN_MAX 1.0 1.0 1.0
0.000000 0.000000 0.000000
0.015864 0.000000 0.000000
0.166728 0.000000 0.000000
0.317591 0.000000 0.000000
0.468455 0.000000 0.000000
0.619319 0.000000 0.000000
0.770182 0.000000 0.000000
0.921046 0.000000 0.000000
1.000000 0.000000 0.000000
0.000000 0.067739 0.000000
0.022468 0.066842 0.000000
0.173331 0.065945 0.000000
0.324195 0.065048 0.000000
0.475059 0.064151 0.000000
0.625922 0.063254 0.000000
0.776786 0.062357 0.000000
0.927650 0.061460 0.000000
1.000000 0.060563 0.000000
0.000000 0.213478 0.000000
0.029071 0.212581 0.000000
0.179935 0.211684 0.000000
0.330799 0.210787 0.000000
0.481662 0.209890 0.000000
0.632526 0.208993 0.000000
0.783390 0.208096 0.000000
0.934254 0.207199 0.000000
1.000000 0.206302 0.000000
0.000000 0.359217 0.000000
0.035675 0.358320 0.000000
0.186539 0.357423 0.000000
0.337403 0.356526 0.000000
0.488266 0.355629 0.000000
0.639130 0.354732 0.000000
0.789994 0.353835 0.000000
0.940858 0.352938 0.000000
1.000000 0.352959 0.000000
0.000000 0.504956 0.000000
0.042279 0.504059 0.000000
0.193143 0.503162 0.000000
0.344006 0.502265 0.000000
0.494870 0.501368 0.000000
0.645734 0.500471 0.000000
0.796952 0.500426 0.000000
0.948564 0.501323 0.000000
1.000000 0.502220 0.000000
0.000000 0.650695 0.000000
0.048882 0.649798 0.000000
0.199746 0.648901 0.000000
0.350610 0.648004 0.000000
0.501801 0.647893 0.000000
0.653412 0.648790 0.000000
0.805024 0.649687 0.000000
0.956635 0.650584 0.000000
1.000000 0.651481 0.000000
0.000000 0.796434 0.000000
0.055486 0.795537 0.000000
0.206650 0.795360 0.000000
0.358261 0.796257 0.000000
0.509872 0.797154 0.000000
0.661484 0.798051 0.000000
0.813095 0.798948 0.000000
0.964706 0.799845 0.000000
1.000000 0.800742 0.000000
0.000000 0.942827 0.000000
0.063110 0.943724 0.000000
0.214721 0.944621 0.000000
0.366333 0.945518 0.000000
0.517944 0.946415 0.000000
0.669555 0.947312 0.000000
0.821166 0.948209 0.000000
0.972777 0.949106 0.000000
1.000000 0.950003 0.000000
0.000000 1.000000 0.000000
0.071181 1.000000 0.000000
0.222793 1.000000 0.000000
0.374404 1.000000 0.000000
0.526015 1.000000 0.000000
0.677626 1.000000 0.000000
0.829237 1.000000 0.000000
0.980849 1.000000 0.000000
1.000000 1.000000 0.000000
0.000000 0.000000 0.130362
0.017146 0.000000 0.124756
0.168010 0.000000 0.119150
0.318874 0.000000 0.113544
0.469738 0.000000 0.107937
0.620601 0.000000 0.102331
0.771465 0.000000 0.096725
0.922329 0.000000 0.091119
1.000000 0.000000 0.085512
0.000000 0.067397 0.119356
0.023750 0.066500 0.113750
0.174614 0.065603 0.108144
0.325478 0.064706 0.102538
0.476341 0.063809 0.096931
0.627205 0.062912 0.091325
0.778069 0.062015 0.085719
0.928933 0.061118 0.080113
1.000000 0.060221 0.074506
0.000000 0.213136 0.108350
0.030354 0.212239 0.102744
0.181218 0.211342 0.097137
0.332081 0.210445 0.091531
0.482945 0.209548 0.085925
0.633809 0.208651 0.080319
0.784672 0.207754 0.074713
0.935536 0.206857 0.069106
1.000000 0.205960 0.063500
0.000000 0.358875 0.097344
0.036957 0.357978 0.091737
0.187821 0.357081 0.086131
0.338685 0.356184 0.080525
0.489549 0.355287 0.074919
0.640412 0.354390 0.069312
0.791276 0.353493 0.063706
0.942140 0.352596 0.058100
1.000000 0.353301 0.054163
0.000000 0.504614 0.086337
0.043561 0.503717 0.080731
0.194425 0.502820 0.075125
0.345289 0.501923 0.069519
0.496152 0.501026 0.063913
0.647016 0.500129 0.058306
0.798520 0.500768 0.054300
0.950131 0.501665 0.050562
1.000000 0.502562 0.046825
0.000000 0.650353 0.075331
0.050165 0.649456 0.069725
0.201029 0.648559 0.064119
0.351893 0.647662 0.058513
0.503369 0.648235 0.054438
0.654980 0.649132 0.050700
0.806591 0.650029 0.046963
0.958202 0.650926 0.043225
1.000000 0.651823 0.039487
0.000000 0.796092 0.064325
0.056769 0.795195 0.058719
0.208218 0.795702 0.054575
0.359829 0.796599 0.050838
0.511440 0.797496 0.047100
0.663051 0.798393 0.043363
0.814662 0.799290 0.039625
0.966274 0.800187 0.035887
1.000000 0.801084 0.032150
0.000000 0.943169 0.054712
0.064677 0.944066 0.050975
0.216289 0.944963 0.047238
0.367900 0.945860 0.043500
0.519511 0.946757 0.039762
0.671122 0.947654 0.036025
0.822734 0.948551 0.032287
0.974345 0.949448 0.028550
1.000000 0.950345 0.024813
0.000000 1.000000 0.047375
0.072749 1.000000 0.043637
0.224360 1.000000 0.039900
0.375971 1.000000 0.036163
0.527582 1.000000 0.032425
0.679194 1.000000 0.028687
0.830805 1.000000 0.024950
0.982416 1.000000 0.021213
1.000000 1.000000 0.017475
0.000000 0.000000 0.275725
0.018429 0.000000 0.270119
0.169293 0.000000 0.264513
0.320156 0.000000 0.258906
0.471020 0.000000 0.253300
0.621884 0.000000 0.247694
0.772747 0.000000 0.242088
0.923611 0.000000 0.236481
1.000000 0.000000 0.230875
0.000000 0.067055 0.264719
0.025032 0.066158 0.259113
0.175896 0.065261 0.253506
0.326760 0.064364 0.247900
0.477624 0.063467 0.242294
0.628487 0.062570 0.236688
0.779351 0.061673 0.231081
0.930215 0.060776 0.225475
1.000000 0.059879 0.219869
0.000000 0.212794 0.253713
0.031636 0.211897 0.248106
0.182500 0.211000 0.242500
0.333364 0.210103 0.236894
0.484228 0.209206 0.231288
0.635091 0.208309 0.225681
0.785955 0.207412 0.220075
0.936819 0.206515 0.214469
1.000000 0.205618 0.208863
0.000000 0.358533 0.242706
0.038240 0.357636 0.237100
0.189104 0.356739 0.231494
0.339968 0.355842 0.225888
0.490831 0.354945 0.220281
0.641695 0.354048 0.214675
0.792559 0.353151 0.209069
0.943627 0.352746 0.203975
1.000000 0.353643 0.200238
0.000000 0.504272 0.231700
0.044844 0.503375 0.226094
0.195708 0.502478 0.220488
0.346571 0.501581 0.214881
0.497435 0.500684 0.209275
0.648476 0.500213 0.204113
0.800087 0.501110 0.200375
0.951699 0.502007 0.196638
1.000000 0.502904 0.192900
0.000000 0.650011 0.220694
0.051447 0.649114 0.215088
0.202311 0.648217 0.209481
0.353325 0.647680 0.204250
0.504936 0.648577 0.200513
0.656547 0.649474 0.196775
0.808159 0.650371 0.193038
0.959770 0.651268 0.189300
1.000000 0.652165 0.185563
0.000000 0.795750 0.209688
0.058174 0.795147 0.204388
0.209785 0.796044 0.200650
0.361396 0.796941 0.196913
0.513007 0.797838 0.193175
0.664619 0.798735 0.189438
0.816230 0.799632 0.185700
0.967841 0.800529 0.181963
1.000000 0.801426 0.178225
0.000000 0.943511 0.200788
0.066245 0.944408 0.197050
0.217856 0.945305 0.193313
0.369468 0.946202 0.189575
0.521079 0.947099 0.185838
0.672690 0.947996 0.182100
0.824301 0.948893 0.178363
0.975912 0.949790 0.174625
1.000000 0.950687 0.170888
0.000000 1.000000 0.193450
0.074316 1.000000 0.189713
0.225928 1.000000 0.185975
0.377539 1.000000 0.182238
0.529150 1.000000 0.178500
0.680761 1.000000 0.174763
0.832372 1.000000 0.171025
0.983984 1.000000 0.167288
1.000000 1.000000 0.163550
0.000000 0.000000 0.421088
0.019711 0.000000 0.415481
0.170575 0.000000 0.409875
0.321439 0.000000 0.404269
0.472303 0.000000 0.398663
0.623166 0.000000 0.393056
0.774030 0.000000 0.387450
0.924894 0.000000 0.381844
1.000000 0.000000 0.376238
0.000000 0.066713 0.410081
0.026315 0.065816 0.404475
0.177179 0.064919 0.398869
0.328043 0.064022 0.393263
0.478906 0.063125 0.387656
0.629770 0.062228 0.382050
0.780634 0.061331 0.376444
0.931497 0.060434 0.370838
1.000000 0.059537 0.365231
0.000000 0.212452 0.399075
0.032919 0.211555 0.393469
0.183783 0.210658 0.387863
0.334646 0.209761 0.382256
0.485510 0.208864 0.376650
0.636374 0.207967 0.371044
0.787237 0.207070 0.365438
0.938101 0.206173 0.359831
1.000000 0.205276 0.354225
0.000000 0.358191 0.388069
0.039523 0.357294 0.382463
0.190386 0.356397 0.376856
0.341250 0.355500 0.371250
0.492114 0.354603 0.365644
0.642977 0.353706 0.360038
0.793841 0.352809 0.354431
0.945195 0.353088 0.350050
1.000000 0.353985 0.346313
0.000000 0.503930 0.377063
0.046126 0.503033 0.371456
0.196990 0.502136 0.365850
0.347854 0.501239 0.360244
0.498717 0.500342 0.354638
0.650044 0.500555 0.350188
0.801655 0.501452 0.346450
0.953266 0.502349 0.342713
1.000000 0.503246 0.338975
0.000000 0.649669 0.366056
0.052730 0.648772 0.360450
0.203594 0.647875 0.354844
0.354893 0.648022 0.350325
0.506504 0.648919 0.346588
0.658115 0.649816 0.342850
0.809726 0.650713 0.339113
0.961337 0.651610 0.335375
1.000000 0.652507 0.331638
0.000000 0.795408 0.355050
0.059741 0.795489 0.350463
0.211352 0.796386 0.346725
0.362964 0.797283 0.342988
0.514575 0.798180 0.339250
0.666186 0.799077 0.335513
0.817797 0.799974 0.331775
0.969409 0.800871 0.328038
1.000000 0.801768 0.324300
0.000000 0.943853 0.346863
0.067812 0.944750 0.343125
0.219424 0.945647 0.339388
0.371035 0.946544 0.335650
0.522646 0.947441 0.331913
0.674257 0.948338 0.328175
0.825869 0.949235 0.324438
0.977480 0.950132 0.320700
1.000000 0.951029 0.316963
0.000000 1.000000 0.339525
0.075884 1.000000 0.335788
0.227495 1.000000 0.332050
0.379106 1.000000 0.328313
0.530717 1.000000 0.324575
0.682329 1.000000 0.320838
0.833940 1.000000 0.317100
0.985551 1.000000 0.313363
1.000000 1.000000 0.309625
0.000000 0.000000 0.566450
0.020994 0.000000 0.560844
0.171858 0.000000 0.555238
0.322721 0.000000 0.549631
0.473585 0.000000 0.544025
0.624449 0.000000 0.538419
0.775312 0.000000 0.532813
0.926176 0.000000 0.527206
1.000000 0.000000 0.521600
0.000000 0.066371 0.555444
0.027597 0.065474 0.549837
0.178461 0.064577 0.544231
0.329325 0.063680 0.538625
0.480189 0.062783 0.533019
0.631053 0.061886 0.527412
0.781916 0.060989 0.521806
0.932780 0.060092 0.516200
1.000000 0.059195 0.510594
0.000000 0.212110 0.544438
0.034201 0.211213 0.538831
0.185065 0.210316 0.533225
0.335929 0.209419 0.527619
0.486793 0.208522 0.522012
0.637656 0.207625 0.516406
0.788520 0.206728 0.510800
0.939384 0.205831 0.505194
1.000000 0.205066 0.499725
0.000000 0.357849 0.533431
0.040805 0.356952 0.527825
0.191669 0.356055 0.522219
0.342533 0.355158 0.516613
0.493396 0.354261 0.511006
0.644260 0.353364 0.505400
0.795151 0.352533 0.499862
0.946763 0.353430 0.496125
1.000000 0.354327 0.492387
0.000000 0.503588 0.522425
0.047409 0.502691 0.516819
0.198273 0.501794 0.511212
0.349136 0.500897 0.505606
0.500000 0.500000 0.500000
0.651611 0.500897 0.496262
0.803222 0.501794 0.492525
0.954834 0.502691 0.488787
1.000000 0.503588 0.485050
0.000000 0.649327 0.511419
0.054012 0.648430 0.505812
0.204876 0.647533 0.500206
0.356460 0.648364 0.496400
0.508071 0.649261 0.492663
0.659682 0.650158 0.488925
0.811294 0.651055 0.485187
0.962905 0.651952 0.481450
1.000000 0.652849 0.477712
0.000000 0.795066 0.500413
0.061309 0.795831 0.496538
0.212920 0.796728 0.492800
0.364531 0.797625 0.489063
0.516142 0.798522 0.485325
0.667754 0.799419 0.481588
0.819365 0.800316 0.477850
0.970976 0.801213 0.474112
1.000000 0.802110 0.470375
0.000000 0.944195 0.492937
0.069380 0.945092 0.489200
0.220991 0.945989 0.485463
0.372603 0.946886 0.481725
0.524214 0.947783 0.477988
0.675825 0.948680 0.474250
0.827436 0.949577 0.470513
0.979047 0.950474 0.466775
1.000000 0.951371 0.463037
0.000000 1.000000 0.485600
0.077451 1.000000 0.481862
0.229063 1.000000 0.478125
0.380674 1.000000 0.474388
0.532285 1.000000 0.470650
0.683896 1.000000 0.466913
0.835507 1.000000 0.463175
0.987119 1.000000 0.459437
1.000000 1.000000 0.455700
0.000000 0.000000 0.711812
0.022276 0.000000 0.706206
0.173140 0.000000 0.700600
0.324004 0.000000 0.694994
0.474867 0.000000 0.689387
0.625731 0.000000 0.683781
0.776595 0.000000 0.678175
0.927459 0.000000 0.672569
1.000000 0.000000 0.666963
0.000000 0.066029 0.700806
0.028880 0.065132 0.695200
0.179744 0.064235 0.689594
0.330608 0.063338 0.683987
0.481471 0.062441 0.678381
0.632335 0.061544 0.672775
0.783199 0.060647 0.667169
0.934063 0.059750 0.661562
1.000000 0.058853 0.655956
0.000000 0.211768 0.689800
0.035484 0.210871 0.684194
0.186347 0.209974 0.678588
0.337211 0.209077 0.672981
0.488075 0.208180 0.667375
0.638939 0.207283 0.661769
0.789802 0.206386 0.656162
0.940666 0.205489 0.650556
1.000000 0.205408 0.645800
0.000000 0.357507 0.678794
0.042087 0.356610 0.673187
0.192951 0.355713 0.667581
0.343815 0.354816 0.661975
0.494679 0.353919 0.656369
0.645542 0.353022 0.650763
0.796719 0.352875 0.645937
0.948330 0.353772 0.642200
1.000000 0.354669 0.638462
0.000000 0.503246 0.667787
0.048691 0.502349 0.662181
0.199555 0.501452 0.656575
0.350419 0.500555 0.650969
0.501567 0.500342 0.646075
0.653179 0.501239 0.642338
0.804790 0.502136 0.638600
0.956401 0.503033 0.634862
1.000000 0.503930 0.631125
0.000000 0.648985 0.656781
0.055295 0.648088 0.651175
0.206416 0.647809 0.646212
0.358028 0.648706 0.642475
0.509639 0.649603 0.638737
0.661250 0.650500 0.635000
0.812861 0.651397 0.631262
0.964472 0.652294 0.627525
1.000000 0.653191 0.623787
0.000000 0.795276 0.646350
0.062876 0.796173 0.642612
0.214488 0.797070 0.638875
0.366099 0.797967 0.635137
0.517710 0.798864 0.631400
0.669321 0.799761 0.627663
0.820932 0.800658 0.623925
0.972544 0.801555 0.620188
1.000000 0.802452 0.616450
0.000000 0.944537 0.639012
0.070948 0.945434 0.635275
0.222559 0.946331 0.631537
0.374170 0.947228 0.627800
0.525781 0.948125 0.624062
0.677392 0.949022 0.620325
0.829004 0.949919 0.616587
0.980615 0.950816 0.612850
1.000000 0.951713 0.609112
0.000000 1.000000 0.631675
0.079019 1.000000 0.627937
0.230630 1.000000 0.624200
0.382241 1.000000 0.620462
0.533852 1.000000 0.616725
0.685464 1.000000 0.612988
0.837075 1.000000 0.609250
0.988686 1.000000 0.605513
1.000000 1.000000 0.601775
0.000000 0.000000 0.857175
0.023559 0.000000 0.851569
0.174423 0.000000 0.845962
0.325286 0.000000 0.840356
0.476150 0.000000 0.834750
0.627014 0.000000 0.829144
0.777877 0.000000 0.823537
0.928741 0.000000 0.817931
1.000000 0.000000 0.812325
0.000000 0.065687 0.846169
0.030162 0.064790 0.840562
0.181026 0.063893 0.834956
0.331890 0.062996 0.829350
0.482754 0.062099 0.823744
0.633617 0.061202 0.818137
0.784481 0.060305 0.812531
0.935345 0.059408 0.806925
1.000000 0.058511 0.801319
0.000000 0.211426 0.835162
0.036766 0.210529 0.829556
0.187630 0.209632 0.823950
0.338494 0.208735 0.818344
0.489358 0.207838 0.812737
0.640221 0.206941 0.807131
0.791085 0.206044 0.801525
0.941949 0.205147 0.795919
1.000000 0.205750 0.791875
0.000000 0.357165 0.824156
0.043370 0.356268 0.818550
0.194234 0.355371 0.812944
0.345098 0.354474 0.807337
0.495961 0.353577 0.801731
0.646825 0.352680 0.796125
0.798286 0.353217 0.792012
0.949898 0.354114 0.788275
1.000000 0.355011 0.784537
0.000000 0.502904 0.813150
0.049974 0.502007 0.807544
0.200838 0.501110 0.801937
0.351701 0.500213 0.796331
0.503135 0.500684 0.792150
0.654746 0.501581 0.788412
0.806357 0.502478 0.784675
0.957969 0.503375 0.780937
1.000000 0.504272 0.777200
0.000000 0.648643 0.802144
0.056577 0.647746 0.796537
0.207984 0.648151 0.792287
0.359595 0.649048 0.788550
0.511206 0.649945 0.784812
0.662817 0.650842 0.781075
0.814429 0.651739 0.777337
0.966040 0.652636 0.773600
1.000000 0.653533 0.769862
0.000000 0.795618 0.792425
0.064444 0.796515 0.788687
0.216055 0.797412 0.784950
0.367666 0.798309 0.781212
0.519278 0.799206 0.777475
0.670889 0.800103 0.773737
0.822500 0.801000 0.770000
0.974111 0.801897 0.766262
1.000000 0.802794 0.762525
0.000000 0.944879 0.785087
0.072515 0.945776 0.781350
0.224126 0.946673 0.777612
0.375738 0.947570 0.773875
0.527349 0.948467 0.770137
0.678960 0.949364 0.766400
0.830571 0.950261 0.762662
0.982182 0.951158 0.758925
1.000000 0.952055 0.755187
0.000000 1.000000 0.777750
0.080586 1.000000 0.774012
0.232198 1.000000 0.770275
0.383809 1.000000 0.766537
0.535420 1.000000 0.762800
0.687031 1.000000 0.759062
0.838642 1.000000 0.755325
0.990254 1.000000 0.751587
1.000000 1.000000 0.747850
0.000000 0.000000 1.000000
0.024841 0.000000 0.996931
0.175705 0.000000 0.991325
0.326569 0.000000 0.985719
0.477432 0.000000 0.980113
0.628296 0.000000 0.974506
0.779160 0.000000 0.968900
0.930024 0.000000 0.963294
1.000000 0.000000 0.957688
0.000000 0.065345 0.991531
0.031445 0.064448 0.985925
0.182309 0.063551 0.980319
0.333173 0.062654 0.974712
0.484036 0.061757 0.969106
0.634900 0.060860 0.963500
0.785764 0.059963 0.957894
0.936627 0.059066 0.952287
1.000000 0.058169 0.946681
0.000000 0.211084 0.980525
0.038049 0.210187 0.974919
0.188913 0.209290 0.969313
0.339776 0.208393 0.963706
0.490640 0.207496 0.958100
0.641504 0.206599 0.952494
0.792367 0.205702 0.946887
0.943394 0.205195 0.941688
1.000000 0.206092 0.937950
0.000000 0.356823 0.969519
0.044652 0.355926 0.963912
0.195516 0.355029 0.958306
0.346380 0.354132 0.952700
0.497244 0.353235 0.947094
0.648242 0.352662 0.941825
0.799854 0.353559 0.938087
0.951465 0.354456 0.934350
1.000000 0.355353 0.930613
0.000000 0.502562 0.958512
0.051256 0.501665 0.952906
0.202120 0.500768 0.947300
0.353091 0.500129 0.941963
0.504702 0.501026 0.938225
0.656314 0.501923 0.934488
0.807925 0.502820 0.930750
0.959536 0.503717 0.927013
1.000000 0.504614 0.923275
0.000000 0.648301 0.947506
0.057940 0.647596 0.942100
0.209551 0.648493 0.938362
0.361163 0.649390 0.934625
0.512774 0.650287 0.930887
0.664385 0.651184 0.927150
0.815996 0.652081 0.923412
0.967607 0.652978 0.919675
1.000000 0.653875 0.915937
0.000000 0.795960 0.938500
0.066011 0.796857 0.934763
0.217623 0.797754 0.931025
0.369234 0.798651 0.927288
0.520845 0.799548 0.923550
0.672456 0.800445 0.919813
0.824067 0.801342 0.916075
0.975679 0.802239 0.912338
1.000000 0.803136 0.908600
0.000000 0.945221 0.931163
0.074082 0.946118 0.927425
0.225694 0.947015 0.923687
0.377305 0.947912 0.919950
0.528916 0.948809 0.916212
0.680527 0.949706 0.912475
0.832139 0.950603 0.908737
0.983750 0.951500 0.905000
1.000000 0.952397 0.901262
0.000000 1.000000 0.923825
0.082154 1.000000 0.920087
0.233765 1.000000 0.916350
0.385376 1.000000 0.912613
0.536987 1.000000 0.908875
0.688599 1.000000 0.905138
0.840210 1.000000 0.901400
0.991821 1.000000 0.897663
1.000000 1.000000 0.893925
0.000000 0.000000 1.000000
0.026124 0.000000 1.000000
0.176988 0.000000 1.000000
0.327851 0.000000 1.000000
0.478715 0.000000 1.000000
0.629579 0.000000 1.000000
0.780442 0.000000 1.000000
0.931306 0.000000 1.000000
1.000000 0.000000 1.000000
0.000000 0.065003 1.000000
0.032727 0.064106 1.000000
0.183591 0.063209 1.000000
0.334455 0.062312 1.000000
0.485319 0.061415 1.000000
0.636182 0.060518 1.000000
0.787046 0.059621 1.000000
0.937910 0.058724 1.000000
1.000000 0.057827 1.000000
0.000000 0.210742 1.000000
0.039331 0.209845 1.000000
0.190195 0.208948 1.000000
0.341059 0.208051 1.000000
0.491922 0.207154 1.000000
0.642786 0.206257 1.000000
0.793650 0.205360 1.000000
0.944961 0.205537 1.000000
1.000000 0.206434 1.000000
0.000000 0.356481 1.000000
0.045935 0.355584 1.000000
0.196799 0.354687 1.000000
0.347663 0.353790 1.000000
0.498526 0.352893 1.000000
0.649810 0.353004 1.000000
0.801421 0.353901 1.000000
0.953032 0.354798 1.000000
1.000000 0.355695 1.000000
0.000000 0.502220 1.000000
0.052539 0.501323 1.000000
0.203403 0.500426 1.000000
0.354659 0.500471 1.000000
0.506270 0.501368 1.000000
0.657881 0.502265 1.000000
0.809492 0.503162 1.000000
0.961104 0.504059 1.000000
1.000000 0.504956 1.000000
0.000000 0.647959 1.000000
0.059507 0.647938 1.000000
0.211119 0.648835 1.000000
0.362730 0.649732 1.000000
0.514341 0.650629 1.000000
0.665952 0.651526 1.000000
0.817564 0.652423 1.000000
0.969175 0.653320 1.000000
1.000000 0.654217 1.000000
0.000000 0.796302 1.000000
0.067579 0.797199 1.000000
0.219190 0.798096 1.000000
0.370801 0.798993 1.000000
0.522412 0.799890 1.000000
0.674024 0.800787 1.000000
0.825635 0.801684 1.000000
0.977246 0.802581 1.000000
1.000000 0.803478 1.000000
0.000000 0.945563 1.000000
0.075650 0.946460 1.000000
0.227261 0.947357 1.000000
0.378873 0.948254 1.000000
0.530484 0.949151 1.000000
0.682095 0.950048 1.000000
0.833706 0.950945 1.000000
0.985317 0.951842 1.000000
1.000000 0.952739 1.000000
0.000000 1.000000 1.000000
0.083721 1.000000 1.000000
0.235333 1.000000 1.000000
0.386944 1.000000 1.000000
0.538555 1.000000 1.000000
0.690166 1.000000 1.000000
0.841777 1.000000 1.000000
0.993389 1.000000 1.000000
1.000000 1.000000 1.000000
