assets/luts/02_cool_cinema.cube
TITLE "Cool Cinema (teal & orange)"
LUT_3D_SIZE 5
DOMAIN_MIN 0.0 0.0 0.0
DOMAIN_MAX 1.0 1.0 1.0
0.000000 0.000000 0.000000
0.166728 0.000000 0.000000
0.468455 0.000000 0.000000
0.770182 0.000000 0.000000
1.000000 0.000000 0.000000
0.000000 0.213478 0.000000
0.179935 0.211684 0.000000
0.481662 0.209890 0.000000
0.783390 0.208096 0.000000
1.000000 0.206302 0.000000
0.000000 0.504956 0.000000
0.193143 0.503162 0.000000
0.494870 0.501368 0.000000
0.796952 0.500426 0.000000
1.000000 0.502220 0.000000
0.000000 0.796434 0.000000
0.206650 0.795360 0.000000
0.509872 0.797154 0.000000
0.813095 0.798948 0.000000
1.000000 0.800742 0.000000
0.000000 1.000000 0.000000
0.222793 1.000000 0.000000
0.526015 1.000000 0.000000
0.829237 1.000000 0.000000
1.000000 1.000000 0.000000
0.000000 0.000000 0.275725
0.169293 0.000000 0.264513
0.471020 0.000000 0.253300
0.772747 0.000000 0.242088
1.000000 0.000000 0.230875
0.000000 0.212794 0.253713
0.182500 0.211000 0.242500
0.484228 0.209206 0.231288
0.785955 0.207412 0.220075
1.000000 0.205618 0.208863
0.000000 0.504272 0.231700
0.195708 0.502478 0.220488
0.497435 0.500684 0.209275
0.800087 0.501110 0.200375
1.000000 0.502904 0.192900
0.000000 0.795750 0.209688
0.209785 0.796044 0.200650
0.513007 0.797838 0.193175
0.816230 0.799632 0.185700
1.000000 0.801426 0.178225
0.000000 1.000000 0.193450
0.225928 1.000000 0.185975
0.529150 1.000000 0.178500
0.832372 1.000000 0.171025
1.000000 1.000000 0.163550
0.000000 0.000000 0.566450
0.171858 0.000000 0.555238
0.473585 0.000000 0.544025
0.775312 0.000000 0.532813
1.000000 0.000000 0.521600
0.000000 0.212110 0.544438
0.185065 0.210316 0.533225
0.486793 0.208522 0.522012
0.788520 0.206728 0.510800
1.000000 0.205066 0.499725
0.000000 0.503588 0.522425
0.198273 0.501794 0.511212
0.500000 0.500000 0.500000
0.803222 0.501794 0.492525
1.000000 0.503588 0.485050
0.000000 0.795066 0.500413
0.212920 0.796728 0.492800
0.516142 0.798522 0.485325
0.819365 0.800316 0.477850
1.000000 0.802110 0.470375
0.000000 1.000000 0.485600
0.229063 1.000000 0.478125
0.532285 1.000000 0.470650
0.835507 1.000000 0.463175
1.000000 1.000000 0.455700
0.000000 0.000000 0.857175
0.174423 0.000000 0.845962
0.476150 0.000000 0.834750
0.777877 0.000000 0.823537
1.000000 0.000000 0.812325
0.000000 0.211426 0.835162
0.187630 0.209632 0.823950
0.489358 0.207838 0.812737
0.791085 0.206044 0.801525
1.000000 0.205750 0.791875
0.000000 0.502904 0.813150
0.200838 0.501110 0.801937
0.503135 0.500684 0.792150
0.806357 0.502478 0.784675
1.000000 0.504272 0.777200
0.000000 0.795618 0.792425
0.216055 0.797412 0.784950
0.519278 0.799206 0.777475
0.822500 0.801000 0.770000
1.000000 0.802794 0.762525
0.000000 1.000000 0.777750
0.232198 1.000000 0.770275
0.535420 1.000000 0.762800
0.838642 1.000000 0.755325
1.000000 1.000000 0.747850
0.000000 0.000000 1.000000
0.176988 0.000000 1.000000
0.478715 0.000000 1.000000
0.780442 0.000000 1.000000
1.000000 0.000000 1.000000
0.000000 0.210742 1.000000
0.190195 0.208948 1.000000
0.491922 0.207154 1.000000
0.793650 0.205360 1.000000
1.000000 0.206434 1.000000
0.000000 0.502220 1.000000
0.203403 0.500426 1.000000
0.506270 0.501368 1.000000
0.809492 0.503162 1.000000
1.000000 0.504956 1.000000
0.000000 0.796302 1.000000
0.219190 0.798096 1.000000
0.522412 0.799890 1.000000
0.825635 0.801684 1.000000
1.000000 0.803478 1.000000
0.000000 1.000000 1.000000
0.235333 1.000000 1.000000
0.538555 1.000000 1.000000
0.841777 1.000000 1.000000
1.000000 1.000000 1.000000
