assets/luts/04_mono_contrast.cube
TITLE "Mono Contrast"
LUT_3D_SIZE 5
DOMAIN_MIN 0.0 0.0 0.0
DOMAIN_MAX 1.0 1.0 1.0
0.000000 0.000000 0.000000
0.000000 0.000000 0.000000
0.026825 0.026825 0.026825
0.127738 0.127738 0.127738
0.228650 0.228650 0.228650
0.023112 0.023112 0.023112
0.124025 0.124025 0.124025
0.224938 0.224938 0.224938
0.325850 0.325850 0.325850
0.426762 0.426762 0.426762
0.221225 0.221225 0.221225
0.322137 0.322137 0.322137
0.423050 0.423050 0.423050
0.523962 0.523962 0.523962
0.624875 0.624875 0.624875
0.419337 0.419337 0.419337
0.520250 0.520250 0.520250
0.621163 0.621163 0.621163
0.722075 0.722075 0.722075
0.822987 0.822987 0.822987
0.617450 0.617450 0.617450
0.718363 0.718363 0.718363
0.819275 0.819275 0.819275
0.920188 0.920188 0.920188
1.000000 1.000000 1.000000
0.000000 0.000000 0.000000
0.000000 0.000000 0.000000
0.065300 0.065300 0.065300
0.166213 0.166213 0.166213
0.267125 0.267125 0.267125
0.061588 0.061588 0.061588
0.162500 0.162500 0.162500
0.263413 0.263413 0.263413
0.364325 0.364325 0.364325
0.465238 0.465238 0.465238
0.259700 0.259700 0.259700
0.360613 0.360613 0.360613
0.461525 0.461525 0.461525
0.562437 0.562437 0.562437
0.663350 0.663350 0.663350
0.457813 0.457813 0.457813
0.558725 0.558725 0.558725
0.659637 0.659637 0.659637
0.760550 0.760550 0.760550
0.861462 0.861462 0.861462
0.655925 0.655925 0.655925
0.756837 0.756837 0.756837
0.857750 0.857750 0.857750
0.958662 0.958662 0.958662
1.000000 1.000000 1.000000
0.000000 0.000000 0.000000
0.002862 0.002862 0.002862
0.103775 0.103775 0.103775
0.204687 0.204687 0.204687
0.305600 0.305600 0.305600
0.100062 0.100062 0.100062
0.200975 0.200975 0.200975
0.301887 0.301887 0.301887
0.402800 0.402800 0.402800
0.503713 0.503713 0.503713
0.298175 0.298175 0.298175
0.399087 0.399087 0.399087
0.500000 0.500000 0.500000
0.600912 0.600912 0.600912
0.701825 0.701825 0.701825
0.496287 0.496287 0.496287
0.597200 0.597200 0.597200
0.698113 0.698113 0.698113
0.799025 0.799025 0.799025
0.899938 0.899938 0.899938
0.694400 0.694400 0.694400
0.795313 0.795313 0.795313
0.896225 0.896225 0.896225
0.997138 0.997138 0.997138
1.000000 1.000000 1.000000
0.000000 0.000000 0.000000
0.041337 0.041337 0.041337
0.142250 0.142250 0.142250
0.243163 0.243163 0.243163
0.344075 0.344075 0.344075
0.138537 0.138537 0.138537
0.239450 0.239450 0.239450
0.340363 0.340363 0.340363
0.441275 0.441275 0.441275
0.542188 0.542188 0.542188
0.336650 0.336650 0.336650
0.437562 0.437562 0.437562
0.538475 0.538475 0.538475
0.639387 0.639387 0.639387
0.740300 0.740300 0.740300
0.534762 0.534762 0.534762
0.635675 0.635675 0.635675
0.736588 0.736588 0.736588
0.837500 0.837500 0.837500
0.938412 0.938412 0.938412
0.732875 0.732875 0.732875
0.833787 0.833787 0.833787
0.934700 0.934700 0.934700
1.000000 1.000000 1.000000
1.000000 1.000000 1.000000
0.000000 0.000000 0.000000
0.079812 0.079812 0.079812
0.180725 0.180725 0.180725
0.281637 0.281637 0.281637
0.382550 0.382550 0.382550
0.177012 0.177012 0.177012
0.277925 0.277925 0.277925
0.378837 0.378837 0.378837
0.479750 0.479750 0.479750
0.580662 0.580662 0.580662
0.375125 0.375125 0.375125
0.476037 0.476037 0.476037
0.576950 0.576950 0.576950
0.677862 0.677862 0.677862
0.778775 0.778775 0.778775
0.573238 0.573238 0.573238
0.674150 0.674150 0.674150
0.775062 0.775062 0.775062
0.875975 0.875975 0.875975
0.976887 0.976887 0.976887
0.771350 0.771350 0.771350
0.872262 0.872262 0.872262
0.973175 0.973175 0.973175
1.000000 1.000000 1.000000
1.000000 1.000000 1.000000
