assets/luts/04_mono_contrast.cube
TITLE "Mono Contrast"
LUT_3D_SIZE 9
DOMAIN_MIN 0.0 0.0 0.0
DOMAIN_MAX 1.0 1.0 1.0
0.000000 0.000000 0.000000
0.000000 0.000000 0.000000
0.000000 0.000000 0.000000
0.000000 0.000000 0.000000
0.026825 0.026825 0.026825
0.077281 0.077281 0.077281
0.127738 0.127738 0.127738
0.178194 0.178194 0.178194
0.228650 0.228650 0.228650
0.000000 0.000000 0.000000
0.000000 0.000000 0.000000
0.024969 0.024969 0.024969
0.075425 0.075425 0.075425
0.125881 0.125881 0.125881
0.176337 0.176337 0.176337
0.226794 0.226794 0.226794
0.277250 0.277250 0.277250
0.327706 0.327706 0.327706
0.023112 0.023112 0.023112
0.073569 0.073569 0.073569
0.124025 0.124025 0.124025
0.174481 0.174481 0.174481
0.224938 0.224938 0.224938
0.275394 0.275394 0.275394
0.325850 0.325850 0.325850
0.376306 0.376306 0.376306
0.426762 0.426762 0.426762
0.122169 0.122169 0.122169
0.172625 0.172625 0.172625
0.223081 0.223081 0.223081
0.273537 0.273537 0.273537
0.323994 0.323994 0.323994
0.374450 0.374450 0.374450
0.424906 0.424906 0.424906
0.475363 0.475363 0.475363
0.525819 0.525819 0.525819
0.221225 0.221225 0.221225
0.271681 0.271681 0.271681
0.322137 0.322137 0.322137
0.372594 0.372594 0.372594
0.423050 0.423050 0.423050
0.473506 0.473506 0.473506
0.523962 0.523962 0.523962
0.574419 0.574419 0.574419
0.624875 0.624875 0.624875
0.320281 0.320281 0.320281
0.370737 0.370737 0.370737
0.421194 0.421194 0.421194
0.471650 0.471650 0.471650
0.522106 0.522106 0.522106
0.572562 0.572562 0.572562
0.623019 0.623019 0.623019
0.673475 0.673475 0.673475
0.723931 0.723931 0.723931
0.419337 0.419337 0.419337
0.469794 0.469794 0.469794
0.520250 0.520250 0.520250
0.570706 0.570706 0.570706
0.621163 0.621163 0.621163
0.671619 0.671619 0.671619
0.722075 0.722075 0.722075
0.772531 0.772531 0.772531
0.822987 0.822987 0.822987
0.518394 0.518394 0.518394
0.568850 0.568850 0.568850
0.619306 0.619306 0.619306
0.669763 0.669763 0.669763
0.720219 0.720219 0.720219
0.770675 0.770675 0.770675
0.821131 0.821131 0.821131
0.871587 0.871587 0.871587
0.922044 0.922044 0.922044
0.617450 0.617450 0.617450
0.667906 0.667906 0.667906
0.718363 0.718363 0.718363
0.768819 0.768819 0.768819
0.819275 0.819275 0.819275
0.869731 0.869731 0.869731
0.920188 0.920188 0.920188
0.970644 0.970644 0.970644
1.000000 1.000000 1.000000
0.000000 0.000000 0.000000
0.000000 0.000000 0.000000
0.000000 0.000000 0.000000
0.000000 0.000000 0.000000
0.046063 0.046063 0.046063
0.096519 0.096519 0.096519
0.146975 0.146975 0.146975
0.197431 0.197431 0.197431
0.247887 0.247887 0.247887
0.000000 0.000000 0.000000
0.000000 0.000000 0.000000
0.044206 0.044206 0.044206
0.094662 0.094662 0.094662
0.145119 0.145119 0.145119
0.195575 0.195575 0.195575
0.246031 0.246031 0.246031
0.296487 0.296487 0.296487
0.346944 0.346944 0.346944
0.042350 0.042350 0.042350
0.092806 0.092806 0.092806
0.143263 0.143263 0.143263
0.193719 0.193719 0.193719
0.244175 0.244175 0.244175
0.294631 0.294631 0.294631
0.345087 0.345087 0.345087
0.395544 0.395544 0.395544
0.446000 0.446000 0.446000
0.141406 0.141406 0.141406
0.191862 0.191862 0.191862
0.242319 0.242319 0.242319
0.292775 0.292775 0.292775
0.343231 0.343231 0.343231
0.393687 0.393687 0.393687
0.444144 0.444144 0.444144
0.494600 0.494600 0.494600
0.545056 0.545056 0.545056
0.240462 0.240462 0.240462
0.290919 0.290919 0.290919
0.341375 0.341375 0.341375
0.391831 0.391831 0.391831
0.442287 0.442287 0.442287
0.492744 0.492744 0.492744
0.543200 0.543200 0.543200
0.593656 0.593656 0.593656
0.644113 0.644113 0.644113
0.339519 0.339519 0.339519
0.389975 0.389975 0.389975
0.440431 0.440431 0.440431
0.490887 0.490887 0.490887
0.541344 0.541344 0.541344
0.591800 0.591800 0.591800
0.642256 0.642256 0.642256
0.692712 0.692712 0.692712
0.743169 0.743169 0.743169
0.438575 0.438575 0.438575
0.489031 0.489031 0.489031
0.539488 0.539488 0.539488
0.589944 0.589944 0.589944
0.640400 0.640400 0.640400
0.690856 0.690856 0.690856
0.741312 0.741312 0.741312
0.791769 0.791769 0.791769
0.842225 0.842225 0.842225
0.537631 0.537631 0.537631
0.588088 0.588088 0.588088
0.638544 0.638544 0.638544
0.689000 0.689000 0.689000
0.739456 0.739456 0.739456
0.789913 0.789913 0.789913
0.840369 0.840369 0.840369
0.890825 0.890825 0.890825
0.941281 0.941281 0.941281
0.636687 0.636687 0.636687
0.687144 0.687144 0.687144
0.737600 0.737600 0.737600
0.788056 0.788056 0.788056
0.838512 0.838512 0.838512
0.888969 0.888969 0.888969
0.939425 0.939425 0.939425
0.989881 0.989881 0.989881
1.000000 1.000000 1.000000
0.000000 0.000000 0.000000
0.000000 0.000000 0.000000
0.000000 0.000000 0.000000
0.014844 0.014844 0.014844
0.065300 0.065300 0.065300
0.115756 0.115756 0.115756
0.166213 0.166213 0.166213
0.216669 0.216669 0.216669
0.267125 0.267125 0.267125
0.000000 0.000000 0.000000
0.012987 0.012987 0.012987
0.063444 0.063444 0.063444
0.113900 0.113900 0.113900
0.164356 0.164356 0.164356
0.214813 0.214813 0.214813
0.265269 0.265269 0.265269
0.315725 0.315725 0.315725
0.366181 0.366181 0.366181
0.061588 0.061588 0.061588
0.112044 0.112044 0.112044
0.162500 0.162500 0.162500
0.212956 0.212956 0.212956
0.263413 0.263413 0.263413
0.313869 0.313869 0.313869
0.364325 0.364325 0.364325
0.414781 0.414781 0.414781
0.465238 0.465238 0.465238
0.160644 0.160644 0.160644
0.211100 0.211100 0.211100
0.261556 0.261556 0.261556
0.312013 0.312013 0.312013
0.362469 0.362469 0.362469
0.412925 0.412925 0.412925
0.463381 0.463381 0.463381
0.513837 0.513837 0.513837
0.564294 0.564294 0.564294
0.259700 0.259700 0.259700
0.310156 0.310156 0.310156
0.360613 0.360613 0.360613
0.411069 0.411069 0.411069
0.461525 0.461525 0.461525
0.511981 0.511981 0.511981
0.562437 0.562437 0.562437
0.612894 0.612894 0.612894
0.663350 0.663350 0.663350
0.358756 0.358756 0.358756
0.409212 0.409212 0.409212
0.459669 0.459669 0.459669
0.510125 0.510125 0.510125
0.560581 0.560581 0.560581
0.611037 0.611037 0.611037
0.661494 0.661494 0.661494
0.711950 0.711950 0.711950
0.762406 0.762406 0.762406
0.457813 0.457813 0.457813
0.508269 0.508269 0.508269
0.558725 0.558725 0.558725
0.609181 0.609181 0.609181
0.659637 0.659637 0.659637
0.710094 0.710094 0.710094
0.760550 0.760550 0.760550
0.811006 0.811006 0.811006
0.861462 0.861462 0.861462
0.556869 0.556869 0.556869
0.607325 0.607325 0.607325
0.657781 0.657781 0.657781
0.708238 0.708238 0.708238
0.758694 0.758694 0.758694
0.809150 0.809150 0.809150
0.859606 0.859606 0.859606
0.910062 0.910062 0.910062
0.960519 0.960519 0.960519
0.655925 0.655925 0.655925
0.706381 0.706381 0.706381
0.756837 0.756837 0.756837
0.807294 0.807294 0.807294
0.857750 0.857750 0.857750
0.908206 0.908206 0.908206
0.958662 0.958662 0.958662
1.000000 1.000000 1.000000
1.000000 1.000000 1.000000
0.000000 0.000000 0.000000
0.000000 0.000000 0.000000
0.000000 0.000000 0.000000
0.034081 0.034081 0.034081
0.084538 0.084538 0.084538
0.134994 0.134994 0.134994
0.185450 0.185450 0.185450
0.235906 0.235906 0.235906
0.286362 0.286362 0.286362
0.000000 0.000000 0.000000
0.032225 0.032225 0.032225
0.082681 0.082681 0.082681
0.133137 0.133137 0.133137
0.183594 0.183594 0.183594
0.234050 0.234050 0.234050
0.284506 0.284506 0.284506
0.334962 0.334962 0.334962
0.385419 0.385419 0.385419
0.080825 0.080825 0.080825
0.131281 0.131281 0.131281
0.181737 0.181737 0.181737
0.232194 0.232194 0.232194
0.282650 0.282650 0.282650
0.333106 0.333106 0.333106
0.383563 0.383563 0.383563
0.434019 0.434019 0.434019
0.484475 0.484475 0.484475
0.179881 0.179881 0.179881
0.230338 0.230338 0.230338
0.280794 0.280794 0.280794
0.331250 0.331250 0.331250
0.381706 0.381706 0.381706
0.432163 0.432163 0.432163
0.482619 0.482619 0.482619
0.533075 0.533075 0.533075
0.583531 0.583531 0.583531
0.278937 0.278937 0.278937
0.329394 0.329394 0.329394
0.379850 0.379850 0.379850
0.430306 0.430306 0.430306
0.480762 0.480762 0.480762
0.531219 0.531219 0.531219
0.581675 0.581675 0.581675
0.632131 0.632131 0.632131
0.682588 0.682588 0.682588
0.377994 0.377994 0.377994
0.428450 0.428450 0.428450
0.478906 0.478906 0.478906
0.529362 0.529362 0.529362
0.579819 0.579819 0.579819
0.630275 0.630275 0.630275
0.680731 0.680731 0.680731
0.731187 0.731187 0.731187
0.781644 0.781644 0.781644
0.477050 0.477050 0.477050
0.527506 0.527506 0.527506
0.577962 0.577962 0.577962
0.628419 0.628419 0.628419
0.678875 0.678875 0.678875
0.729331 0.729331 0.729331
0.779787 0.779787 0.779787
0.830244 0.830244 0.830244
0.880700 0.880700 0.880700
0.576106 0.576106 0.576106
0.626563 0.626563 0.626563
0.677019 0.677019 0.677019
0.727475 0.727475 0.727475
0.777931 0.777931 0.777931
0.828388 0.828388 0.828388
0.878844 0.878844 0.878844
0.929300 0.929300 0.929300
0.979756 0.979756 0.979756
0.675162 0.675162 0.675162
0.725619 0.725619 0.725619
0.776075 0.776075 0.776075
0.826531 0.826531 0.826531
0.876987 0.876987 0.876987
0.927444 0.927444 0.927444
0.977900 0.977900 0.977900
1.000000 1.000000 1.000000
1.000000 1.000000 1.000000
0.000000 0.000000 0.000000
0.000000 0.000000 0.000000
0.002862 0.002862 0.002862
0.053319 0.053319 0.053319
0.103775 0.103775 0.103775
0.154231 0.154231 0.154231
0.204687 0.204687 0.204687
0.255144 0.255144 0.255144
0.305600 0.305600 0.305600
0.001006 0.001006 0.001006
0.051462 0.051462 0.051462
0.101919 0.101919 0.101919
0.152375 0.152375 0.152375
0.202831 0.202831 0.202831
0.253287 0.253287 0.253287
0.303744 0.303744 0.303744
0.354200 0.354200 0.354200
0.404656 0.404656 0.404656
0.100062 0.100062 0.100062
0.150519 0.150519 0.150519
0.200975 0.200975 0.200975
0.251431 0.251431 0.251431
0.301887 0.301887 0.301887
0.352344 0.352344 0.352344
0.402800 0.402800 0.402800
0.453256 0.453256 0.453256
0.503713 0.503713 0.503713
0.199119 0.199119 0.199119
0.249575 0.249575 0.249575
0.300031 0.300031 0.300031
0.350487 0.350487 0.350487
0.400944 0.400944 0.400944
0.451400 0.451400 0.451400
0.501856 0.501856 0.501856
0.552313 0.552313 0.552313
0.602769 0.602769 0.602769
0.298175 0.298175 0.298175
0.348631 0.348631 0.348631
0.399087 0.399087 0.399087
0.449544 0.449544 0.449544
0.500000 0.500000 0.500000
0.550456 0.550456 0.550456
0.600912 0.600912 0.600912
0.651369 0.651369 0.651369
0.701825 0.701825 0.701825
0.397231 0.397231 0.397231
0.447687 0.447687 0.447687
0.498144 0.498144 0.498144
0.548600 0.548600 0.548600
0.599056 0.599056 0.599056
0.649513 0.649513 0.649513
0.699969 0.699969 0.699969
0.750425 0.750425 0.750425
0.800881 0.800881 0.800881
0.496287 0.496287 0.496287
0.546744 0.546744 0.546744
0.597200 0.597200 0.597200
0.647656 0.647656 0.647656
0.698113 0.698113 0.698113
0.748569 0.748569 0.748569
0.799025 0.799025 0.799025
0.849481 0.849481 0.849481
0.899938 0.899938 0.899938
0.595344 0.595344 0.595344
0.645800 0.645800 0.645800
0.696256 0.696256 0.696256
0.746713 0.746713 0.746713
0.797169 0.797169 0.797169
0.847625 0.847625 0.847625
0.898081 0.898081 0.898081
0.948538 0.948538 0.948538
0.998994 0.998994 0.998994
0.694400 0.694400 0.694400
0.744856 0.744856 0.744856
0.795313 0.795313 0.795313
0.845769 0.845769 0.845769
0.896225 0.896225 0.896225
0.946681 0.946681 0.946681
0.997138 0.997138 0.997138
1.000000 1.000000 1.000000
1.000000 1.000000 1.000000
0.000000 0.000000 0.000000
0.000000 0.000000 0.000000
0.022100 0.022100 0.022100
0.072556 0.072556 0.072556
0.123012 0.123012 0.123012
0.173469 0.173469 0.173469
0.223925 0.223925 0.223925
0.274381 0.274381 0.274381
0.324837 0.324837 0.324837
0.020244 0.020244 0.020244
0.070700 0.070700 0.070700
0.121156 0.121156 0.121156
0.171613 0.171613 0.171613
0.222069 0.222069 0.222069
0.272525 0.272525 0.272525
0.322981 0.322981 0.322981
0.373437 0.373437 0.373437
0.423894 0.423894 0.423894
0.119300 0.119300 0.119300
0.169756 0.169756 0.169756
0.220212 0.220212 0.220212
0.270669 0.270669 0.270669
0.321125 0.321125 0.321125
0.371581 0.371581 0.371581
0.422038 0.422038 0.422038
0.472494 0.472494 0.472494
0.522950 0.522950 0.522950
0.218356 0.218356 0.218356
0.268812 0.268812 0.268812
0.319269 0.319269 0.319269
0.369725 0.369725 0.369725
0.420181 0.420181 0.420181
0.470637 0.470637 0.470637
0.521094 0.521094 0.521094
0.571550 0.571550 0.571550
0.622006 0.622006 0.622006
0.317412 0.317412 0.317412
0.367869 0.367869 0.367869
0.418325 0.418325 0.418325
0.468781 0.468781 0.468781
0.519238 0.519238 0.519238
0.569694 0.569694 0.569694
0.620150 0.620150 0.620150
0.670606 0.670606 0.670606
0.721063 0.721063 0.721063
0.416469 0.416469 0.416469
0.466925 0.466925 0.466925
0.517381 0.517381 0.517381
0.567837 0.567837 0.567837
0.618294 0.618294 0.618294
0.668750 0.668750 0.668750
0.719206 0.719206 0.719206
0.769662 0.769662 0.769662
0.820119 0.820119 0.820119
0.515525 0.515525 0.515525
0.565981 0.565981 0.565981
0.616438 0.616438 0.616438
0.666894 0.666894 0.666894
0.717350 0.717350 0.717350
0.767806 0.767806 0.767806
0.818263 0.818263 0.818263
0.868719 0.868719 0.868719
0.919175 0.919175 0.919175
0.614581 0.614581 0.614581
0.665038 0.665038 0.665038
0.715494 0.715494 0.715494
0.765950 0.765950 0.765950
0.816406 0.816406 0.816406
0.866863 0.866863 0.866863
0.917319 0.917319 0.917319
0.967775 0.967775 0.967775
1.000000 1.000000 1.000000
0.713638 0.713638 0.713638
0.764094 0.764094 0.764094
0.814550 0.814550 0.814550
0.865006 0.865006 0.865006
0.915462 0.915462 0.915462
0.965919 0.965919 0.965919
1.000000 1.000000 1.000000
1.000000 1.000000 1.000000
1.000000 1.000000 1.000000
0.000000 0.000000 0.000000
0.000000 0.000000 0.000000
0.041337 0.041337 0.041337
0.091794 0.091794 0.091794
0.142250 0.142250 0.142250
0.192706 0.192706 0.192706
0.243163 0.243163 0.243163
0.293619 0.293619 0.293619
0.344075 0.344075 0.344075
0.039481 0.039481 0.039481
0.089937 0.089937 0.089937
0.140394 0.140394 0.140394
0.190850 0.190850 0.190850
0.241306 0.241306 0.241306
0.291762 0.291762 0.291762
0.342219 0.342219 0.342219
0.392675 0.392675 0.392675
0.443131 0.443131 0.443131
0.138537 0.138537 0.138537
0.188994 0.188994 0.188994
0.239450 0.239450 0.239450
0.289906 0.289906 0.289906
0.340363 0.340363 0.340363
0.390819 0.390819 0.390819
0.441275 0.441275 0.441275
0.491731 0.491731 0.491731
0.542188 0.542188 0.542188
0.237594 0.237594 0.237594
0.288050 0.288050 0.288050
0.338506 0.338506 0.338506
0.388962 0.388962 0.388962
0.439419 0.439419 0.439419
0.489875 0.489875 0.489875
0.540331 0.540331 0.540331
0.590788 0.590788 0.590788
0.641244 0.641244 0.641244
0.336650 0.336650 0.336650
0.387106 0.387106 0.387106
0.437562 0.437562 0.437562
0.488019 0.488019 0.488019
0.538475 0.538475 0.538475
0.588931 0.588931 0.588931
0.639387 0.639387 0.639387
0.689844 0.689844 0.689844
0.740300 0.740300 0.740300
0.435706 0.435706 0.435706
0.486162 0.486162 0.486162
0.536619 0.536619 0.536619
0.587075 0.587075 0.587075
0.637531 0.637531 0.637531
0.687987 0.687987 0.687987
0.738444 0.738444 0.738444
0.788900 0.788900 0.788900
0.839356 0.839356 0.839356
0.534762 0.534762 0.534762
0.585219 0.585219 0.585219
0.635675 0.635675 0.635675
0.686131 0.686131 0.686131
0.736588 0.736588 0.736588
0.787044 0.787044 0.787044
0.837500 0.837500 0.837500
0.887956 0.887956 0.887956
0.938412 0.938412 0.938412
0.633819 0.633819 0.633819
0.684275 0.684275 0.684275
0.734731 0.734731 0.734731
0.785188 0.785188 0.785188
0.835644 0.835644 0.835644
0.886100 0.886100 0.886100
0.936556 0.936556 0.936556
0.987013 0.987013 0.987013
1.000000 1.000000 1.000000
0.732875 0.732875 0.732875
0.783331 0.783331 0.783331
0.833787 0.833787 0.833787
0.884244 0.884244 0.884244
0.934700 0.934700 0.934700
0.985156 0.985156 0.985156
1.000000 1.000000 1.000000
1.000000 1.000000 1.000000
1.000000 1.000000 1.000000
0.000000 0.000000 0.000000
0.010119 0.010119 0.010119
0.060575 0.060575 0.060575
0.111031 0.111031 0.111031
0.161487 0.161487 0.161487
0.211944 0.211944 0.211944
0.262400 0.262400 0.262400
0.312856 0.312856 0.312856
0.363312 0.363312 0.363312
0.058719 0.058719 0.058719
0.109175 0.109175 0.109175
0.159631 0.159631 0.159631
0.210087 0.210087 0.210087
0.260544 0.260544 0.260544
0.311000 0.311000 0.311000
0.361456 0.361456 0.361456
0.411912 0.411912 0.411912
0.462369 0.462369 0.462369
0.157775 0.157775 0.157775
0.208231 0.208231 0.208231
0.258687 0.258687 0.258687
0.309144 0.309144 0.309144
0.359600 0.359600 0.359600
0.410056 0.410056 0.410056
0.460512 0.460512 0.460512
0.510969 0.510969 0.510969
0.561425 0.561425 0.561425
0.256831 0.256831 0.256831
0.307287 0.307287 0.307287
0.357744 0.357744 0.357744
0.408200 0.408200 0.408200
0.458656 0.458656 0.458656
0.509113 0.509113 0.509113
0.559569 0.559569 0.559569
0.610025 0.610025 0.610025
0.660481 0.660481 0.660481
0.355887 0.355887 0.355887
0.406344 0.406344 0.406344
0.456800 0.456800 0.456800
0.507256 0.507256 0.507256
0.557712 0.557712 0.557712
0.608169 0.608169 0.608169
0.658625 0.658625 0.658625
0.709081 0.709081 0.709081
0.759538 0.759538 0.759538
0.454944 0.454944 0.454944
0.505400 0.505400 0.505400
0.555856 0.555856 0.555856
0.606313 0.606313 0.606313
0.656769 0.656769 0.656769
0.707225 0.707225 0.707225
0.757681 0.757681 0.757681
0.808137 0.808137 0.808137
0.858594 0.858594 0.858594
0.554000 0.554000 0.554000
0.604456 0.604456 0.604456
0.654913 0.654913 0.654913
0.705369 0.705369 0.705369
0.755825 0.755825 0.755825
0.806281 0.806281 0.806281
0.856737 0.856737 0.856737
0.907194 0.907194 0.907194
0.957650 0.957650 0.957650
0.653056 0.653056 0.653056
0.703513 0.703513 0.703513
0.753969 0.753969 0.753969
0.804425 0.804425 0.804425
0.854881 0.854881 0.854881
0.905338 0.905338 0.905338
0.955794 0.955794 0.955794
1.000000 1.000000 1.000000
1.000000 1.000000 1.000000
0.752112 0.752112 0.752112
0.802569 0.802569 0.802569
0.853025 0.853025 0.853025
0.903481 0.903481 0.903481
0.953937 0.953937 0.953937
1.000000 1.000000 1.000000
1.000000 1.000000 1.000000
1.000000 1.000000 1.000000
1.000000 1.000000 1.000000
0.000000 0.000000 0.000000
0.029356 0.029356 0.029356
0.079812 0.079812 0.079812
0.130269 0.130269 0.130269
0.180725 0.180725 0.180725
0.231181 0.231181 0.231181
0.281637 0.281637 0.281637
0.332094 0.332094 0.332094
0.382550 0.382550 0.382550
0.077956 0.077956 0.077956
0.128412 0.128412 0.128412
0.178869 0.178869 0.178869
0.229325 0.229325 0.229325
0.279781 0.279781 0.279781
0.330237 0.330237 0.330237
0.380694 0.380694 0.380694
0.431150 0.431150 0.431150
0.481606 0.481606 0.481606
0.177012 0.177012 0.177012
0.227469 0.227469 0.227469
0.277925 0.277925 0.277925
0.328381 0.328381 0.328381
0.378837 0.378837 0.378837
0.429294 0.429294 0.429294
0.479750 0.479750 0.479750
0.530206 0.530206 0.530206
0.580662 0.580662 0.580662
0.276069 0.276069 0.276069
0.326525 0.326525 0.326525
0.376981 0.376981 0.376981
0.427437 0.427437 0.427437
0.477894 0.477894 0.477894
0.528350 0.528350 0.528350
0.578806 0.578806 0.578806
0.629263 0.629263 0.629263
0.679719 0.679719 0.679719
0.375125 0.375125 0.375125
0.425581 0.425581 0.425581
0.476037 0.476037 0.476037
0.526494 0.526494 0.526494
0.576950 0.576950 0.576950
0.627406 0.627406 0.627406
0.677862 0.677862 0.677862
0.728319 0.728319 0.728319
0.778775 0.778775 0.778775
0.474181 0.474181 0.474181
0.524637 0.524637 0.524637
0.575094 0.575094 0.575094
0.625550 0.625550 0.625550
0.676006 0.676006 0.676006
0.726463 0.726463 0.726463
0.776919 0.776919 0.776919
0.827375 0.827375 0.827375
0.877831 0.877831 0.877831
0.573238 0.573238 0.573238
0.623694 0.623694 0.623694
0.674150 0.674150 0.674150
0.724606 0.724606 0.724606
0.775062 0.775062 0.775062
0.825519 0.825519 0.825519
0.875975 0.875975 0.875975
0.926431 0.926431 0.926431
0.976887 0.976887 0.976887
0.672294 0.672294 0.672294
0.722750 0.722750 0.722750
0.773206 0.773206 0.773206
0.823662 0.823662 0.823662
0.874119 0.874119 0.874119
0.924575 0.924575 0.924575
0.975031 0.975031 0.975031
1.000000 1.000000 1.000000
1.000000 1.000000 1.000000
0.771350 0.771350 0.771350
0.821806 0.821806 0.821806
0.872262 0.872262 0.872262
0.922719 0.922719 0.922719
0.973175 0.973175 0.973175
1.000000 1.000000 1.000000
1.000000 1.000000 1.000000
1.000000 1.000000 1.000000
1.000000 1.000000 1.000000
