assets/luts/04_mono_contrast.cube
TITLE "Mono Contrast"
LUT_3D_SIZE 17
DOMAIN_MIN 0.0 0.0 0.0
DOMAIN_MAX 1.0 1.0 1.0
0.000000 0.000000 0.000000
0.000000 0.000000 0.000000
0.000000 0.000000 0.000000
0.000000 0.000000 0.000000
0.000000 0.000000 0.000000
0.000000 0.000000 0.000000
0.000000 0.000000 0.000000
0.001597 0.001597 0.001597
0.026825 0.026825 0.026825
0.052053 0.052053 0.052053
0.077281 0.077281 0.077281
0.102509 0.102509 0.102509
0.127738 0.127738 0.127738
0.152966 0.152966 0.152966
0.178194 0.178194 0.178194
0.203422 0.203422 0.203422
0.228650 0.228650 0.228650
0.000000 0.000000 0.000000
0.000000 0.000000 0.000000
0.000000 0.000000 0.000000
0.000000 0.000000 0.000000
0.000000 0.000000 0.000000
0.000669 0.000669 0.000669
0.025897 0.025897 0.025897
0.051125 0.051125 0.051125
0.076353 0.076353 0.076353
0.101581 0.101581 0.101581
0.126809 0.126809 0.126809
0.152037 0.152037 0.152037
0.177266 0.177266 0.177266
0.202494 0.202494 0.202494
0.227722 0.227722 0.227722
0.252950 0.252950 0.252950
0.278178 0.278178 0.278178
0.000000 0.000000 0.000000
0.000000 0.000000 0.000000
0.000000 0.000000 0.000000
0.000000 0.000000 0.000000
0.024969 0.024969 0.024969
0.050197 0.050197 0.050197
0.075425 0.075425 0.075425
0.100653 0.100653 0.100653
0.125881 0.125881 0.125881
0.151109 0.151109 0.151109
0.176337 0.176337 0.176337
0.201566 0.201566 0.201566
0.226794 0.226794 0.226794
0.252022 0.252022 0.252022
0.277250 0.277250 0.277250
0.302478 0.302478 0.302478
0.327706 0.327706 0.327706
0.000000 0.000000 0.000000
0.000000 0.000000 0.000000
0.024041 0.024041 0.024041
0.049269 0.049269 0.049269
0.074497 0.074497 0.074497
0.099725 0.099725 0.099725
0.124953 0.124953 0.124953
0.150181 0.150181 0.150181
0.175409 0.175409 0.175409
0.200637 0.200637 0.200637
0.225866 0.225866 0.225866
0.251094 0.251094 0.251094
0.276322 0.276322 0.276322
0.301550 0.301550 0.301550
0.326778 0.326778 0.326778
0.352006 0.352006 0.352006
0.377234 0.377234 0.377234
0.023112 0.023112 0.023112
0.048341 0.048341 0.048341
0.073569 0.073569 0.073569
0.098797 0.098797 0.098797
0.124025 0.124025 0.124025
0.149253 0.149253 0.149253
0.174481 0.174481 0.174481
0.199709 0.199709 0.199709
0.224938 0.224938 0.224938
0.250166 0.250166 0.250166
0.275394 0.275394 0.275394
0.300622 0.300622 0.300622
0.325850 0.325850 0.325850
0.351078 0.351078 0.351078
0.376306 0.376306 0.376306
0.401534 0.401534 0.401534
0.426762 0.426762 0.426762
0.072641 0.072641 0.072641
0.097869 0.097869 0.097869
0.123097 0.123097 0.123097
0.148325 0.148325 0.148325
0.173553 0.173553 0.173553
0.198781 0.198781 0.198781
0.224009 0.224009 0.224009
0.249237 0.249237 0.249237
0.274466 0.274466 0.274466
0.299694 0.299694 0.299694
0.324922 0.324922 0.324922
0.350150 0.350150 0.350150
0.375378 0.375378 0.375378
0.400606 0.400606 0.400606
0.425834 0.425834 0.425834
0.451062 0.451062 0.451062
0.476291 0.476291 0.476291
0.122169 0.122169 0.122169
0.147397 0.147397 0.147397
0.172625 0.172625 0.172625
0.197853 0.197853 0.197853
0.223081 0.223081 0.223081
0.248309 0.248309 0.248309
0.273537 0.273537 0.273537
0.298766 0.298766 0.298766
0.323994 0.323994 0.323994
0.349222 0.349222 0.349222
0.374450 0.374450 0.374450
0.399678 0.399678 0.399678
0.424906 0.424906 0.424906
0.450134 0.450134 0.450134
0.475363 0.475363 0.475363
0.500591 0.500591 0.500591
0.525819 0.525819 0.525819
0.171697 0.171697 0.171697
0.196925 0.196925 0.196925
0.222153 0.222153 0.222153
0.247381 0.247381 0.247381
0.272609 0.272609 0.272609
0.297837 0.297837 0.297837
0.323066 0.323066 0.323066
0.348294 0.348294 0.348294
0.373522 0.373522 0.373522
0.398750 0.398750 0.398750
0.423978 0.423978 0.423978
0.449206 0.449206 0.449206
0.474434 0.474434 0.474434
0.499663 0.499663 0.499663
0.524891 0.524891 0.524891
0.550119 0.550119 0.550119
0.575347 0.575347 0.575347
0.221225 0.221225 0.221225
0.246453 0.246453 0.246453
0.271681 0.271681 0.271681
0.296909 0.296909 0.296909
0.322137 0.322137 0.322137
0.347366 0.347366 0.347366
0.372594 0.372594 0.372594
0.397822 0.397822 0.397822
0.423050 0.423050 0.423050
0.448278 0.448278 0.448278
0.473506 0.473506 0.473506
0.498734 0.498734 0.498734
0.523962 0.523962 0.523962
0.549191 0.549191 0.549191
0.574419 0.574419 0.574419
0.599647 0.599647 0.599647
0.624875 0.624875 0.624875
0.270753 0.270753 0.270753
0.295981 0.295981 0.295981
0.321209 0.321209 0.321209
0.346437 0.346437 0.346437
0.371666 0.371666 0.371666
0.396894 0.396894 0.396894
0.422122 0.422122 0.422122
0.447350 0.447350 0.447350
0.472578 0.472578 0.472578
0.497806 0.497806 0.497806
0.523034 0.523034 0.523034
0.548262 0.548262 0.548262
0.573491 0.573491 0.573491
0.598719 0.598719 0.598719
0.623947 0.623947 0.623947
0.649175 0.649175 0.649175
0.674403 0.674403 0.674403
0.320281 0.320281 0.320281
0.345509 0.345509 0.345509
0.370737 0.370737 0.370737
0.395966 0.395966 0.395966
0.421194 0.421194 0.421194
0.446422 0.446422 0.446422
0.471650 0.471650 0.471650
0.496878 0.496878 0.496878
0.522106 0.522106 0.522106
0.547334 0.547334 0.547334
0.572562 0.572562 0.572562
0.597791 0.597791 0.597791
0.623019 0.623019 0.623019
0.648247 0.648247 0.648247
0.673475 0.673475 0.673475
0.698703 0.698703 0.698703
0.723931 0.723931 0.723931
0.369809 0.369809 0.369809
0.395038 0.395038 0.395038
0.420266 0.420266 0.420266
0.445494 0.445494 0.445494
0.470722 0.470722 0.470722
0.495950 0.495950 0.495950
0.521178 0.521178 0.521178
0.546406 0.546406 0.546406
0.571634 0.571634 0.571634
0.596862 0.596862 0.596862
0.622091 0.622091 0.622091
0.647319 0.647319 0.647319
0.672547 0.672547 0.672547
0.697775 0.697775 0.697775
0.723003 0.723003 0.723003
0.748231 0.748231 0.748231
0.773459 0.773459 0.773459
0.419337 0.419337 0.419337
0.444566 0.444566 0.444566
0.469794 0.469794 0.469794
0.495022 0.495022 0.495022
0.520250 0.520250 0.520250
0.545478 0.545478 0.545478
0.570706 0.570706 0.570706
0.595934 0.595934 0.595934
0.621163 0.621163 0.621163
0.646391 0.646391 0.646391
0.671619 0.671619 0.671619
0.696847 0.696847 0.696847
0.722075 0.722075 0.722075
0.747303 0.747303 0.747303
0.772531 0.772531 0.772531
0.797759 0.797759 0.797759
0.822987 0.822987 0.822987
0.468866 0.468866 0.468866
0.494094 0.494094 0.494094
0.519322 0.519322 0.519322
0.544550 0.544550 0.544550
0.569778 0.569778 0.569778
0.595006 0.595006 0.595006
0.620234 0.620234 0.620234
0.645463 0.645463 0.645463
0.670691 0.670691 0.670691
0.695919 0.695919 0.695919
0.721147 0.721147 0.721147
0.746375 0.746375 0.746375
0.771603 0.771603 0.771603
0.796831 0.796831 0.796831
0.822059 0.822059 0.822059
0.847287 0.847287 0.847287
0.872516 0.872516 0.872516
0.518394 0.518394 0.518394
0.543622 0.543622 0.543622
0.568850 0.568850 0.568850
0.594078 0.594078 0.594078
0.619306 0.619306 0.619306
0.644534 0.644534 0.644534
0.669763 0.669763 0.669763
0.694991 0.694991 0.694991
0.720219 0.720219 0.720219
0.745447 0.745447 0.745447
0.770675 0.770675 0.770675
0.795903 0.795903 0.795903
0.821131 0.821131 0.821131
0.846359 0.846359 0.846359
0.871587 0.871587 0.871587
0.896816 0.896816 0.896816
0.922044 0.922044 0.922044
0.567922 0.567922 0.567922
0.593150 0.593150 0.593150
0.618378 0.618378 0.618378
0.643606 0.643606 0.643606
0.668834 0.668834 0.668834
0.694062 0.694062 0.694062
0.719291 0.719291 0.719291
0.744519 0.744519 0.744519
0.769747 0.769747 0.769747
0.794975 0.794975 0.794975
0.820203 0.820203 0.820203
0.845431 0.845431 0.845431
0.870659 0.870659 0.870659
0.895888 0.895888 0.895888
0.921116 0.921116 0.921116
0.946344 0.946344 0.946344
0.971572 0.971572 0.971572
0.617450 0.617450 0.617450
0.642678 0.642678 0.642678
0.667906 0.667906 0.667906
0.693134 0.693134 0.693134
0.718363 0.718363 0.718363
0.743591 0.743591 0.743591
0.768819 0.768819 0.768819
0.794047 0.794047 0.794047
0.819275 0.819275 0.819275
0.844503 0.844503 0.844503
0.869731 0.869731 0.869731
0.894959 0.894959 0.894959
0.920188 0.920188 0.920188
0.945416 0.945416 0.945416
0.970644 0.970644 0.970644
0.995872 0.995872 0.995872
1.000000 1.000000 1.000000
0.000000 0.000000 0.000000
0.000000 0.000000 0.000000
0.000000 0.000000 0.000000
0.000000 0.000000 0.000000
0.000000 0.000000 0.000000
0.000000 0.000000 0.000000
0.000000 0.000000 0.000000
0.011216 0.011216 0.011216
0.036444 0.036444 0.036444
0.061672 0.061672 0.061672
0.086900 0.086900 0.086900
0.112128 0.112128 0.112128
0.137356 0.137356 0.137356
0.162584 0.162584 0.162584
0.187812 0.187812 0.187812
0.213041 0.213041 0.213041
0.238269 0.238269 0.238269
0.000000 0.000000 0.000000
0.000000 0.000000 0.000000
0.000000 0.000000 0.000000
0.000000 0.000000 0.000000
0.000000 0.000000 0.000000
0.010287 0.010287 0.010287
0.035516 0.035516 0.035516
0.060744 0.060744 0.060744
0.085972 0.085972 0.085972
0.111200 0.111200 0.111200
0.136428 0.136428 0.136428
0.161656 0.161656 0.161656
0.186884 0.186884 0.186884
0.212112 0.212112 0.212112
0.237341 0.237341 0.237341
0.262569 0.262569 0.262569
0.287797 0.287797 0.287797
0.000000 0.000000 0.000000
0.000000 0.000000 0.000000
0.000000 0.000000 0.000000
0.009359 0.009359 0.009359
0.034587 0.034587 0.034587
0.059816 0.059816 0.059816
0.085044 0.085044 0.085044
0.110272 0.110272 0.110272
0.135500 0.135500 0.135500
0.160728 0.160728 0.160728
0.185956 0.185956 0.185956
0.211184 0.211184 0.211184
0.236413 0.236413 0.236413
0.261641 0.261641 0.261641
0.286869 0.286869 0.286869
0.312097 0.312097 0.312097
0.337325 0.337325 0.337325
0.000000 0.000000 0.000000
0.008431 0.008431 0.008431
0.033659 0.033659 0.033659
0.058887 0.058887 0.058887
0.084116 0.084116 0.084116
0.109344 0.109344 0.109344
0.134572 0.134572 0.134572
0.159800 0.159800 0.159800
0.185028 0.185028 0.185028
0.210256 0.210256 0.210256
0.235484 0.235484 0.235484
0.260712 0.260712 0.260712
0.285941 0.285941 0.285941
0.311169 0.311169 0.311169
0.336397 0.336397 0.336397
0.361625 0.361625 0.361625
0.386853 0.386853 0.386853
0.032731 0.032731 0.032731
0.057959 0.057959 0.057959
0.083187 0.083187 0.083187
0.108416 0.108416 0.108416
0.133644 0.133644 0.133644
0.158872 0.158872 0.158872
0.184100 0.184100 0.184100
0.209328 0.209328 0.209328
0.234556 0.234556 0.234556
0.259784 0.259784 0.259784
0.285012 0.285012 0.285012
0.310241 0.310241 0.310241
0.335469 0.335469 0.335469
0.360697 0.360697 0.360697
0.385925 0.385925 0.385925
0.411153 0.411153 0.411153
0.436381 0.436381 0.436381
0.082259 0.082259 0.082259
0.107487 0.107487 0.107487
0.132716 0.132716 0.132716
0.157944 0.157944 0.157944
0.183172 0.183172 0.183172
0.208400 0.208400 0.208400
0.233628 0.233628 0.233628
0.258856 0.258856 0.258856
0.284084 0.284084 0.284084
0.309312 0.309312 0.309312
0.334541 0.334541 0.334541
0.359769 0.359769 0.359769
0.384997 0.384997 0.384997
0.410225 0.410225 0.410225
0.435453 0.435453 0.435453
0.460681 0.460681 0.460681
0.485909 0.485909 0.485909
0.131787 0.131787 0.131787
0.157016 0.157016 0.157016
0.182244 0.182244 0.182244
0.207472 0.207472 0.207472
0.232700 0.232700 0.232700
0.257928 0.257928 0.257928
0.283156 0.283156 0.283156
0.308384 0.308384 0.308384
0.333612 0.333612 0.333612
0.358841 0.358841 0.358841
0.384069 0.384069 0.384069
0.409297 0.409297 0.409297
0.434525 0.434525 0.434525
0.459753 0.459753 0.459753
0.484981 0.484981 0.484981
0.510209 0.510209 0.510209
0.535438 0.535438 0.535438
0.181316 0.181316 0.181316
0.206544 0.206544 0.206544
0.231772 0.231772 0.231772
0.257000 0.257000 0.257000
0.282228 0.282228 0.282228
0.307456 0.307456 0.307456
0.332684 0.332684 0.332684
0.357912 0.357912 0.357912
0.383141 0.383141 0.383141
0.408369 0.408369 0.408369
0.433597 0.433597 0.433597
0.458825 0.458825 0.458825
0.484053 0.484053 0.484053
0.509281 0.509281 0.509281
0.534509 0.534509 0.534509
0.559737 0.559737 0.559737
0.584966 0.584966 0.584966
0.230844 0.230844 0.230844
0.256072 0.256072 0.256072
0.281300 0.281300 0.281300
0.306528 0.306528 0.306528
0.331756 0.331756 0.331756
0.356984 0.356984 0.356984
0.382213 0.382213 0.382213
0.407441 0.407441 0.407441
0.432669 0.432669 0.432669
0.457897 0.457897 0.457897
0.483125 0.483125 0.483125
0.508353 0.508353 0.508353
0.533581 0.533581 0.533581
0.558809 0.558809 0.558809
0.584037 0.584037 0.584037
0.609266 0.609266 0.609266
0.634494 0.634494 0.634494
0.280372 0.280372 0.280372
0.305600 0.305600 0.305600
0.330828 0.330828 0.330828
0.356056 0.356056 0.356056
0.381284 0.381284 0.381284
0.406512 0.406512 0.406512
0.431741 0.431741 0.431741
0.456969 0.456969 0.456969
0.482197 0.482197 0.482197
0.507425 0.507425 0.507425
0.532653 0.532653 0.532653
0.557881 0.557881 0.557881
0.583109 0.583109 0.583109
0.608338 0.608338 0.608338
0.633566 0.633566 0.633566
0.658794 0.658794 0.658794
0.684022 0.684022 0.684022
0.329900 0.329900 0.329900
0.355128 0.355128 0.355128
0.380356 0.380356 0.380356
0.405584 0.405584 0.405584
0.430812 0.430812 0.430812
0.456041 0.456041 0.456041
0.481269 0.481269 0.481269
0.506497 0.506497 0.506497
0.531725 0.531725 0.531725
0.556953 0.556953 0.556953
0.582181 0.582181 0.582181
0.607409 0.607409 0.607409
0.632637 0.632637 0.632637
0.657866 0.657866 0.657866
0.683094 0.683094 0.683094
0.708322 0.708322 0.708322
0.733550 0.733550 0.733550
0.379428 0.379428 0.379428
0.404656 0.404656 0.404656
0.429884 0.429884 0.429884
0.455112 0.455112 0.455112
0.480341 0.480341 0.480341
0.505569 0.505569 0.505569
0.530797 0.530797 0.530797
0.556025 0.556025 0.556025
0.581253 0.581253 0.581253
0.606481 0.606481 0.606481
0.631709 0.631709 0.631709
0.656937 0.656937 0.656937
0.682166 0.682166 0.682166
0.707394 0.707394 0.707394
0.732622 0.732622 0.732622
0.757850 0.757850 0.757850
0.783078 0.783078 0.783078
0.428956 0.428956 0.428956
0.454184 0.454184 0.454184
0.479412 0.479412 0.479412
0.504641 0.504641 0.504641
0.529869 0.529869 0.529869
0.555097 0.555097 0.555097
0.580325 0.580325 0.580325
0.605553 0.605553 0.605553
0.630781 0.630781 0.630781
0.656009 0.656009 0.656009
0.681237 0.681237 0.681237
0.706466 0.706466 0.706466
0.731694 0.731694 0.731694
0.756922 0.756922 0.756922
0.782150 0.782150 0.782150
0.807378 0.807378 0.807378
0.832606 0.832606 0.832606
0.478484 0.478484 0.478484
0.503713 0.503713 0.503713
0.528941 0.528941 0.528941
0.554169 0.554169 0.554169
0.579397 0.579397 0.579397
0.604625 0.604625 0.604625
0.629853 0.629853 0.629853
0.655081 0.655081 0.655081
0.680309 0.680309 0.680309
0.705538 0.705538 0.705538
0.730766 0.730766 0.730766
0.755994 0.755994 0.755994
0.781222 0.781222 0.781222
0.806450 0.806450 0.806450
0.831678 0.831678 0.831678
0.856906 0.856906 0.856906
0.882134 0.882134 0.882134
0.528013 0.528013 0.528013
0.553241 0.553241 0.553241
0.578469 0.578469 0.578469
0.603697 0.603697 0.603697
0.628925 0.628925 0.628925
0.654153 0.654153 0.654153
0.679381 0.679381 0.679381
0.704609 0.704609 0.704609
0.729838 0.729838 0.729838
0.755066 0.755066 0.755066
0.780294 0.780294 0.780294
0.805522 0.805522 0.805522
0.830750 0.830750 0.830750
0.855978 0.855978 0.855978
0.881206 0.881206 0.881206
0.906434 0.906434 0.906434
0.931663 0.931663 0.931663
0.577541 0.577541 0.577541
0.602769 0.602769 0.602769
0.627997 0.627997 0.627997
0.653225 0.653225 0.653225
0.678453 0.678453 0.678453
0.703681 0.703681 0.703681
0.728909 0.728909 0.728909
0.754138 0.754138 0.754138
0.779366 0.779366 0.779366
0.804594 0.804594 0.804594
0.829822 0.829822 0.829822
0.855050 0.855050 0.855050
0.880278 0.880278 0.880278
0.905506 0.905506 0.905506
0.930734 0.930734 0.930734
0.955963 0.955963 0.955963
0.981191 0.981191 0.981191
0.627069 0.627069 0.627069
0.652297 0.652297 0.652297
0.677525 0.677525 0.677525
0.702753 0.702753 0.702753
0.727981 0.727981 0.727981
0.753209 0.753209 0.753209
0.778438 0.778438 0.778438
0.803666 0.803666 0.803666
0.828894 0.828894 0.828894
0.854122 0.854122 0.854122
0.879350 0.879350 0.879350
0.904578 0.904578 0.904578
0.929806 0.929806 0.929806
0.955034 0.955034 0.955034
0.980263 0.980263 0.980263
1.000000 1.000000 1.000000
1.000000 1.000000 1.000000
0.000000 0.000000 0.000000
0.000000 0.000000 0.000000
0.000000 0.000000 0.000000
0.000000 0.000000 0.000000
0.000000 0.000000 0.000000
0.000000 0.000000 0.000000
0.000000 0.000000 0.000000
0.020834 0.020834 0.020834
0.046063 0.046063 0.046063
0.071291 0.071291 0.071291
0.096519 0.096519 0.096519
0.121747 0.121747 0.121747
0.146975 0.146975 0.146975
0.172203 0.172203 0.172203
0.197431 0.197431 0.197431
0.222659 0.222659 0.222659
0.247887 0.247887 0.247887
0.000000 0.000000 0.000000
0.000000 0.000000 0.000000
0.000000 0.000000 0.000000
0.000000 0.000000 0.000000
0.000000 0.000000 0.000000
0.019906 0.019906 0.019906
0.045134 0.045134 0.045134
0.070362 0.070362 0.070362
0.095591 0.095591 0.095591
0.120819 0.120819 0.120819
0.146047 0.146047 0.146047
0.171275 0.171275 0.171275
0.196503 0.196503 0.196503
0.221731 0.221731 0.221731
0.246959 0.246959 0.246959
0.272187 0.272187 0.272187
0.297416 0.297416 0.297416
0.000000 0.000000 0.000000
0.000000 0.000000 0.000000
0.000000 0.000000 0.000000
0.018978 0.018978 0.018978
0.044206 0.044206 0.044206
0.069434 0.069434 0.069434
0.094662 0.094662 0.094662
0.119891 0.119891 0.119891
0.145119 0.145119 0.145119
0.170347 0.170347 0.170347
0.195575 0.195575 0.195575
0.220803 0.220803 0.220803
0.246031 0.246031 0.246031
0.271259 0.271259 0.271259
0.296487 0.296487 0.296487
0.321716 0.321716 0.321716
0.346944 0.346944 0.346944
0.000000 0.000000 0.000000
0.018050 0.018050 0.018050
0.043278 0.043278 0.043278
0.068506 0.068506 0.068506
0.093734 0.093734 0.093734
0.118962 0.118962 0.118962
0.144191 0.144191 0.144191
0.169419 0.169419 0.169419
0.194647 0.194647 0.194647
0.219875 0.219875 0.219875
0.245103 0.245103 0.245103
0.270331 0.270331 0.270331
0.295559 0.295559 0.295559
0.320787 0.320787 0.320787
0.346016 0.346016 0.346016
0.371244 0.371244 0.371244
0.396472 0.396472 0.396472
0.042350 0.042350 0.042350
0.067578 0.067578 0.067578
0.092806 0.092806 0.092806
0.118034 0.118034 0.118034
0.143263 0.143263 0.143263
0.168491 0.168491 0.168491
0.193719 0.193719 0.193719
0.218947 0.218947 0.218947
0.244175 0.244175 0.244175
0.269403 0.269403 0.269403
0.294631 0.294631 0.294631
0.319859 0.319859 0.319859
0.345087 0.345087 0.345087
0.370316 0.370316 0.370316
0.395544 0.395544 0.395544
0.420772 0.420772 0.420772
0.446000 0.446000 0.446000
0.091878 0.091878 0.091878
0.117106 0.117106 0.117106
0.142334 0.142334 0.142334
0.167562 0.167562 0.167562
0.192791 0.192791 0.192791
0.218019 0.218019 0.218019
0.243247 0.243247 0.243247
0.268475 0.268475 0.268475
0.293703 0.293703 0.293703
0.318931 0.318931 0.318931
0.344159 0.344159 0.344159
0.369387 0.369387 0.369387
0.394616 0.394616 0.394616
0.419844 0.419844 0.419844
0.445072 0.445072 0.445072
0.470300 0.470300 0.470300
0.495528 0.495528 0.495528
0.141406 0.141406 0.141406
0.166634 0.166634 0.166634
0.191862 0.191862 0.191862
0.217091 0.217091 0.217091
0.242319 0.242319 0.242319
0.267547 0.267547 0.267547
0.292775 0.292775 0.292775
0.318003 0.318003 0.318003
0.343231 0.343231 0.343231
0.368459 0.368459 0.368459
0.393687 0.393687 0.393687
0.418916 0.418916 0.418916
0.444144 0.444144 0.444144
0.469372 0.469372 0.469372
0.494600 0.494600 0.494600
0.519828 0.519828 0.519828
0.545056 0.545056 0.545056
0.190934 0.190934 0.190934
0.216162 0.216162 0.216162
0.241391 0.241391 0.241391
0.266619 0.266619 0.266619
0.291847 0.291847 0.291847
0.317075 0.317075 0.317075
0.342303 0.342303 0.342303
0.367531 0.367531 0.367531
0.392759 0.392759 0.392759
0.417987 0.417987 0.417987
0.443216 0.443216 0.443216
0.468444 0.468444 0.468444
0.493672 0.493672 0.493672
0.518900 0.518900 0.518900
0.544128 0.544128 0.544128
0.569356 0.569356 0.569356
0.594584 0.594584 0.594584
0.240462 0.240462 0.240462
0.265691 0.265691 0.265691
0.290919 0.290919 0.290919
0.316147 0.316147 0.316147
0.341375 0.341375 0.341375
0.366603 0.366603 0.366603
0.391831 0.391831 0.391831
0.417059 0.417059 0.417059
0.442287 0.442287 0.442287
0.467516 0.467516 0.467516
0.492744 0.492744 0.492744
0.517972 0.517972 0.517972
0.543200 0.543200 0.543200
0.568428 0.568428 0.568428
0.593656 0.593656 0.593656
0.618884 0.618884 0.618884
0.644113 0.644113 0.644113
0.289991 0.289991 0.289991
0.315219 0.315219 0.315219
0.340447 0.340447 0.340447
0.365675 0.365675 0.365675
0.390903 0.390903 0.390903
0.416131 0.416131 0.416131
0.441359 0.441359 0.441359
0.466587 0.466587 0.466587
0.491816 0.491816 0.491816
0.517044 0.517044 0.517044
0.542272 0.542272 0.542272
0.567500 0.567500 0.567500
0.592728 0.592728 0.592728
0.617956 0.617956 0.617956
0.643184 0.643184 0.643184
0.668412 0.668412 0.668412
0.693641 0.693641 0.693641
0.339519 0.339519 0.339519
0.364747 0.364747 0.364747
0.389975 0.389975 0.389975
0.415203 0.415203 0.415203
0.440431 0.440431 0.440431
0.465659 0.465659 0.465659
0.490887 0.490887 0.490887
0.516116 0.516116 0.516116
0.541344 0.541344 0.541344
0.566572 0.566572 0.566572
0.591800 0.591800 0.591800
0.617028 0.617028 0.617028
0.642256 0.642256 0.642256
0.667484 0.667484 0.667484
0.692712 0.692712 0.692712
0.717941 0.717941 0.717941
0.743169 0.743169 0.743169
0.389047 0.389047 0.389047
0.414275 0.414275 0.414275
0.439503 0.439503 0.439503
0.464731 0.464731 0.464731
0.489959 0.489959 0.489959
0.515188 0.515188 0.515188
0.540416 0.540416 0.540416
0.565644 0.565644 0.565644
0.590872 0.590872 0.590872
0.616100 0.616100 0.616100
0.641328 0.641328 0.641328
0.666556 0.666556 0.666556
0.691784 0.691784 0.691784
0.717012 0.717012 0.717012
0.742241 0.742241 0.742241
0.767469 0.767469 0.767469
0.792697 0.792697 0.792697
0.438575 0.438575 0.438575
0.463803 0.463803 0.463803
0.489031 0.489031 0.489031
0.514259 0.514259 0.514259
0.539488 0.539488 0.539488
0.564716 0.564716 0.564716
0.589944 0.589944 0.589944
0.615172 0.615172 0.615172
0.640400 0.640400 0.640400
0.665628 0.665628 0.665628
0.690856 0.690856 0.690856
0.716084 0.716084 0.716084
0.741312 0.741312 0.741312
0.766541 0.766541 0.766541
0.791769 0.791769 0.791769
0.816997 0.816997 0.816997
0.842225 0.842225 0.842225
0.488103 0.488103 0.488103
0.513331 0.513331 0.513331
0.538559 0.538559 0.538559
0.563787 0.563787 0.563787
0.589016 0.589016 0.589016
0.614244 0.614244 0.614244
0.639472 0.639472 0.639472
0.664700 0.664700 0.664700
0.689928 0.689928 0.689928
0.715156 0.715156 0.715156
0.740384 0.740384 0.740384
0.765612 0.765612 0.765612
0.790841 0.790841 0.790841
0.816069 0.816069 0.816069
0.841297 0.841297 0.841297
0.866525 0.866525 0.866525
0.891753 0.891753 0.891753
0.537631 0.537631 0.537631
0.562859 0.562859 0.562859
0.588088 0.588088 0.588088
0.613316 0.613316 0.613316
0.638544 0.638544 0.638544
0.663772 0.663772 0.663772
0.689000 0.689000 0.689000
0.714228 0.714228 0.714228
0.739456 0.739456 0.739456
0.764684 0.764684 0.764684
0.789913 0.789913 0.789913
0.815141 0.815141 0.815141
0.840369 0.840369 0.840369
0.865597 0.865597 0.865597
0.890825 0.890825 0.890825
0.916053 0.916053 0.916053
0.941281 0.941281 0.941281
0.587159 0.587159 0.587159
0.612387 0.612387 0.612387
0.637616 0.637616 0.637616
0.662844 0.662844 0.662844
0.688072 0.688072 0.688072
0.713300 0.713300 0.713300
0.738528 0.738528 0.738528
0.763756 0.763756 0.763756
0.788984 0.788984 0.788984
0.814212 0.814212 0.814212
0.839441 0.839441 0.839441
0.864669 0.864669 0.864669
0.889897 0.889897 0.889897
0.915125 0.915125 0.915125
0.940353 0.940353 0.940353
0.965581 0.965581 0.965581
0.990809 0.990809 0.990809
0.636687 0.636687 0.636687
0.661916 0.661916 0.661916
0.687144 0.687144 0.687144
0.712372 0.712372 0.712372
0.737600 0.737600 0.737600
0.762828 0.762828 0.762828
0.788056 0.788056 0.788056
0.813284 0.813284 0.813284
0.838512 0.838512 0.838512
0.863741 0.863741 0.863741
0.888969 0.888969 0.888969
0.914197 0.914197 0.914197
0.939425 0.939425 0.939425
0.964653 0.964653 0.964653
0.989881 0.989881 0.989881
1.000000 1.000000 1.000000
1.000000 1.000000 1.000000
0.000000 0.000000 0.000000
0.000000 0.000000 0.000000
0.000000 0.000000 0.000000
0.000000 0.000000 0.000000
0.000000 0.000000 0.000000
0.000000 0.000000 0.000000
0.005225 0.005225 0.005225
0.030453 0.030453 0.030453
0.055681 0.055681 0.055681
0.080909 0.080909 0.080909
0.106137 0.106137 0.106137
0.131366 0.131366 0.131366
0.156594 0.156594 0.156594
0.181822 0.181822 0.181822
0.207050 0.207050 0.207050
0.232278 0.232278 0.232278
0.257506 0.257506 0.257506
0.000000 0.000000 0.000000
