assets/luts/06_punchy.cube
TITLE "Punchy"
LUT_3D_SIZE 9
DOMAIN_MIN 0.0 0.0 0.0
DOMAIN_MAX 1.0 1.0 1.0
0.000000 0.000000 0.000000
0.073881 0.000000 0.000000
0.259963 0.000000 0.000000
0.446044 0.000000 0.000000
0.632125 0.000000 0.000000
0.818207 0.000000 0.000000
1.000000 0.000000 0.000000
1.000000 0.000000 0.000000
1.000000 0.000000 0.000000
0.000000 0.060135 0.000000
0.048315 0.047368 0.000000
0.234397 0.034600 0.000000
0.420478 0.021833 0.000000
0.606559 0.009066 0.000000
0.792641 0.000000 0.000000
0.978722 0.000000 0.000000
1.000000 0.000000 0.000000
1.000000 0.000000 0.000000
0.000000 0.230270 0.000000
0.022749 0.217503 0.000000
0.208830 0.204736 0.000000
0.394912 0.191968 0.000000
0.580993 0.179201 0.000000
0.767074 0.166434 0.000000
0.953156 0.153666 0.000000
1.000000 0.140899 0.000000
1.000000 0.128132 0.000000
0.000000 0.400405 0.000000
0.000000 0.387638 0.000000
0.183264 0.374871 0.000000
0.369345 0.362103 0.000000
0.555427 0.349336 0.000000
0.741508 0.336569 0.000000
0.927590 0.323802 0.000000
1.000000 0.311034 0.000000
1.000000 0.298267 0.000000
0.000000 0.570540 0.000000
0.000000 0.557773 0.000000
0.157698 0.545006 0.000000
0.343779 0.532239 0.000000
0.529861 0.519471 0.000000
0.715942 0.506704 0.000000
0.902023 0.493937 0.000000
1.000000 0.481169 0.000000
1.000000 0.468402 0.000000
0.000000 0.740676 0.000000
0.000000 0.727908 0.000000
0.132132 0.715141 0.000000
0.318213 0.702374 0.000000
0.504294 0.689606 0.000000
0.690376 0.676839 0.000000
0.876457 0.664072 0.000000
1.000000 0.651304 0.000000
1.000000 0.638537 0.000000
0.000000 0.910811 0.000000
0.000000 0.898043 0.000000
0.106566 0.885276 0.000000
0.292647 0.872509 0.000000
0.478728 0.859741 0.000000
0.664810 0.846974 0.000000
0.850891 0.834207 0.000000
1.000000 0.821439 0.000000
1.000000 0.808672 0.000000
0.000000 1.000000 0.000000
0.000000 1.000000 0.000000
0.080999 1.000000 0.000000
0.267081 1.000000 0.000000
0.453162 1.000000 0.000000
0.639243 1.000000 0.000000
0.825325 1.000000 0.000000
1.000000 0.991575 0.000000
1.000000 0.978807 0.000000
0.000000 1.000000 0.000000
0.000000 1.000000 0.000000
0.055433 1.000000 0.000000
0.241514 1.000000 0.000000
0.427596 1.000000 0.000000
0.613677 1.000000 0.000000
0.799759 1.000000 0.000000
0.985840 1.000000 0.000000
1.000000 1.000000 0.000000
0.000000 0.000000 0.079529
0.068916 0.000000 0.066889
0.254998 0.000000 0.054250
0.441079 0.000000 0.041610
0.627160 0.000000 0.028970
0.813242 0.000000 0.016331
0.999323 0.000000 0.003691
1.000000 0.000000 0.000000
1.000000 0.000000 0.000000
0.000000 0.055267 0.054715
0.043350 0.042500 0.042075
0.229431 0.029733 0.029435
0.415513 0.016965 0.016796
0.601594 0.004198 0.004156
0.787675 0.000000 0.000000
0.973757 0.000000 0.000000
1.000000 0.000000 0.000000
1.000000 0.000000 0.000000
0.000000 0.225402 0.029900
0.017784 0.212635 0.017261
0.203865 0.199868 0.004621
0.389947 0.187101 0.000000
0.576028 0.174333 0.000000
0.762109 0.161566 0.000000
0.948191 0.148799 0.000000
1.000000 0.136031 0.000000
1.000000 0.123264 0.000000
0.000000 0.395538 0.005086
0.000000 0.382770 0.000000
0.178299 0.370003 0.000000
0.364380 0.357236 0.000000
0.550462 0.344468 0.000000
0.736543 0.331701 0.000000
0.922624 0.318934 0.000000
1.000000 0.306166 0.000000
1.000000 0.293399 0.000000
0.000000 0.565673 0.000000
0.000000 0.552905 0.000000
0.152733 0.540138 0.000000
0.338814 0.527371 0.000000
0.524895 0.514603 0.000000
0.710977 0.501836 0.000000
0.897058 0.489069 0.000000
1.000000 0.476302 0.000000
1.000000 0.463534 0.000000
0.000000 0.735808 0.000000
0.000000 0.723040 0.000000
0.127167 0.710273 0.000000
0.313248 0.697506 0.000000
0.499329 0.684738 0.000000
0.685411 0.671971 0.000000
0.871492 0.659204 0.000000
1.000000 0.646437 0.000000
1.000000 0.633669 0.000000
0.000000 0.905943 0.000000
0.000000 0.893175 0.000000
0.101600 0.880408 0.000000
0.287682 0.867641 0.000000
0.473763 0.854874 0.000000
0.659844 0.842106 0.000000
0.845926 0.829339 0.000000
1.000000 0.816572 0.000000
1.000000 0.803804 0.000000
0.000000 1.000000 0.000000
0.000000 1.000000 0.000000
0.076034 1.000000 0.000000
0.262116 1.000000 0.000000
0.448197 1.000000 0.000000
0.634278 1.000000 0.000000
0.820360 0.999474 0.000000
1.000000 0.986707 0.000000
1.000000 0.973940 0.000000
0.000000 1.000000 0.000000
0.000000 1.000000 0.000000
0.050468 1.000000 0.000000
0.236549 1.000000 0.000000
0.422631 1.000000 0.000000
0.608712 1.000000 0.000000
0.794793 1.000000 0.000000
0.980875 1.000000 0.000000
1.000000 1.000000 0.000000
0.000000 0.000000 0.267958
0.063951 0.000000 0.255318
0.250032 0.000000 0.242679
0.436114 0.000000 0.230039
0.622195 0.000000 0.217399
0.808276 0.000000 0.204760
0.994358 0.000000 0.192120
1.000000 0.000000 0.179480
1.000000 0.000000 0.166841
0.000000 0.050399 0.243144
0.038385 0.037632 0.230504
0.224466 0.024865 0.217864
0.410548 0.012098 0.205225
0.596629 0.000000 0.192585
0.782710 0.000000 0.179945
0.968792 0.000000 0.167306
1.000000 0.000000 0.154666
1.000000 0.000000 0.142026
0.000000 0.220535 0.218329
0.012819 0.207767 0.205690
0.198900 0.195000 0.193050
0.384981 0.182233 0.180410
0.571063 0.169465 0.167771
0.757144 0.156698 0.155131
0.943225 0.143931 0.142491
1.000000 0.131163 0.129852
1.000000 0.118396 0.117212
0.000000 0.390670 0.193515
0.000000 0.377902 0.180875
0.173334 0.365135 0.168236
0.359415 0.352368 0.155596
0.545497 0.339601 0.142956
0.731578 0.326833 0.130317
0.917659 0.314066 0.117677
1.000000 0.301299 0.105038
1.000000 0.288531 0.092398
0.000000 0.560805 0.168701
0.000000 0.548037 0.156061
0.147768 0.535270 0.143421
0.333849 0.522503 0.130782
0.519930 0.509736 0.118142
0.706012 0.496968 0.105503
0.892093 0.484201 0.092863
1.000000 0.471434 0.080223
1.000000 0.458666 0.067584
0.000000 0.730940 0.143887
0.000000 0.718173 0.131247
0.122201 0.705405 0.118607
0.308283 0.692638 0.105968
0.494364 0.679871 0.093328
0.680445 0.667103 0.080688
0.866527 0.654336 0.068049
1.000000 0.641569 0.055409
1.000000 0.628802 0.042769
0.000000 0.901075 0.119072
0.000000 0.888308 0.106433
0.096635 0.875540 0.093793
0.282717 0.862773 0.081153
0.468798 0.850006 0.068514
0.654879 0.837238 0.055874
0.840961 0.824471 0.043234
1.000000 0.811704 0.030595
1.000000 0.798937 0.017955
0.000000 1.000000 0.094258
0.000000 1.000000 0.081618
0.071069 1.000000 0.068979
0.257150 1.000000 0.056339
0.443232 1.000000 0.043699
0.629313 1.000000 0.031060
0.815394 0.994606 0.018420
1.000000 0.981839 0.005781
1.000000 0.969072 0.000000
0.000000 1.000000 0.069444
0.000000 1.000000 0.056804
0.045503 1.000000 0.044164
0.231584 1.000000 0.031525
0.417666 1.000000 0.018885
0.603747 1.000000 0.006246
0.789828 1.000000 0.000000
0.975910 1.000000 0.000000
1.000000 1.000000 0.000000
0.000000 0.000000 0.456387
0.058986 0.000000 0.443747
0.245067 0.000000 0.431107
0.431149 0.000000 0.418468
0.617230 0.000000 0.405828
0.803311 0.000000 0.393188
0.989393 0.000000 0.380549
1.000000 0.000000 0.367909
1.000000 0.000000 0.355270
0.000000 0.045532 0.431572
0.033420 0.032764 0.418933
0.219501 0.019997 0.406293
0.405582 0.007230 0.393654
0.591664 0.000000 0.381014
0.777745 0.000000 0.368374
0.963826 0.000000 0.355735
1.000000 0.000000 0.343095
1.000000 0.000000 0.330455
0.000000 0.215667 0.406758
0.007853 0.202900 0.394119
0.193935 0.190132 0.381479
0.380016 0.177365 0.368839
0.566098 0.164598 0.356200
0.752179 0.151830 0.343560
0.938260 0.139063 0.330920
1.000000 0.126296 0.318281
1.000000 0.113528 0.305641
0.000000 0.385802 0.381944
0.000000 0.373035 0.369304
0.168369 0.360267 0.356665
0.354450 0.347500 0.344025
0.540531 0.334733 0.331385
0.726613 0.321965 0.318746
0.912694 0.309198 0.306106
1.000000 0.296431 0.293466
1.000000 0.283664 0.280827
0.000000 0.555937 0.357130
0.000000 0.543170 0.344490
0.142802 0.530402 0.331850
0.328884 0.517635 0.319211
0.514965 0.504868 0.306571
0.701047 0.492100 0.293931
0.887128 0.479333 0.281292
1.000000 0.466566 0.268652
1.000000 0.453799 0.256013
0.000000 0.726072 0.332315
0.000000 0.713305 0.319676
0.117236 0.700538 0.307036
0.303318 0.687770 0.294396
0.489399 0.675003 0.281757
0.675480 0.662236 0.269117
0.861562 0.649468 0.256478
1.000000 0.636701 0.243838
1.000000 0.623934 0.231198
0.000000 0.896207 0.307501
0.000000 0.883440 0.294862
0.091670 0.870673 0.282222
0.277751 0.857905 0.269582
0.463833 0.845138 0.256943
0.649914 0.832371 0.244303
0.835995 0.819603 0.231663
1.000000 0.806836 0.219024
1.000000 0.794069 0.206384
0.000000 1.000000 0.282687
0.000000 1.000000 0.270047
0.066104 1.000000 0.257408
0.252185 1.000000 0.244768
0.438267 1.000000 0.232128
0.624348 1.000000 0.219489
0.810429 0.989739 0.206849
0.996511 0.976971 0.194209
1.000000 0.964204 0.181570
0.000000 1.000000 0.257873
0.000000 1.000000 0.245233
0.040538 1.000000 0.232593
0.226619 1.000000 0.219954
0.412700 1.000000 0.207314
0.598782 1.000000 0.194674
0.784863 1.000000 0.182035
0.970944 1.000000 0.169395
1.000000 1.000000 0.156756
0.000000 0.000000 0.644816
0.054021 0.000000 0.632176
0.240102 0.000000 0.619536
0.426183 0.000000 0.606897
0.612265 0.000000 0.594257
0.798346 0.000000 0.581617
0.984427 0.000000 0.568978
1.000000 0.000000 0.556338
1.000000 0.000000 0.543698
0.000000 0.040664 0.620001
0.028455 0.027897 0.607362
0.214536 0.015129 0.594722
0.400617 0.002362 0.582082
0.586699 0.000000 0.569443
0.772780 0.000000 0.556803
0.958861 0.000000 0.544163
1.000000 0.000000 0.531524
1.000000 0.000000 0.518884
0.000000 0.210799 0.595187
0.002888 0.198032 0.582547
0.188970 0.185264 0.569908
0.375051 0.172497 0.557268
0.561132 0.159730 0.544629
0.747214 0.146963 0.531989
0.933295 0.134195 0.519349
1.000000 0.121428 0.506710
1.000000 0.108661 0.494070
0.000000 0.380934 0.570373
0.000000 0.368167 0.557733
0.163403 0.355400 0.545094
0.349485 0.342632 0.532454
0.535566 0.329865 0.519814
0.721648 0.317098 0.507175
0.907729 0.304330 0.494535
1.000000 0.291563 0.481895
1.000000 0.278796 0.469256
0.000000 0.551069 0.545559
0.000000 0.538302 0.532919
0.137837 0.525535 0.520279
0.323919 0.512767 0.507640
0.510000 0.500000 0.495000
0.696081 0.487233 0.482360
0.882163 0.474465 0.469721
1.000000 0.461698 0.457081
1.000000 0.448931 0.444441
0.000000 0.721204 0.520744
0.000000 0.708437 0.508105
0.112271 0.695670 0.495465
0.298352 0.682902 0.482825
0.484434 0.670135 0.470186
0.670515 0.657368 0.457546
0.856597 0.644601 0.444906
1.000000 0.631833 0.432267
1.000000 0.619066 0.419627
0.000000 0.891339 0.495930
0.000000 0.878572 0.483290
0.086705 0.865805 0.470651
0.272786 0.853037 0.458011
0.458868 0.840270 0.445371
0.644949 0.827503 0.432732
0.831030 0.814736 0.420092
1.000000 0.801968 0.407453
1.000000 0.789201 0.394813
0.000000 1.000000 0.471116
0.000000 1.000000 0.458476
0.061139 1.000000 0.445837
0.247220 1.000000 0.433197
0.433301 1.000000 0.420557
0.619383 0.997638 0.407918
0.805464 0.984871 0.395278
0.991545 0.972103 0.382638
1.000000 0.959336 0.369999
0.000000 1.000000 0.446302
0.000000 1.000000 0.433662
0.035573 1.000000 0.421022
0.221654 1.000000 0.408383
0.407735 1.000000 0.395743
0.593817 1.000000 0.383103
0.779898 1.000000 0.370464
0.965979 1.000000 0.357824
1.000000 1.000000 0.345184
0.000000 0.000000 0.833244
0.049056 0.000000 0.820605
0.235137 0.000000 0.807965
0.421218 0.000000 0.795326
0.607300 0.000000 0.782686
0.793381 0.000000 0.770046
0.979462 0.000000 0.757407
1.000000 0.000000 0.744767
1.000000 0.000000 0.732127
0.000000 0.035796 0.808430
0.023489 0.023029 0.795791
0.209571 0.010261 0.783151
0.395652 0.000000 0.770511
0.581733 0.000000 0.757872
0.767815 0.000000 0.745232
0.953896 0.000000 0.732592
1.000000 0.000000 0.719953
1.000000 0.000000 0.707313
0.000000 0.205931 0.783616
0.000000 0.193164 0.770976
0.184005 0.180397 0.758337
0.370086 0.167629 0.745697
0.556167 0.154862 0.733057
0.742249 0.142095 0.720418
0.928330 0.129327 0.707778
1.000000 0.116560 0.695138
1.000000 0.103793 0.682499
0.000000 0.376066 0.758802
0.000000 0.363299 0.746162
0.158438 0.350532 0.733522
0.344520 0.337764 0.720883
0.530601 0.324997 0.708243
0.716682 0.312230 0.695604
0.902764 0.299463 0.682964
1.000000 0.286695 0.670324
1.000000 0.273928 0.657685
0.000000 0.546201 0.733987
0.000000 0.533434 0.721348
0.132872 0.520667 0.708708
0.318953 0.507900 0.696069
0.505035 0.495132 0.683429
0.691116 0.482365 0.670789
0.877198 0.469598 0.658150
1.000000 0.456830 0.645510
1.000000 0.444063 0.632870
0.000000 0.716336 0.709173
0.000000 0.703569 0.696534
0.107306 0.690802 0.683894
0.293387 0.678035 0.671254
0.479469 0.665267 0.658615
0.665550 0.652500 0.645975
0.851631 0.639733 0.633335
1.000000 0.626965 0.620696
1.000000 0.614198 0.608056
0.000000 0.886472 0.684359
0.000000 0.873704 0.671719
0.081740 0.860937 0.659080
0.267821 0.848170 0.646440
0.453902 0.835402 0.633800
0.639984 0.822635 0.621161
0.826065 0.809868 0.608521
1.000000 0.797100 0.595881
1.000000 0.784333 0.583242
0.000000 1.000000 0.659545
0.000000 1.000000 0.646905
0.056174 1.000000 0.634265
0.242255 1.000000 0.621626
0.428336 1.000000 0.608986
0.614418 0.992770 0.596346
0.800499 0.980003 0.583707
0.986580 0.967236 0.571067
1.000000 0.954468 0.558428
0.000000 1.000000 0.634730
0.000000 1.000000 0.622091
0.030607 1.000000 0.609451
0.216689 1.000000 0.596812
0.402770 1.000000 0.584172
0.588851 1.000000 0.571532
0.774933 1.000000 0.558893
0.961014 1.000000 0.546253
1.000000 1.000000 0.533613
0.000000 0.000000 1.000000
0.044090 0.000000 1.000000
0.230172 0.000000 0.996394
0.416253 0.000000 0.983754
0.602334 0.000000 0.971115
0.788416 0.000000 0.958475
0.974497 0.000000 0.945836
1.000000 0.000000 0.933196
1.000000 0.000000 0.920556
0.000000 0.030928 0.996859
0.018524 0.018161 0.984219
0.204606 0.005394 0.971580
0.390687 0.000000 0.958940
0.576768 0.000000 0.946301
0.762850 0.000000 0.933661
0.948931 0.000000 0.921021
1.000000 0.000000 0.908382
1.000000 0.000000 0.895742
0.000000 0.201063 0.972045
0.000000 0.188296 0.959405
0.179039 0.175529 0.946766
0.365121 0.162762 0.934126
0.551202 0.149994 0.921486
0.737283 0.137227 0.908847
0.923365 0.124460 0.896207
1.000000 0.111692 0.883567
1.000000 0.098925 0.870928
0.000000 0.371199 0.947231
0.000000 0.358431 0.934591
0.153473 0.345664 0.921951
0.339555 0.332897 0.909312
0.525636 0.320129 0.896672
0.711717 0.307362 0.884032
0.897799 0.294595 0.871393
1.000000 0.281827 0.858753
1.000000 0.269060 0.846113
0.000000 0.541334 0.922416
0.000000 0.528566 0.909777
0.127907 0.515799 0.897137
0.313988 0.503032 0.884497
0.500070 0.490264 0.871858
0.686151 0.477497 0.859218
0.872232 0.464730 0.846579
1.000000 0.451963 0.833939
1.000000 0.439195 0.821299
0.000000 0.711469 0.897602
0.000000 0.698701 0.884962
0.102341 0.685934 0.872323
0.288422 0.673167 0.859683
0.474503 0.660399 0.847044
0.660585 0.647632 0.834404
0.846666 0.634865 0.821764
1.000000 0.622098 0.809125
1.000000 0.609330 0.796485
0.000000 0.881604 0.872788
0.000000 0.868837 0.860148
0.076775 0.856069 0.847509
0.262856 0.843302 0.834869
0.448937 0.830535 0.822229
0.635019 0.817767 0.809590
0.821100 0.805000 0.796950
1.000000 0.792233 0.784310
1.000000 0.779465 0.771671
0.000000 1.000000 0.847974
0.000000 1.000000 0.835334
0.051208 1.000000 0.822694
0.237290 1.000000 0.810055
0.423371 1.000000 0.797415
0.609452 0.987902 0.784775
0.795534 0.975135 0.772136
0.981615 0.962368 0.759496
1.000000 0.949601 0.746856
0.000000 1.000000 0.823159
0.000000 1.000000 0.810520
0.025642 1.000000 0.797880
0.211724 1.000000 0.785240
0.397805 1.000000 0.772601
0.583886 1.000000 0.759961
0.769968 1.000000 0.747321
0.956049 1.000000 0.734682
1.000000 1.000000 0.722042
0.000000 0.000000 1.000000
0.039125 0.000000 1.000000
0.225207 0.000000 1.000000
0.411288 0.000000 1.000000
0.597369 0.000000 1.000000
0.783451 0.000000 1.000000
0.969532 0.000000 1.000000
1.000000 0.000000 1.000000
1.000000 0.000000 1.000000
0.000000 0.026060 1.000000
0.013559 0.013293 1.000000
0.199640 0.000526 1.000000
0.385722 0.000000 1.000000
0.571803 0.000000 1.000000
0.757884 0.000000 1.000000
0.943966 0.000000 1.000000
1.000000 0.000000 1.000000
1.000000 0.000000 1.000000
0.000000 0.196196 1.000000
0.000000 0.183428 1.000000
0.174074 0.170661 1.000000
0.360156 0.157894 1.000000
0.546237 0.145126 1.000000
0.732318 0.132359 1.000000
0.918400 0.119592 1.000000
1.000000 0.106824 1.000000
1.000000 0.094057 1.000000
0.000000 0.366331 1.000000
0.000000 0.353563 1.000000
0.148508 0.340796 1.000000
0.334589 0.328029 1.000000
0.520671 0.315262 1.000000
0.706752 0.302494 1.000000
0.892833 0.289727 1.000000
1.000000 0.276960 1.000000
1.000000 0.264192 1.000000
0.000000 0.536466 1.000000
0.000000 0.523699 1.000000
0.122942 0.510931 1.000000
0.309023 0.498164 1.000000
0.495105 0.485397 1.000000
0.681186 0.472629 1.000000
0.867267 0.459862 1.000000
1.000000 0.447095 1.000000
1.000000 0.434327 1.000000
0.000000 0.706601 1.000000
0.000000 0.693834 1.000000
0.097376 0.681066 1.000000
0.283457 0.668299 1.000000
0.469538 0.655532 1.000000
0.655620 0.642764 1.000000
0.841701 0.629997 1.000000
1.000000 0.617230 0.997554
1.000000 0.604463 0.984914
0.000000 0.876736 1.000000
0.000000 0.863969 1.000000
0.071809 0.851201 1.000000
0.257891 0.838434 1.000000
0.443972 0.825667 1.000000
0.630053 0.812899 0.998019
0.816135 0.800132 0.985379
1.000000 0.787365 0.972739
1.000000 0.774598 0.960100
0.000000 1.000000 1.000000
0.000000 1.000000 1.000000
0.046243 1.000000 1.000000
0.232325 1.000000 0.998484
0.418406 0.995802 0.985844
0.604487 0.983035 0.973204
0.790569 0.970267 0.960565
0.976650 0.957500 0.947925
1.000000 0.944733 0.935285
0.000000 1.000000 1.000000
0.000000 1.000000 0.998949
0.020677 1.000000 0.986309
0.206758 1.000000 0.973669
0.392840 1.000000 0.961030
0.578921 1.000000 0.948390
0.765002 1.000000 0.935750
0.951084 1.000000 0.923111
1.000000 1.000000 0.910471
0.000000 0.000000 1.000000
0.034160 0.000000 1.000000
0.220241 0.000000 1.000000
0.406323 0.000000 1.000000
0.592404 0.000000 1.000000
0.778486 0.000000 1.000000
0.964567 0.000000 1.000000
1.000000 0.000000 1.000000
1.000000 0.000000 1.000000
0.000000 0.021193 1.000000
0.008594 0.008425 1.000000
0.194675 0.000000 1.000000
0.380757 0.000000 1.000000
0.566838 0.000000 1.000000
0.752919 0.000000 1.000000
0.939001 0.000000 1.000000
1.000000 0.000000 1.000000
1.000000 0.000000 1.000000
0.000000 0.191328 1.000000
0.000000 0.178561 1.000000
0.169109 0.165793 1.000000
0.355190 0.153026 1.000000
0.541272 0.140259 1.000000
0.727353 0.127491 1.000000
0.913434 0.114724 1.000000
1.000000 0.101957 1.000000
1.000000 0.089189 1.000000
0.000000 0.361463 1.000000
0.000000 0.348696 1.000000
0.143543 0.335928 1.000000
0.329624 0.323161 1.000000
0.515706 0.310394 1.000000
0.701787 0.297626 1.000000
0.887868 0.284859 1.000000
1.000000 0.272092 1.000000
1.000000 0.259325 1.000000
0.000000 0.531598 1.000000
0.000000 0.518831 1.000000
0.117977 0.506063 1.000000
0.304058 0.493296 1.000000
0.490139 0.480529 1.000000
0.676221 0.467762 1.000000
0.862302 0.454994 1.000000
1.000000 0.442227 1.000000
1.000000 0.429460 1.000000
0.000000 0.701733 1.000000
0.000000 0.688966 1.000000
0.092410 0.676198 1.000000
0.278492 0.663431 1.000000
0.464573 0.650664 1.000000
0.650655 0.637897 1.000000
0.836736 0.625129 1.000000
1.000000 0.612362 1.000000
1.000000 0.599595 1.000000
0.000000 0.871868 1.000000
0.000000 0.859101 1.000000
0.066844 0.846334 1.000000
0.252926 0.833566 1.000000
0.439007 0.820799 1.000000
0.625088 0.808032 1.000000
0.811170 0.795264 1.000000
0.997251 0.782497 1.000000
1.000000 0.769730 1.000000
0.000000 1.000000 1.000000
0.000000 1.000000 1.000000
0.041278 1.000000 1.000000
0.227359 1.000000 1.000000
0.413441 0.990934 1.000000
0.599522 0.978167 1.000000
0.785603 0.965400 1.000000
0.971685 0.952632 1.000000
1.000000 0.939865 1.000000
0.000000 1.000000 1.000000
0.000000 1.000000 1.000000
0.015712 1.000000 1.000000
0.201793 1.000000 1.000000
0.387875 1.000000 1.000000
0.573956 1.000000 1.000000
0.760037 1.000000 1.000000
0.946119 1.000000 1.000000
1.000000 1.000000 1.000000
