assets/luts/06_punchy.cube
TITLE "Punchy"
LUT_3D_SIZE 5
DOMAIN_MIN 0.0 0.0 0.0
DOMAIN_MAX 1.0 1.0 1.0
0.000000 0.000000 0.000000
0.259963 0.000000 0.000000
0.632125 0.000000 0.000000
1.000000 0.000000 0.000000
1.000000 0.000000 0.000000
0.000000 0.230270 0.000000
0.208830 0.204736 0.000000
0.580993 0.179201 0.000000
0.953156 0.153666 0.000000
1.000000 0.128132 0.000000
0.000000 0.570540 0.000000
0.157698 0.545006 0.000000
0.529861 0.519471 0.000000
0.902023 0.493937 0.000000
1.000000 0.468402 0.000000
0.000000 0.910811 0.000000
0.106566 0.885276 0.000000
0.478728 0.859741 0.000000
0.850891 0.834207 0.000000
1.000000 0.808672 0.000000
0.000000 1.000000 0.000000
0.055433 1.000000 0.000000
0.427596 1.000000 0.000000
0.799759 1.000000 0.000000
1.000000 1.000000 0.000000
0.000000 0.000000 0.267958
0.250032 0.000000 0.242679
0.622195 0.000000 0.217399
0.994358 0.000000 0.192120
1.000000 0.000000 0.166841
0.000000 0.220535 0.218329
0.198900 0.195000 0.193050
0.571063 0.169465 0.167771
0.943225 0.143931 0.142491
1.000000 0.118396 0.117212
0.000000 0.560805 0.168701
0.147768 0.535270 0.143421
0.519930 0.509736 0.118142
0.892093 0.484201 0.092863
1.000000 0.458666 0.067584
0.000000 0.901075 0.119072
0.096635 0.875540 0.093793
0.468798 0.850006 0.068514
0.840961 0.824471 0.043234
1.000000 0.798937 0.017955
0.000000 1.000000 0.069444
0.045503 1.000000 0.044164
0.417666 1.000000 0.018885
0.789828 1.000000 0.000000
1.000000 1.000000 0.000000
0.000000 0.000000 0.644816
0.240102 0.000000 0.619536
0.612265 0.000000 0.594257
0.984427 0.000000 0.568978
1.000000 0.000000 0.543698
0.000000 0.210799 0.595187
0.188970 0.185264 0.569908
0.561132 0.159730 0.544629
0.933295 0.134195 0.519349
1.000000 0.108661 0.494070
0.000000 0.551069 0.545559
0.137837 0.525535 0.520279
0.510000 0.500000 0.495000
0.882163 0.474465 0.469721
1.000000 0.448931 0.444441
0.000000 0.891339 0.495930
0.086705 0.865805 0.470651
0.458868 0.840270 0.445371
0.831030 0.814736 0.420092
1.000000 0.789201 0.394813
0.000000 1.000000 0.446302
0.035573 1.000000 0.421022
0.407735 1.000000 0.395743
0.779898 1.000000 0.370464
1.000000 1.000000 0.345184
0.000000 0.000000 1.000000
0.230172 0.000000 0.996394
0.602334 0.000000 0.971115
0.974497 0.000000 0.945836
1.000000 0.000000 0.920556
0.000000 0.201063 0.972045
0.179039 0.175529 0.946766
0.551202 0.149994 0.921486
0.923365 0.124460 0.896207
1.000000 0.098925 0.870928
0.000000 0.541334 0.922416
0.127907 0.515799 0.897137
0.500070 0.490264 0.871858
0.872232 0.464730 0.846579
1.000000 0.439195 0.821299
0.000000 0.881604 0.872788
0.076775 0.856069 0.847509
0.448937 0.830535 0.822229
0.821100 0.805000 0.796950
1.000000 0.779465 0.771671
0.000000 1.000000 0.823159
0.025642 1.000000 0.797880
0.397805 1.000000 0.772601
0.769968 1.000000 0.747321
1.000000 1.000000 0.722042
0.000000 0.000000 1.000000
0.220241 0.000000 1.000000
0.592404 0.000000 1.000000
0.964567 0.000000 1.000000
1.000000 0.000000 1.000000
0.000000 0.191328 1.000000
0.169109 0.165793 1.000000
0.541272 0.140259 1.000000
0.913434 0.114724 1.000000
1.000000 0.089189 1.000000
0.000000 0.531598 1.000000
0.117977 0.506063 1.000000
0.490139 0.480529 1.000000
0.862302 0.454994 1.000000
1.000000 0.429460 1.000000
0.000000 0.871868 1.000000
0.066844 0.846334 1.000000
0.439007 0.820799 1.000000
0.811170 0.795264 1.000000
1.000000 0.769730 1.000000
0.000000 1.000000 1.000000
0.015712 1.000000 1.000000
0.387875 1.000000 1.000000
0.760037 1.000000 1.000000
1.000000 1.000000 1.000000
