assets/luts/06_punchy.cube
TITLE "Punchy"
LUT_3D_SIZE 17
DOMAIN_MIN 0.0 0.0 0.0
DOMAIN_MAX 1.0 1.0 1.0
0.000000 0.000000 0.000000
0.000000 0.000000 0.000000
0.073881 0.000000 0.000000
0.166922 0.000000 0.000000
0.259963 0.000000 0.000000
0.353003 0.000000 0.000000
0.446044 0.000000 0.000000
0.539085 0.000000 0.000000
0.632125 0.000000 0.000000
0.725166 0.000000 0.000000
0.818207 0.000000 0.000000
0.911247 0.000000 0.000000
1.000000 0.000000 0.000000
1.000000 0.000000 0.000000
1.000000 0.000000 0.000000
1.000000 0.000000 0.000000
1.000000 0.000000 0.000000
0.000000 0.000000 0.000000
0.000000 0.000000 0.000000
0.061098 0.000000 0.000000
0.154139 0.000000 0.000000
0.247180 0.000000 0.000000
0.340220 0.000000 0.000000
0.433261 0.000000 0.000000
0.526302 0.000000 0.000000
0.619342 0.000000 0.000000
0.712383 0.000000 0.000000
0.805424 0.000000 0.000000
0.898464 0.000000 0.000000
0.991505 0.000000 0.000000
1.000000 0.000000 0.000000
1.000000 0.000000 0.000000
1.000000 0.000000 0.000000
1.000000 0.000000 0.000000
0.000000 0.060135 0.000000
0.000000 0.053751 0.000000
0.048315 0.047368 0.000000
0.141356 0.040984 0.000000
0.234397 0.034600 0.000000
0.327437 0.028217 0.000000
0.420478 0.021833 0.000000
0.513519 0.015450 0.000000
0.606559 0.009066 0.000000
0.699600 0.002682 0.000000
0.792641 0.000000 0.000000
0.885681 0.000000 0.000000
0.978722 0.000000 0.000000
1.000000 0.000000 0.000000
1.000000 0.000000 0.000000
1.000000 0.000000 0.000000
1.000000 0.000000 0.000000
0.000000 0.145203 0.000000
0.000000 0.138819 0.000000
0.035532 0.132435 0.000000
0.128573 0.126052 0.000000
0.221613 0.119668 0.000000
0.314654 0.113284 0.000000
0.407695 0.106901 0.000000
0.500735 0.100517 0.000000
0.593776 0.094133 0.000000
0.686817 0.087750 0.000000
0.779857 0.081366 0.000000
0.872898 0.074983 0.000000
0.965939 0.068599 0.000000
1.000000 0.062215 0.000000
1.000000 0.055832 0.000000
1.000000 0.049448 0.000000
1.000000 0.043064 0.000000
0.000000 0.230270 0.000000
0.000000 0.223887 0.000000
0.022749 0.217503 0.000000
0.115790 0.211119 0.000000
0.208830 0.204736 0.000000
0.301871 0.198352 0.000000
0.394912 0.191968 0.000000
0.487952 0.185585 0.000000
0.580993 0.179201 0.000000
0.674034 0.172817 0.000000
0.767074 0.166434 0.000000
0.860115 0.160050 0.000000
0.953156 0.153666 0.000000
1.000000 0.147283 0.000000
1.000000 0.140899 0.000000
1.000000 0.134515 0.000000
1.000000 0.128132 0.000000
0.000000 0.315338 0.000000
0.000000 0.308954 0.000000
0.009966 0.302570 0.000000
0.103007 0.296187 0.000000
0.196047 0.289803 0.000000
0.289088 0.283419 0.000000
0.382129 0.277036 0.000000
0.475169 0.270652 0.000000
0.568210 0.264269 0.000000
0.661251 0.257885 0.000000
0.754291 0.251501 0.000000
0.847332 0.245118 0.000000
0.940373 0.238734 0.000000
1.000000 0.232350 0.000000
1.000000 0.225967 0.000000
1.000000 0.219583 0.000000
1.000000 0.213199 0.000000
0.000000 0.400405 0.000000
0.000000 0.394022 0.000000
0.000000 0.387638 0.000000
0.090223 0.381254 0.000000
0.183264 0.374871 0.000000
0.276305 0.368487 0.000000
0.369345 0.362103 0.000000
0.462386 0.355720 0.000000
0.555427 0.349336 0.000000
0.648467 0.342952 0.000000
0.741508 0.336569 0.000000
0.834549 0.330185 0.000000
0.927590 0.323802 0.000000
1.000000 0.317418 0.000000
1.000000 0.311034 0.000000
1.000000 0.304651 0.000000
1.000000 0.298267 0.000000
0.000000 0.485473 0.000000
0.000000 0.479089 0.000000
0.000000 0.472706 0.000000
0.077440 0.466322 0.000000
0.170481 0.459938 0.000000
0.263522 0.453555 0.000000
0.356562 0.447171 0.000000
0.449603 0.440787 0.000000
0.542644 0.434404 0.000000
0.635684 0.428020 0.000000
0.728725 0.421636 0.000000
0.821766 0.415253 0.000000
0.914806 0.408869 0.000000
1.000000 0.402485 0.000000
1.000000 0.396102 0.000000
1.000000 0.389718 0.000000
1.000000 0.383334 0.000000
0.000000 0.570540 0.000000
0.000000 0.564157 0.000000
0.000000 0.557773 0.000000
0.064657 0.551389 0.000000
0.157698 0.545006 0.000000
0.250739 0.538622 0.000000
0.343779 0.532239 0.000000
0.436820 0.525855 0.000000
0.529861 0.519471 0.000000
0.622901 0.513088 0.000000
0.715942 0.506704 0.000000
0.808983 0.500320 0.000000
0.902023 0.493937 0.000000
0.995064 0.487553 0.000000
1.000000 0.481169 0.000000
1.000000 0.474786 0.000000
1.000000 0.468402 0.000000
0.000000 0.655608 0.000000
0.000000 0.649224 0.000000
0.000000 0.642841 0.000000
0.051874 0.636457 0.000000
0.144915 0.630073 0.000000
0.237955 0.623690 0.000000
0.330996 0.617306 0.000000
0.424037 0.610922 0.000000
0.517078 0.604539 0.000000
0.610118 0.598155 0.000000
0.703159 0.591771 0.000000
0.796200 0.585388 0.000000
0.889240 0.579004 0.000000
0.982281 0.572621 0.000000
1.000000 0.566237 0.000000
1.000000 0.559853 0.000000
1.000000 0.553470 0.000000
0.000000 0.740676 0.000000
0.000000 0.734292 0.000000
0.000000 0.727908 0.000000
0.039091 0.721525 0.000000
0.132132 0.715141 0.000000
0.225172 0.708757 0.000000
0.318213 0.702374 0.000000
0.411254 0.695990 0.000000
0.504294 0.689606 0.000000
0.597335 0.683223 0.000000
0.690376 0.676839 0.000000
0.783416 0.670455 0.000000
0.876457 0.664072 0.000000
0.969498 0.657688 0.000000
1.000000 0.651304 0.000000
1.000000 0.644921 0.000000
1.000000 0.638537 0.000000
0.000000 0.825743 0.000000
0.000000 0.819359 0.000000
0.000000 0.812976 0.000000
0.026308 0.806592 0.000000
0.119349 0.800208 0.000000
0.212389 0.793825 0.000000
0.305430 0.787441 0.000000
0.398471 0.781057 0.000000
0.491511 0.774674 0.000000
0.584552 0.768290 0.000000
0.677593 0.761907 0.000000
0.770633 0.755523 0.000000
0.863674 0.749139 0.000000
0.956715 0.742756 0.000000
1.000000 0.736372 0.000000
1.000000 0.729988 0.000000
1.000000 0.723605 0.000000
0.000000 0.910811 0.000000
0.000000 0.904427 0.000000
0.000000 0.898043 0.000000
0.013525 0.891660 0.000000
0.106566 0.885276 0.000000
0.199606 0.878892 0.000000
0.292647 0.872509 0.000000
0.385688 0.866125 0.000000
0.478728 0.859741 0.000000
0.571769 0.853358 0.000000
0.664810 0.846974 0.000000
0.757850 0.840590 0.000000
0.850891 0.834207 0.000000
0.943932 0.827823 0.000000
1.000000 0.821439 0.000000
1.000000 0.815056 0.000000
1.000000 0.808672 0.000000
0.000000 0.995878 0.000000
0.000000 0.989494 0.000000
0.000000 0.983111 0.000000
0.000742 0.976727 0.000000
0.093782 0.970344 0.000000
0.186823 0.963960 0.000000
0.279864 0.957576 0.000000
0.372904 0.951193 0.000000
0.465945 0.944809 0.000000
0.558986 0.938425 0.000000
0.652026 0.932042 0.000000
0.745067 0.925658 0.000000
0.838108 0.919274 0.000000
0.931149 0.912891 0.000000
1.000000 0.906507 0.000000
1.000000 0.900123 0.000000
1.000000 0.893740 0.000000
0.000000 1.000000 0.000000
0.000000 1.000000 0.000000
0.000000 1.000000 0.000000
0.000000 1.000000 0.000000
0.080999 1.000000 0.000000
0.174040 1.000000 0.000000
0.267081 1.000000 0.000000
0.360121 1.000000 0.000000
0.453162 1.000000 0.000000
0.546203 1.000000 0.000000
0.639243 1.000000 0.000000
0.732284 1.000000 0.000000
0.825325 1.000000 0.000000
0.918365 0.997958 0.000000
1.000000 0.991575 0.000000
1.000000 0.985191 0.000000
1.000000 0.978807 0.000000
0.000000 1.000000 0.000000
0.000000 1.000000 0.000000
0.000000 1.000000 0.000000
0.000000 1.000000 0.000000
0.068216 1.000000 0.000000
0.161257 1.000000 0.000000
0.254298 1.000000 0.000000
0.347338 1.000000 0.000000
0.440379 1.000000 0.000000
0.533420 1.000000 0.000000
0.626460 1.000000 0.000000
0.719501 1.000000 0.000000
0.812542 1.000000 0.000000
0.905582 1.000000 0.000000
0.998623 1.000000 0.000000
1.000000 1.000000 0.000000
1.000000 1.000000 0.000000
0.000000 1.000000 0.000000
0.000000 1.000000 0.000000
0.000000 1.000000 0.000000
0.000000 1.000000 0.000000
0.055433 1.000000 0.000000
0.148474 1.000000 0.000000
0.241514 1.000000 0.000000
0.334555 1.000000 0.000000
0.427596 1.000000 0.000000
0.520637 1.000000 0.000000
0.613677 1.000000 0.000000
0.706718 1.000000 0.000000
0.799759 1.000000 0.000000
0.892799 1.000000 0.000000
0.985840 1.000000 0.000000
1.000000 1.000000 0.000000
1.000000 1.000000 0.000000
0.000000 0.000000 0.000000
0.000000 0.000000 0.000000
0.071399 0.000000 0.000000
0.164439 0.000000 0.000000
0.257480 0.000000 0.000000
0.350521 0.000000 0.000000
0.443561 0.000000 0.000000
0.536602 0.000000 0.000000
0.629643 0.000000 0.000000
0.722684 0.000000 0.000000
0.815724 0.000000 0.000000
0.908765 0.000000 0.000000
1.000000 0.000000 0.000000
1.000000 0.000000 0.000000
1.000000 0.000000 0.000000
1.000000 0.000000 0.000000
1.000000 0.000000 0.000000
0.000000 0.000000 0.000000
0.000000 0.000000 0.000000
0.058616 0.000000 0.000000
0.151656 0.000000 0.000000
0.244697 0.000000 0.000000
0.337738 0.000000 0.000000
0.430778 0.000000 0.000000
0.523819 0.000000 0.000000
0.616860 0.000000 0.000000
0.709900 0.000000 0.000000
0.802941 0.000000 0.000000
0.895982 0.000000 0.000000
0.989022 0.000000 0.000000
1.000000 0.000000 0.000000
1.000000 0.000000 0.000000
1.000000 0.000000 0.000000
1.000000 0.000000 0.000000
0.000000 0.057701 0.000000
0.000000 0.051318 0.000000
0.045833 0.044934 0.000000
0.138873 0.038550 0.000000
0.231914 0.032167 0.000000
0.324955 0.025783 0.000000
0.417995 0.019399 0.000000
0.511036 0.013016 0.000000
0.604077 0.006632 0.000000
0.697117 0.000248 0.000000
0.790158 0.000000 0.000000
0.883199 0.000000 0.000000
0.976239 0.000000 0.000000
1.000000 0.000000 0.000000
1.000000 0.000000 0.000000
1.000000 0.000000 0.000000
1.000000 0.000000 0.000000
0.000000 0.142769 0.000000
0.000000 0.136385 0.000000
0.033049 0.130001 0.000000
0.126090 0.123618 0.000000
0.219131 0.117234 0.000000
0.312172 0.110851 0.000000
0.405212 0.104467 0.000000
0.498253 0.098083 0.000000
0.591294 0.091700 0.000000
0.684334 0.085316 0.000000
0.777375 0.078932 0.000000
0.870416 0.072549 0.000000
0.963456 0.066165 0.000000
1.000000 0.059781 0.000000
1.000000 0.053398 0.000000
1.000000 0.047014 0.000000
1.000000 0.040630 0.000000
0.000000 0.227836 0.000000
0.000000 0.221453 0.000000
0.020266 0.215069 0.000000
0.113307 0.208685 0.000000
0.206348 0.202302 0.000000
0.299388 0.195918 0.000000
0.392429 0.189534 0.000000
0.485470 0.183151 0.000000
0.578510 0.176767 0.000000
0.671551 0.170383 0.000000
0.764592 0.164000 0.000000
0.857632 0.157616 0.000000
0.950673 0.151233 0.000000
1.000000 0.144849 0.000000
1.000000 0.138465 0.000000
1.000000 0.132082 0.000000
1.000000 0.125698 0.000000
0.000000 0.312904 0.000000
0.000000 0.306520 0.000000
0.007483 0.300137 0.000000
0.100524 0.293753 0.000000
0.193565 0.287369 0.000000
0.286605 0.280986 0.000000
0.379646 0.274602 0.000000
0.472687 0.268218 0.000000
0.565727 0.261835 0.000000
0.658768 0.255451 0.000000
0.751809 0.249067 0.000000
0.844849 0.242684 0.000000
0.937890 0.236300 0.000000
1.000000 0.229916 0.000000
1.000000 0.223533 0.000000
1.000000 0.217149 0.000000
1.000000 0.210765 0.000000
0.000000 0.397971 0.000000
0.000000 0.391588 0.000000
0.000000 0.385204 0.000000
0.087741 0.378820 0.000000
0.180782 0.372437 0.000000
0.273822 0.366053 0.000000
0.366863 0.359670 0.000000
0.459904 0.353286 0.000000
0.552944 0.346902 0.000000
0.645985 0.340519 0.000000
0.739026 0.334135 0.000000
0.832066 0.327751 0.000000
0.925107 0.321368 0.000000
1.000000 0.314984 0.000000
1.000000 0.308600 0.000000
1.000000 0.302217 0.000000
1.000000 0.295833 0.000000
0.000000 0.483039 0.000000
0.000000 0.476655 0.000000
0.000000 0.470272 0.000000
0.074958 0.463888 0.000000
0.167998 0.457504 0.000000
0.261039 0.451121 0.000000
0.354080 0.444737 0.000000
0.447120 0.438353 0.000000
0.540161 0.431970 0.000000
0.633202 0.425586 0.000000
0.726242 0.419202 0.000000
0.819283 0.412819 0.000000
0.912324 0.406435 0.000000
1.000000 0.400052 0.000000
1.000000 0.393668 0.000000
1.000000 0.387284 0.000000
1.000000 0.380901 0.000000
0.000000 0.568107 0.000000
0.000000 0.561723 0.000000
0.000000 0.555339 0.000000
0.062175 0.548956 0.000000
0.155215 0.542572 0.000000
0.248256 0.536188 0.000000
0.341297 0.529805 0.000000
0.434337 0.523421 0.000000
0.527378 0.517037 0.000000
0.620419 0.510654 0.000000
0.713459 0.504270 0.000000
0.806500 0.497886 0.000000
0.899541 0.491503 0.000000
0.992581 0.485119 0.000000
1.000000 0.478735 0.000000
1.000000 0.472352 0.000000
1.000000 0.465968 0.000000
0.000000 0.653174 0.000000
0.000000 0.646790 0.000000
0.000000 0.640407 0.000000
0.049392 0.634023 0.000000
0.142432 0.627639 0.000000
0.235473 0.621256 0.000000
0.328514 0.614872 0.000000
0.421554 0.608489 0.000000
0.514595 0.602105 0.000000
0.607636 0.595721 0.000000
0.700676 0.589338 0.000000
0.793717 0.582954 0.000000
0.886758 0.576570 0.000000
0.979798 0.570187 0.000000
1.000000 0.563803 0.000000
1.000000 0.557419 0.000000
1.000000 0.551036 0.000000
0.000000 0.738242 0.000000
0.000000 0.731858 0.000000
0.000000 0.725474 0.000000
0.036608 0.719091 0.000000
0.129649 0.712707 0.000000
0.222690 0.706323 0.000000
0.315730 0.699940 0.000000
0.408771 0.693556 0.000000
0.501812 0.687172 0.000000
0.594853 0.680789 0.000000
0.687893 0.674405 0.000000
0.780934 0.668021 0.000000
0.873975 0.661638 0.000000
0.967015 0.655254 0.000000
1.000000 0.648871 0.000000
1.000000 0.642487 0.000000
1.000000 0.636103 0.000000
0.000000 0.823309 0.000000
0.000000 0.816925 0.000000
0.000000 0.810542 0.000000
0.023825 0.804158 0.000000
0.116866 0.797775 0.000000
0.209907 0.791391 0.000000
0.302947 0.785007 0.000000
0.395988 0.778624 0.000000
0.489029 0.772240 0.000000
0.582069 0.765856 0.000000
0.675110 0.759473 0.000000
0.768151 0.753089 0.000000
0.861191 0.746705 0.000000
0.954232 0.740322 0.000000
1.000000 0.733938 0.000000
1.000000 0.727554 0.000000
1.000000 0.721171 0.000000
0.000000 0.908377 0.000000
0.000000 0.901993 0.000000
0.000000 0.895609 0.000000
0.011042 0.889226 0.000000
0.104083 0.882842 0.000000
0.197124 0.876458 0.000000
0.290164 0.870075 0.000000
0.383205 0.863691 0.000000
0.476246 0.857307 0.000000
0.569286 0.850924 0.000000
0.662327 0.844540 0.000000
0.755368 0.838157 0.000000
0.848408 0.831773 0.000000
0.941449 0.825389 0.000000
1.000000 0.819006 0.000000
1.000000 0.812622 0.000000
1.000000 0.806238 0.000000
0.000000 0.993444 0.000000
0.000000 0.987061 0.000000
0.000000 0.980677 0.000000
0.000000 0.974293 0.000000
0.091300 0.967910 0.000000
0.184341 0.961526 0.000000
0.277381 0.955142 0.000000
0.370422 0.948759 0.000000
0.463463 0.942375 0.000000
0.556503 0.935991 0.000000
0.649544 0.929608 0.000000
0.742585 0.923224 0.000000
0.835625 0.916840 0.000000
0.928666 0.910457 0.000000
1.000000 0.904073 0.000000
1.000000 0.897690 0.000000
1.000000 0.891306 0.000000
0.000000 1.000000 0.000000
0.000000 1.000000 0.000000
0.000000 1.000000 0.000000
0.000000 1.000000 0.000000
0.078517 1.000000 0.000000
0.171557 1.000000 0.000000
0.264598 1.000000 0.000000
0.357639 1.000000 0.000000
0.450679 1.000000 0.000000
0.543720 1.000000 0.000000
0.636761 1.000000 0.000000
0.729801 1.000000 0.000000
0.822842 1.000000 0.000000
0.915883 0.995524 0.000000
1.000000 0.989141 0.000000
1.000000 0.982757 0.000000
1.000000 0.976373 0.000000
0.000000 1.000000 0.000000
0.000000 1.000000 0.000000
0.000000 1.000000 0.000000
0.000000 1.000000 0.000000
0.065734 1.000000 0.000000
0.158774 1.000000 0.000000
0.251815 1.000000 0.000000
0.344856 1.000000 0.000000
0.437896 1.000000 0.000000
0.530937 1.000000 0.000000
0.623978 1.000000 0.000000
0.717018 1.000000 0.000000
0.810059 1.000000 0.000000
0.903100 1.000000 0.000000
0.996140 1.000000 0.000000
1.000000 1.000000 0.000000
1.000000 1.000000 0.000000
0.000000 1.000000 0.000000
0.000000 1.000000 0.000000
0.000000 1.000000 0.000000
0.000000 1.000000 0.000000
0.052951 1.000000 0.000000
0.145991 1.000000 0.000000
0.239032 1.000000 0.000000
0.332073 1.000000 0.000000
0.425113 1.000000 0.000000
0.518154 1.000000 0.000000
0.611195 1.000000 0.000000
0.704235 1.000000 0.000000
0.797276 1.000000 0.000000
0.890317 1.000000 0.000000
0.983357 1.000000 0.000000
1.000000 1.000000 0.000000
1.000000 1.000000 0.000000
0.000000 0.000000 0.079529
0.000000 0.000000 0.073209
0.068916 0.000000 0.066889
0.161957 0.000000 0.060569
0.254998 0.000000 0.054250
0.348038 0.000000 0.047930
0.441079 0.000000 0.041610
0.534120 0.000000 0.035290
0.627160 0.000000 0.028970
0.720201 0.000000 0.022651
0.813242 0.000000 0.016331
0.906282 0.000000 0.010011
0.999323 0.000000 0.003691
1.000000 0.000000 0.000000
1.000000 0.000000 0.000000
1.000000 0.000000 0.000000
1.000000 0.000000 0.000000
0.000000 0.000000 0.067122
0.000000 0.000000 0.060802
0.056133 0.000000 0.054482
0.149174 0.000000 0.048162
0.242214 0.000000 0.041842
0.335255 0.000000 0.035523
0.428296 0.000000 0.029203
0.521336 0.000000 0.022883
0.614377 0.000000 0.016563
0.707418 0.000000 0.010243
0.800459 0.000000 0.003924
0.893499 0.000000 0.000000
0.986540 0.000000 0.000000
1.000000 0.000000 0.000000
1.000000 0.000000 0.000000
1.000000 0.000000 0.000000
1.000000 0.000000 0.000000
0.000000 0.055267 0.054715
0.000000 0.048884 0.048395
0.043350 0.042500 0.042075
0.136391 0.036116 0.035755
0.229431 0.029733 0.029435
0.322472 0.023349 0.023116
0.415513 0.016965 0.016796
0.508553 0.010582 0.010476
0.601594 0.004198 0.004156
0.694635 0.000000 0.000000
0.787675 0.000000 0.000000
0.880716 0.000000 0.000000
0.973757 0.000000 0.000000
1.000000 0.000000 0.000000
1.000000 0.000000 0.000000
1.000000 0.000000 0.000000
1.000000 0.000000 0.000000
0.000000 0.140335 0.042308
0.000000 0.133951 0.035988
0.030567 0.127568 0.029668
0.123608 0.121184 0.023348
0.216648 0.114800 0.017028
0.309689 0.108417 0.010708
0.402730 0.102033 0.004389
0.495770 0.095649 0.000000
0.588811 0.089266 0.000000
0.681852 0.082882 0.000000
0.774892 0.076498 0.000000
0.867933 0.070115 0.000000
0.960974 0.063731 0.000000
1.000000 0.057347 0.000000
1.000000 0.050964 0.000000
1.000000 0.044580 0.000000
1.000000 0.038196 0.000000
0.000000 0.225402 0.029900
0.000000 0.219019 0.023581
0.017784 0.212635 0.017261
0.110824 0.206251 0.010941
0.203865 0.199868 0.004621
0.296906 0.193484 0.000000
0.389947 0.187101 0.000000
0.482987 0.180717 0.000000
0.576028 0.174333 0.000000
0.669069 0.167950 0.000000
0.762109 0.161566 0.000000
0.855150 0.155182 0.000000
0.948191 0.148799 0.000000
1.000000 0.142415 0.000000
1.000000 0.136031 0.000000
1.000000 0.129648 0.000000
1.000000 0.123264 0.000000
0.000000 0.310470 0.017493
0.000000 0.304086 0.011173
0.005001 0.297703 0.004854
0.098041 0.291319 0.000000
0.191082 0.284935 0.000000
0.284123 0.278552 0.000000
0.377163 0.272168 0.000000
0.470204 0.265784 0.000000
0.563245 0.259401 0.000000
0.656285 0.253017 0.000000
0.749326 0.246633 0.000000
0.842367 0.240250 0.000000
0.935407 0.233866 0.000000
1.000000 0.227483 0.000000
1.000000 0.221099 0.000000
1.000000 0.214715 0.000000
1.000000 0.208332 0.000000
0.000000 0.395538 0.005086
0.000000 0.389154 0.000000
0.000000 0.382770 0.000000
0.085258 0.376387 0.000000
0.178299 0.370003 0.000000
0.271340 0.363619 0.000000
0.364380 0.357236 0.000000
0.457421 0.350852 0.000000
0.550462 0.344468 0.000000
0.643502 0.338085 0.000000
0.736543 0.331701 0.000000
0.829584 0.325317 0.000000
0.922624 0.318934 0.000000
1.000000 0.312550 0.000000
1.000000 0.306166 0.000000
1.000000 0.299783 0.000000
1.000000 0.293399 0.000000
0.000000 0.480605 0.000000
0.000000 0.474221 0.000000
0.000000 0.467838 0.000000
0.072475 0.461454 0.000000
0.165516 0.455070 0.000000
0.258557 0.448687 0.000000
0.351597 0.442303 0.000000
0.444638 0.435920 0.000000
0.537679 0.429536 0.000000
0.630719 0.423152 0.000000
0.723760 0.416769 0.000000
0.816801 0.410385 0.000000
0.909841 0.404001 0.000000
1.000000 0.397618 0.000000
1.000000 0.391234 0.000000
1.000000 0.384850 0.000000
1.000000 0.378467 0.000000
0.000000 0.565673 0.000000
0.000000 0.559289 0.000000
0.000000 0.552905 0.000000
0.059692 0.546522 0.000000
0.152733 0.540138 0.000000
0.245773 0.533754 0.000000
0.338814 0.527371 0.000000
0.431855 0.520987 0.000000
0.524895 0.514603 0.000000
0.617936 0.508220 0.000000
0.710977 0.501836 0.000000
0.804017 0.495452 0.000000
0.897058 0.489069 0.000000
0.990099 0.482685 0.000000
1.000000 0.476302 0.000000
1.000000 0.469918 0.000000
1.000000 0.463534 0.000000
0.000000 0.650740 0.000000
0.000000 0.644356 0.000000
0.000000 0.637973 0.000000
0.046909 0.631589 0.000000
0.139950 0.625206 0.000000
0.232990 0.618822 0.000000
0.326031 0.612438 0.000000
0.419072 0.606055 0.000000
0.512112 0.599671 0.000000
0.605153 0.593287 0.000000
0.698194 0.586904 0.000000
0.791234 0.580520 0.000000
0.884275 0.574136 0.000000
0.977316 0.567753 0.000000
1.000000 0.561369 0.000000
1.000000 0.554985 0.000000
1.000000 0.548602 0.000000
0.000000 0.735808 0.000000
0.000000 0.729424 0.000000
0.000000 0.723040 0.000000
0.034126 0.716657 0.000000
0.127167 0.710273 0.000000
0.220207 0.703889 0.000000
0.313248 0.697506 0.000000
0.406289 0.691122 0.000000
0.499329 0.684738 0.000000
0.592370 0.678355 0.000000
0.685411 0.671971 0.000000
0.778451 0.665588 0.000000
0.871492 0.659204 0.000000
0.964533 0.652820 0.000000
1.000000 0.646437 0.000000
1.000000 0.640053 0.000000
1.000000 0.633669 0.000000
0.000000 0.820875 0.000000
0.000000 0.814492 0.000000
0.000000 0.808108 0.000000
0.021343 0.801724 0.000000
0.114383 0.795341 0.000000
0.207424 0.788957 0.000000
0.300465 0.782573 0.000000
0.393505 0.776190 0.000000
0.486546 0.769806 0.000000
0.579587 0.763422 0.000000
0.672628 0.757039 0.000000
0.765668 0.750655 0.000000
0.858709 0.744271 0.000000
0.951750 0.737888 0.000000
1.000000 0.731504 0.000000
1.000000 0.725121 0.000000
1.000000 0.718737 0.000000
0.000000 0.905943 0.000000
0.000000 0.899559 0.000000
0.000000 0.893175 0.000000
0.008560 0.886792 0.000000
0.101600 0.880408 0.000000
0.194641 0.874025 0.000000
0.287682 0.867641 0.000000
0.380722 0.861257 0.000000
0.473763 0.854874 0.000000
0.566804 0.848490 0.000000
0.659844 0.842106 0.000000
0.752885 0.835723 0.000000
0.845926 0.829339 0.000000
0.938966 0.822955 0.000000
1.000000 0.816572 0.000000
1.000000 0.810188 0.000000
1.000000 0.803804 0.000000
0.000000 0.991010 0.000000
0.000000 0.984627 0.000000
0.000000 0.978243 0.000000
0.000000 0.971859 0.000000
0.088817 0.965476 0.000000
0.181858 0.959092 0.000000
0.274899 0.952708 0.000000
0.367939 0.946325 0.000000
0.460980 0.939941 0.000000
0.554021 0.933557 0.000000
0.647061 0.927174 0.000000
0.740102 0.920790 0.000000
0.833143 0.914407 0.000000
0.926183 0.908023 0.000000
1.000000 0.901639 0.000000
1.000000 0.895256 0.000000
1.000000 0.888872 0.000000
0.000000 1.000000 0.000000
0.000000 1.000000 0.000000
0.000000 1.000000 0.000000
0.000000 1.000000 0.000000
0.076034 1.000000 0.000000
0.169075 1.000000 0.000000
0.262116 1.000000 0.000000
0.355156 1.000000 0.000000
0.448197 1.000000 0.000000
0.541238 1.000000 0.000000
0.634278 1.000000 0.000000
0.727319 1.000000 0.000000
0.820360 0.999474 0.000000
0.913400 0.993090 0.000000
1.000000 0.986707 0.000000
1.000000 0.980323 0.000000
1.000000 0.973940 0.000000
0.000000 1.000000 0.000000
0.000000 1.000000 0.000000
0.000000 1.000000 0.000000
0.000000 1.000000 0.000000
0.063251 1.000000 0.000000
0.156292 1.000000 0.000000
0.249332 1.000000 0.000000
0.342373 1.000000 0.000000
0.435414 1.000000 0.000000
0.528454 1.000000 0.000000
0.621495 1.000000 0.000000
0.714536 1.000000 0.000000
0.807576 1.000000 0.000000
0.900617 1.000000 0.000000
0.993658 1.000000 0.000000
1.000000 1.000000 0.000000
1.000000 1.000000 0.000000
0.000000 1.000000 0.000000
0.000000 1.000000 0.000000
0.000000 1.000000 0.000000
0.000000 1.000000 0.000000
0.050468 1.000000 0.000000
0.143509 1.000000 0.000000
0.236549 1.000000 0.000000
0.329590 1.000000 0.000000
0.422631 1.000000 0.000000
0.515671 1.000000 0.000000
0.608712 1.000000 0.000000
0.701753 1.000000 0.000000
0.794793 1.000000 0.000000
0.887834 1.000000 0.000000
0.980875 1.000000 0.000000
1.000000 1.000000 0.000000
1.000000 1.000000 0.000000
0.000000 0.000000 0.173743
0.000000 0.000000 0.167424
0.066434 0.000000 0.161104
0.159474 0.000000 0.154784
0.252515 0.000000 0.148464
0.345556 0.000000 0.142144
0.438596 0.000000 0.135824
0.531637 0.000000 0.129505
0.624678 0.000000 0.123185
0.717718 0.000000 0.116865
0.810759 0.000000 0.110545
0.903800 0.000000 0.104225
0.996840 0.000000 0.097906
1.000000 0.000000 0.091586
1.000000 0.000000 0.085266
1.000000 0.000000 0.078946
1.000000 0.000000 0.072626
0.000000 0.000000 0.161336
0.000000 0.000000 0.155016
