aicampro/assets/luts/03_soft_portrait.cube
TITLE "Soft Portrait"
LUT_3D_SIZE 5
DOMAIN_MIN 0.0 0.0 0.0
DOMAIN_MAX 1.0 1.0 1.0
0.075288 0.067750 0.064924
0.312291 0.067750 0.064924
0.543157 0.067750 0.064924
0.770928 0.067750 0.064924
0.996605 0.067750 0.064924
0.075288 0.291625 0.064924
0.312291 0.291625 0.064924
0.543157 0.291625 0.064924
0.770928 0.291625 0.064924
0.996605 0.291625 0.064924
0.075288 0.515500 0.064924
0.312291 0.515500 0.064924
0.543157 0.515500 0.064924
0.770928 0.515500 0.064924
0.996605 0.515500 0.064924
0.075288 0.739375 0.064924
0.312291 0.739375 0.064924
0.543157 0.739375 0.064924
0.770928 0.739375 0.064924
0.996605 0.739375 0.064924
0.075288 0.963250 0.064924
0.312291 0.963250 0.064924
0.543157 0.963250 0.064924
0.770928 0.963250 0.064924
0.996605 0.963250 0.064924
0.075288 0.067750 0.288631
0.312291 0.067750 0.288631
0.543157 0.067750 0.288631
0.770928 0.067750 0.288631
0.996605 0.067750 0.288631
0.075288 0.291625 0.288631
0.312291 0.291625 0.288631
0.543157 0.291625 0.288631
0.770928 0.291625 0.288631
0.996605 0.291625 0.288631
0.075288 0.515500 0.288631
0.312291 0.515500 0.288631
0.543157 0.515500 0.288631
0.770928 0.515500 0.288631
0.996605 0.515500 0.288631
0.075288 0.739375 0.288631
0.312291 0.739375 0.288631
0.543157 0.739375 0.288631
0.770928 0.739375 0.288631
0.996605 0.739375 0.288631
0.075288 0.963250 0.288631
0.312291 0.963250 0.288631
0.543157 0.963250 0.288631
0.770928 0.963250 0.288631
0.996605 0.963250 0.288631
0.075288 0.067750 0.516264
0.312291 0.067750 0.516264
0.543157 0.067750 0.516264
0.770928 0.067750 0.516264
0.996605 0.067750 0.516264
0.075288 0.291625 0.516264
0.312291 0.291625 0.516264
0.543157 0.291625 0.516264
0.770928 0.291625 0.516264
0.996605 0.291625 0.516264
0.075288 0.515500 0.516264
0.312291 0.515500 0.516264
0.543157 0.515500 0.516264
0.770928 0.515500 0.516264
0.996605 0.515500 0.516264
0.075288 0.739375 0.516264
0.312291 0.739375 0.516264
0.543157 0.739375 0.516264
0.770928 0.739375 0.516264
0.996605 0.739375 0.516264
0.075288 0.963250 0.516264
0.312291 0.963250 0.516264
0.543157 0.963250 0.516264
0.770928 0.963250 0.516264
0.996605 0.963250 0.516264
0.075288 0.067750 0.745951
0.312291 0.067750 0.745951
0.543157 0.067750 0.745951
0.770928 0.067750 0.745951
0.996605 0.067750 0.745951
0.075288 0.291625 0.745951
0.312291 0.291625 0.745951
0.543157 0.291625 0.745951
0.770928 0.291625 0.745951
0.996605 0.291625 0.745951
0.075288 0.515500 0.745951
0.312291 0.515500 0.745951
0.543157 0.515500 0.745951
0.770928 0.515500 0.745951
0.996605 0.515500 0.745951
0.075288 0.739375 0.745951
0.312291 0.739375 0.745951
0.543157 0.739375 0.745951
0.770928 0.739375 0.745951
0.996605 0.739375 0.745951
0.075288 0.963250 0.745951
0.312291 0.963250 0.745951
0.543157 0.963250 0.745951
0.770928 0.963250 0.745951
0.996605 0.963250 0.745951
0.075288 0.067750 0.977055
0.312291 0.067750 0.977055
0.543157 0.067750 0.977055
0.770928 0.067750 0.977055
0.996605 0.067750 0.977055
0.075288 0.291625 0.977055
0.312291 0.291625 0.977055
0.543157 0.291625 0.977055
0.770928 0.291625 0.977055
0.996605 0.291625 0.977055
0.075288 0.515500 0.977055
0.312291 0.515500 0.977055
0.543157 0.515500 0.977055
0.770928 0.515500 0.977055
0.996605 0.515500 0.977055
0.075288 0.739375 0.977055
0.312291 0.739375 0.977055
0.543157 0.739375 0.977055
0.770928 0.739375 0.977055
0.996605 0.739375 0.977055
0.075288 0.963250 0.977055
0.312291 0.963250 0.977055
0.543157 0.963250 0.977055
0.770928 0.963250 0.977055
0.996605 0.963250 0.977055
