aicampro/assets/luts/03_soft_portrait.cube
TITLE "Soft Portrait"
LUT_3D_SIZE 17
DOMAIN_MIN 0.0 0.0 0.0
DOMAIN_MAX 1.0 1.0 1.0
0.075288 0.067750 0.064924
0.135562 0.067750 0.064924
0.194989 0.067750 0.064924
0.253851 0.067750 0.064924
0.312291 0.067750 0.064924
0.370392 0.067750 0.064924
0.428211 0.067750 0.064924
0.485790 0.067750 0.064924
0.543157 0.067750 0.064924
0.600337 0.067750 0.064924
0.657349 0.067750 0.064924
0.714209 0.067750 0.064924
0.770928 0.067750 0.064924
0.827519 0.067750 0.064924
0.883990 0.067750 0.064924
0.940350 0.067750 0.064924
0.996605 0.067750 0.064924
0.075288 0.123719 0.064924
0.135562 0.123719 0.064924
0.194989 0.123719 0.064924
0.253851 0.123719 0.064924
0.312291 0.123719 0.064924
0.370392 0.123719 0.064924
0.428211 0.123719 0.064924
0.485790 0.123719 0.064924
0.543157 0.123719 0.064924
0.600337 0.123719 0.064924
0.657349 0.123719 0.064924
0.714209 0.123719 0.064924
0.770928 0.123719 0.064924
0.827519 0.123719 0.064924
0.883990 0.123719 0.064924
0.940350 0.123719 0.064924
0.996605 0.123719 0.064924
0.075288 0.179687 0.064924
0.135562 0.179687 0.064924
0.194989 0.179687 0.064924
0.253851 0.179687 0.064924
0.312291 0.179687 0.064924
0.370392 0.179687 0.064924
0.428211 0.179687 0.064924
0.485790 0.179687 0.064924
0.543157 0.179687 0.064924
0.600337 0.179687 0.064924
0.657349 0.179687 0.064924
0.714209 0.179687 0.064924
0.770928 0.179687 0.064924
0.827519 0.179687 0.064924
0.883990 0.179687 0.064924
0.940350 0.179687 0.064924
0.996605 0.179687 0.064924
0.075288 0.235656 0.064924
0.135562 0.235656 0.064924
0.194989 0.235656 0.064924
0.253851 0.235656 0.064924
0.312291 0.235656 0.064924
0.370392 0.235656 0.064924
0.428211 0.235656 0.064924
0.485790 0.235656 0.064924
0.543157 0.235656 0.064924
0.600337 0.235656 0.064924
0.657349 0.235656 0.064924
0.714209 0.235656 0.064924
0.770928 0.235656 0.064924
0.827519 0.235656 0.064924
0.883990 0.235656 0.064924
0.940350 0.235656 0.064924
0.996605 0.235656 0.064924
0.075288 0.291625 0.064924
0.135562 0.291625 0.064924
0.194989 0.291625 0.064924
0.253851 0.291625 0.064924
0.312291 0.291625 0.064924
0.370392 0.291625 0.064924
0.428211 0.291625 0.064924
0.485790 0.291625 0.064924
0.543157 0.291625 0.064924
0.600337 0.291625 0.064924
0.657349 0.291625 0.064924
0.714209 0.291625 0.064924
0.770928 0.291625 0.064924
0.827519 0.291625 0.064924
0.883990 0.291625 0.064924
0.940350 0.291625 0.064924
0.996605 0.291625 0.064924
0.075288 0.347594 0.064924
0.135562 0.347594 0.064924
0.194989 0.347594 0.064924
0.253851 0.347594 0.064924
0.312291 0.347594 0.064924
0.370392 0.347594 0.064924
0.428211 0.347594 0.064924
0.485790 0.347594 0.064924
0.543157 0.347594 0.064924
0.600337 0.347594 0.064924
0.657349 0.347594 0.064924
0.714209 0.347594 0.064924
0.770928 0.347594 0.064924
0.827519 0.347594 0.064924
0.883990 0.347594 0.064924
0.940350 0.347594 0.064924
0.996605 0.347594 0.064924
0.075288 0.403563 0.064924
0.135562 0.403563 0.064924
0.194989 0.403563 0.064924
0.253851 0.403563 0.064924
0.312291 0.403563 0.064924
0.370392 0.403563 0.064924
0.428211 0.403563 0.064924
0.485790 0.403563 0.064924
0.543157 0.403563 0.064924
0.600337 0.403563 0.064924
0.657349 0.403563 0.064924
0.714209 0.403563 0.064924
0.770928 0.403563 0.064924
0.827519 0.403563 0.064924
0.883990 0.403563 0.064924
0.940350 0.403563 0.064924
0.996605 0.403563 0.064924
0.075288 0.459531 0.064924
0.135562 0.459531 0.064924
0.194989 0.459531 0.064924
0.253851 0.459531 0.064924
0.312291 0.459531 0.064924
0.370392 0.459531 0.064924
0.428211 0.459531 0.064924
0.485790 0.459531 0.064924
0.543157 0.459531 0.064924
0.600337 0.459531 0.064924
0.657349 0.459531 0.064924
0.714209 0.459531 0.064924
0.770928 0.459531 0.064924
0.827519 0.459531 0.064924
0.883990 0.459531 0.064924
0.940350 0.459531 0.064924
0.996605 0.459531 0.064924
0.075288 0.515500 0.064924
0.135562 0.515500 0.064924
0.194989 0.515500 0.064924
0.253851 0.515500 0.064924
0.312291 0.515500 0.064924
0.370392 0.515500 0.064924
0.428211 0.515500 0.064924
0.485790 0.515500 0.064924
0.543157 0.515500 0.064924
0.600337 0.515500 0.064924
0.657349 0.515500 0.064924
0.714209 0.515500 0.064924
0.770928 0.515500 0.064924
0.827519 0.515500 0.064924
0.883990 0.515500 0.064924
0.940350 0.515500 0.064924
0.996605 0.515500 0.064924
0.075288 0.571469 0.064924
0.135562 0.571469 0.064924
0.194989 0.571469 0.064924
0.253851 0.571469 0.064924
0.312291 0.571469 0.064924
0.370392 0.571469 0.064924
0.428211 0.571469 0.064924
0.485790 0.571469 0.064924
0.543157 0.571469 0.064924
0.600337 0.571469 0.064924
0.657349 0.571469 0.064924
0.714209 0.571469 0.064924
0.770928 0.571469 0.064924
0.827519 0.571469 0.064924
0.883990 0.571469 0.064924
0.940350 0.571469 0.064924
0.996605 0.571469 0.064924
0.075288 0.627438 0.064924
0.135562 0.627438 0.064924
0.194989 0.627438 0.064924
0.253851 0.627438 0.064924
0.312291 0.627438 0.064924
0.370392 0.627438 0.064924
0.428211 0.627438 0.064924
0.485790 0.627438 0.064924
0.543157 0.627438 0.064924
0.600337 0.627438 0.064924
0.657349 0.627438 0.064924
0.714209 0.627438 0.064924
0.770928 0.627438 0.064924
0.827519 0.627438 0.064924
0.883990 0.627438 0.064924
0.940350 0.627438 0.064924
0.996605 0.627438 0.064924
0.075288 0.683406 0.064924
0.135562 0.683406 0.064924
0.194989 0.683406 0.064924
0.253851 0.683406 0.064924
0.312291 0.683406 0.064924
0.370392 0.683406 0.064924
0.428211 0.683406 0.064924
0.485790 0.683406 0.064924
0.543157 0.683406 0.064924
0.600337 0.683406 0.064924
0.657349 0.683406 0.064924
0.714209 0.683406 0.064924
0.770928 0.683406 0.064924
0.827519 0.683406 0.064924
0.883990 0.683406 0.064924
0.940350 0.683406 0.064924
0.996605 0.683406 0.064924
0.075288 0.739375 0.064924
0.135562 0.739375 0.064924
0.194989 0.739375 0.064924
0.253851 0.739375 0.064924
0.312291 0.739375 0.064924
0.370392 0.739375 0.064924
0.428211 0.739375 0.064924
0.485790 0.739375 0.064924
0.543157 0.739375 0.064924
0.600337 0.739375 0.064924
0.657349 0.739375 0.064924
0.714209 0.739375 0.064924
0.770928 0.739375 0.064924
0.827519 0.739375 0.064924
0.883990 0.739375 0.064924
0.940350 0.739375 0.064924
0.996605 0.739375 0.064924
0.075288 0.795344 0.064924
0.135562 0.795344 0.064924
0.194989 0.795344 0.064924
0.253851 0.795344 0.064924
0.312291 0.795344 0.064924
0.370392 0.795344 0.064924
0.428211 0.795344 0.064924
0.485790 0.795344 0.064924
0.543157 0.795344 0.064924
0.600337 0.795344 0.064924
0.657349 0.795344 0.064924
0.714209 0.795344 0.064924
0.770928 0.795344 0.064924
0.827519 0.795344 0.064924
0.883990 0.795344 0.064924
0.940350 0.795344 0.064924
0.996605 0.795344 0.064924
0.075288 0.851313 0.064924
0.135562 0.851313 0.064924
0.194989 0.851313 0.064924
0.253851 0.851313 0.064924
0.312291 0.851313 0.064924
0.370392 0.851313 0.064924
0.428211 0.851313 0.064924
0.485790 0.851313 0.064924
0.543157 0.851313 0.064924
0.600337 0.851313 0.064924
0.657349 0.851313 0.064924
0.714209 0.851313 0.064924
0.770928 0.851313 0.064924
0.827519 0.851313 0.064924
0.883990 0.851313 0.064924
0.940350 0.851313 0.064924
0.996605 0.851313 0.064924
0.075288 0.907281 0.064924
0.135562 0.907281 0.064924
0.194989 0.907281 0.064924
0.253851 0.907281 0.064924
0.312291 0.907281 0.064924
0.370392 0.907281 0.064924
0.428211 0.907281 0.064924
0.485790 0.907281 0.064924
0.543157 0.907281 0.064924
0.600337 0.907281 0.064924
0.657349 0.907281 0.064924
0.714209 0.907281 0.064924
0.770928 0.907281 0.064924
0.827519 0.907281 0.064924
0.883990 0.907281 0.064924
0.940350 0.907281 0.064924
0.996605 0.907281 0.064924
0.075288 0.963250 0.064924
0.135562 0.963250 0.064924
0.194989 0.963250 0.064924
0.253851 0.963250 0.064924
0.312291 0.963250 0.064924
0.370392 0.963250 0.064924
0.428211 0.963250 0.064924
0.485790 0.963250 0.064924
0.543157 0.963250 0.064924
0.600337 0.963250 0.064924
0.657349 0.963250 0.064924
0.714209 0.963250 0.064924
0.770928 0.963250 0.064924
0.827519 0.963250 0.064924
0.883990 0.963250 0.064924
0.940350 0.963250 0.064924
0.996605 0.963250 0.064924
0.075288 0.067750 0.120214
0.135562 0.067750 0.120214
0.194989 0.067750 0.120214
0.253851 0.067750 0.120214
0.312291 0.067750 0.120214
0.370392 0.067750 0.120214
0.428211 0.067750 0.120214
0.485790 0.067750 0.120214
0.543157 0.067750 0.120214
0.600337 0.067750 0.120214
0.657349 0.067750 0.120214
0.714209 0.067750 0.120214
0.770928 0.067750 0.120214
0.827519 0.067750 0.120214
0.883990 0.067750 0.120214
0.940350 0.067750 0.120214
0.996605 0.067750 0.120214
0.075288 0.123719 0.120214
0.135562 0.123719 0.120214
0.194989 0.123719 0.120214
0.253851 0.123719 0.120214
0.312291 0.123719 0.120214
0.370392 0.123719 0.120214
0.428211 0.123719 0.120214
0.485790 0.123719 0.120214
0.543157 0.123719 0.120214
0.600337 0.123719 0.120214
0.657349 0.123719 0.120214
0.714209 0.123719 0.120214
0.770928 0.123719 0.120214
0.827519 0.123719 0.120214
0.883990 0.123719 0.120214
0.940350 0.123719 0.120214
0.996605 0.123719 0.120214
0.075288 0.179687 0.120214
0.135562 0.179687 0.120214
0.194989 0.179687 0.120214
0.253851 0.179687 0.120214
0.312291 0.179687 0.120214
0.370392 0.179687 0.120214
0.428211 0.179687 0.120214
0.485790 0.179687 0.120214
0.543157 0.179687 0.120214
0.600337 0.179687 0.120214
0.657349 0.179687 0.120214
0.714209 0.179687 0.120214
0.770928 0.179687 0.120214
0.827519 0.179687 0.120214
0.883990 0.179687 0.120214
0.940350 0.179687 0.120214
0.996605 0.179687 0.120214
0.075288 0.235656 0.120214
0.135562 0.235656 0.120214
0.194989 0.235656 0.120214
0.253851 0.235656 0.120214
0.312291 0.235656 0.120214
0.370392 0.235656 0.120214
0.428211 0.235656 0.120214
0.485790 0.235656 0.120214
0.543157 0.235656 0.120214
0.600337 0.235656 0.120214
0.657349 0.235656 0.120214
0.714209 0.235656 0.120214
0.770928 0.235656 0.120214
0.827519 0.235656 0.120214
0.883990 0.235656 0.120214
0.940350 0.235656 0.120214
0.996605 0.235656 0.120214
0.075288 0.291625 0.120214
0.135562 0.291625 0.120214
0.194989 0.291625 0.120214
0.253851 0.291625 0.120214
0.312291 0.291625 0.120214
0.370392 0.291625 0.120214
0.428211 0.291625 0.120214
0.485790 0.291625 0.120214
0.543157 0.291625 0.120214
0.600337 0.291625 0.120214
0.657349 0.291625 0.120214
0.714209 0.291625 0.120214
0.770928 0.291625 0.120214
0.827519 0.291625 0.120214
0.883990 0.291625 0.120214
0.940350 0.291625 0.120214
0.996605 0.291625 0.120214
0.075288 0.347594 0.120214
0.135562 0.347594 0.120214
0.194989 0.347594 0.120214
0.253851 0.347594 0.120214
0.312291 0.347594 0.120214
0.370392 0.347594 0.120214
0.428211 0.347594 0.120214
0.485790 0.347594 0.120214
0.543157 0.347594 0.120214
0.600337 0.347594 0.120214
0.657349 0.347594 0.120214
0.714209 0.347594 0.120214
0.770928 0.347594 0.120214
0.827519 0.347594 0.120214
0.883990 0.347594 0.120214
0.940350 0.347594 0.120214
0.996605 0.347594 0.120214
0.075288 0.403563 0.120214
0.135562 0.403563 0.120214
0.194989 0.403563 0.120214
0.253851 0.403563 0.120214
0.312291 0.403563 0.120214
0.370392 0.403563 0.120214
0.428211 0.403563 0.120214
0.485790 0.403563 0.120214
0.543157 0.403563 0.120214
0.600337 0.403563 0.120214
0.657349 0.403563 0.120214
0.714209 0.403563 0.120214
0.770928 0.403563 0.120214
0.827519 0.403563 0.120214
0.883990 0.403563 0.120214
0.940350 0.403563 0.120214
0.996605 0.403563 0.120214
0.075288 0.459531 0.120214
0.135562 0.459531 0.120214
0.194989 0.459531 0.120214
0.253851 0.459531 0.120214
0.312291 0.459531 0.120214
0.370392 0.459531 0.120214
0.428211 0.459531 0.120214
0.485790 0.459531 0.120214
0.543157 0.459531 0.120214
0.600337 0.459531 0.120214
0.657349 0.459531 0.120214
0.714209 0.459531 0.120214
0.770928 0.459531 0.120214
0.827519 0.459531 0.120214
0.883990 0.459531 0.120214
0.940350 0.459531 0.120214
0.996605 0.459531 0.120214
0.075288 0.515500 0.120214
0.135562 0.515500 0.120214
0.194989 0.515500 0.120214
0.253851 0.515500 0.120214
0.312291 0.515500 0.120214
0.370392 0.515500 0.120214
0.428211 0.515500 0.120214
0.485790 0.515500 0.120214
0.543157 0.515500 0.120214
0.600337 0.515500 0.120214
0.657349 0.515500 0.120214
0.714209 0.515500 0.120214
0.770928 0.515500 0.120214
0.827519 0.515500 0.120214
0.883990 0.515500 0.120214
0.940350 0.515500 0.120214
0.996605 0.515500 0.120214
0.075288 0.571469 0.120214
0.135562 0.571469 0.120214
0.194989 0.571469 0.120214
0.253851 0.571469 0.120214
0.312291 0.571469 0.120214
0.370392 0.571469 0.120214
0.428211 0.571469 0.120214
0.485790 0.571469 0.120214
0.543157 0.571469 0.120214
0.600337 0.571469 0.120214
0.657349 0.571469 0.120214
0.714209 0.571469 0.120214
0.770928 0.571469 0.120214
0.827519 0.571469 0.120214
0.883990 0.571469 0.120214
0.940350 0.571469 0.120214
0.996605 0.571469 0.120214
0.075288 0.627438 0.120214
0.135562 0.627438 0.120214
0.194989 0.627438 0.120214
0.253851 0.627438 0.120214
0.312291 0.627438 0.120214
0.370392 0.627438 0.120214
0.428211 0.627438 0.120214
0.485790 0.627438 0.120214
0.543157 0.627438 0.120214
0.600337 0.627438 0.120214
0.657349 0.627438 0.120214
0.714209 0.627438 0.120214
0.770928 0.627438 0.120214
0.827519 0.627438 0.120214
0.883990 0.627438 0.120214
0.940350 0.627438 0.120214
0.996605 0.627438 0.120214
0.075288 0.683406 0.120214
0.135562 0.683406 0.120214
0.194989 0.683406 0.120214
0.253851 0.683406 0.120214
0.312291 0.683406 0.120214
0.370392 0.683406 0.120214
0.428211 0.683406 0.120214
0.485790 0.683406 0.120214
0.543157 0.683406 0.120214
0.600337 0.683406 0.120214
0.657349 0.683406 0.120214
0.714209 0.683406 0.120214
0.770928 0.683406 0.120214
0.827519 0.683406 0.120214
0.883990 0.683406 0.120214
0.940350 0.683406 0.120214
0.996605 0.683406 0.120214
0.075288 0.739375 0.120214
0.135562 0.739375 0.120214
0.194989 0.739375 0.120214
0.253851 0.739375 0.120214
0.312291 0.739375 0.120214
0.370392 0.739375 0.120214
0.428211 0.739375 0.120214
0.485790 0.739375 0.120214
0.543157 0.739375 0.120214
0.600337 0.739375 0.120214
0.657349 0.739375 0.120214
0.714209 0.739375 0.120214
0.770928 0.739375 0.120214
0.827519 0.739375 0.120214
0.883990 0.739375 0.120214
0.940350 0.739375 0.120214
0.996605 0.739375 0.120214
0.075288 0.795344 0.120214
0.135562 0.795344 0.120214
0.194989 0.795344 0.120214
0.253851 0.795344 0.120214
0.312291 0.795344 0.120214
0.370392 0.795344 0.120214
0.428211 0.795344 0.120214
0.485790 0.795344 0.120214
0.543157 0.795344 0.120214
0.600337 0.795344 0.120214
0.657349 0.795344 0.120214
0.714209 0.795344 0.120214
0.770928 0.795344 0.120214
0.827519 0.795344 0.120214
0.883990 0.795344 0.120214
0.940350 0.795344 0.120214
0.996605 0.795344 0.120214
0.075288 0.851313 0.120214
0.135562 0.851313 0.120214
0.194989 0.851313 0.120214
0.253851 0.851313 0.120214
0.312291 0.851313 0.120214
0.370392 0.851313 0.120214
0.428211 0.851313 0.120214
0.485790 0.851313 0.120214
0.543157 0.851313 0.120214
0.600337 0.851313 0.120214
0.657349 0.851313 0.120214
0.714209 0.851313 0.120214
0.770928 0.851313 0.120214
0.827519 0.851313 0.120214
0.883990 0.851313 0.120214
0.940350 0.851313 0.120214
0.996605 0.851313 0.120214
0.075288 0.907281 0.120214
0.135562 0.907281 0.120214
0.194989 0.907281 0.120214
0.253851 0.907281 0.120214
0.312291 0.907281 0.120214
0.370392 0.907281 0.120214
0.428211 0.907281 0.120214
0.485790 0.907281 0.120214
0.543157 0.907281 0.120214
0.600337 0.907281 0.120214
0.657349 0.907281 0.120214
0.714209 0.907281 0.120214
0.770928 0.907281 0.120214
0.827519 0.907281 0.120214
0.883990 0.907281 0.120214
0.940350 0.907281 0.120214
0.996605 0.907281 0.120214
0.075288 0.963250 0.120214
0.135562 0.963250 0.120214
0.194989 0.963250 0.120214
0.253851 0.963250 0.120214
0.312291 0.963250 0.120214
0.370392 0.963250 0.120214
0.428211 0.963250 0.120214
0.485790 0.963250 0.120214
0.543157 0.963250 0.120214
0.600337 0.963250 0.120214
0.657349 0.963250 0.120214
0.714209 0.963250 0.120214
0.770928 0.963250 0.120214
0.827519 0.963250 0.120214
0.883990 0.963250 0.120214
0.940350 0.963250 0.120214
0.996605 0.963250 0.120214
0.075288 0.067750 0.176026
0.135562 0.067750 0.176026
0.194989 0.067750 0.176026
0.253851 0.067750 0.176026
0.312291 0.067750 0.176026
0.370392 0.067750 0.176026
0.428211 0.067750 0.176026
0.485790 0.067750 0.176026
0.543157 0.067750 0.176026
0.600337 0.067750 0.176026
0.657349 0.067750 0.176026
0.714209 0.067750 0.176026
0.770928 0.067750 0.176026
0.827519 0.067750 0.176026
0.883990 0.067750 0.176026
0.940350 0.067750 0.176026
0.996605 0.067750 0.176026
0.075288 0.123719 0.176026
0.135562 0.123719 0.176026
0.194989 0.123719 0.176026
0.253851 0.123719 0.176026
0.312291 0.123719 0.176026
0.370392 0.123719 0.176026
0.428211 0.123719 0.176026
0.485790 0.123719 0.176026
0.543157 0.123719 0.176026
0.600337 0.123719 0.176026
0.657349 0.123719 0.176026
0.714209 0.123719 0.176026
0.770928 0.123719 0.176026
0.827519 0.123719 0.176026
0.883990 0.123719 0.176026
0.940350 0.123719 0.176026
0.996605 0.123719 0.176026
0.075288 0.179687 0.176026
0.135562 0.179687 0.176026
0.194989 0.179687 0.176026
0.253851 0.179687 0.176026
0.312291 0.179687 0.176026
0.370392 0.179687 0.176026
0.428211 0.179687 0.176026
0.485790 0.179687 0.176026
0.543157 0.179687 0.176026
0.600337 0.179687 0.176026
0.657349 0.179687 0.176026
0.714209 0.179687 0.176026
0.770928 0.179687 0.176026
0.827519 0.179687 0.176026
0.883990 0.179687 0.176026
0.940350 0.179687 0.176026
0.996605 0.179687 0.176026
0.075288 0.235656 0.176026
0.135562 0.235656 0.176026
0.194989 0.235656 0.176026
0.253851 0.235656 0.176026
0.312291 0.235656 0.176026
0.370392 0.235656 0.176026
0.428211 0.235656 0.176026
0.485790 0.235656 0.176026
0.543157 0.235656 0.176026
0.600337 0.235656 0.176026
0.657349 0.235656 0.176026
0.714209 0.235656 0.176026
0.770928 0.235656 0.176026
0.827519 0.235656 0.176026
0.883990 0.235656 0.176026
0.940350 0.235656 0.176026
0.996605 0.235656 0.176026
0.075288 0.291625 0.176026
0.135562 0.291625 0.176026
0.194989 0.291625 0.176026
0.253851 0.291625 0.176026
0.312291 0.291625 0.176026
0.370392 0.291625 0.176026
0.428211 0.291625 0.176026
0.485790 0.291625 0.176026
0.543157 0.291625 0.176026
0.600337 0.291625 0.176026
0.657349 0.291625 0.176026
0.714209 0.291625 0.176026
0.770928 0.291625 0.176026
0.827519 0.291625 0.176026
0.883990 0.291625 0.176026
0.940350 0.291625 0.176026
0.996605 0.291625 0.176026
0.075288 0.347594 0.176026
0.135562 0.347594 0.176026
0.194989 0.347594 0.176026
0.253851 0.347594 0.176026
0.312291 0.347594 0.176026
0.370392 0.347594 0.176026
0.428211 0.347594 0.176026
0.485790 0.347594 0.176026
0.543157 0.347594 0.176026
0.600337 0.347594 0.176026
0.657349 0.347594 0.176026
0.714209 0.347594 0.176026
0.770928 0.347594 0.176026
0.827519 0.347594 0.176026
0.883990 0.347594 0.176026
0.940350 0.347594 0.176026
0.996605 0.347594 0.176026
0.075288 0.403563 0.176026
0.135562 0.403563 0.176026
0.194989 0.403563 0.176026
0.253851 0.403563 0.176026
0.312291 0.403563 0.176026
0.370392 0.403563 0.176026
0.428211 0.403563 0.176026
0.485790 0.403563 0.176026
0.543157 0.403563 0.176026
0.600337 0.403563 0.176026
0.657349 0.403563 0.176026
0.714209 0.403563 0.176026
0.770928 0.403563 0.176026
0.827519 0.403563 0.176026
0.883990 0.403563 0.176026
0.940350 0.403563 0.176026
0.996605 0.403563 0.176026
0.075288 0.459531 0.176026
0.135562 0.459531 0.176026
0.194989 0.459531 0.176026
0.253851 0.459531 0.176026
0.312291 0.459531 0.176026
0.370392 0.459531 0.176026
0.428211 0.459531 0.176026
0.485790 0.459531 0.176026
0.543157 0.459531 0.176026
0.600337 0.459531 0.176026
0.657349 0.459531 0.176026
0.714209 0.459531 0.176026
0.770928 0.459531 0.176026
0.827519 0.459531 0.176026
0.883990 0.459531 0.176026
0.940350 0.459531 0.176026
0.996605 0.459531 0.176026
0.075288 0.515500 0.176026
0.135562 0.515500 0.176026
0.194989 0.515500 0.176026
0.253851 0.515500 0.176026
0.312291 0.515500 0.176026
0.370392 0.515500 0.176026
0.428211 0.515500 0.176026
0.485790 0.515500 0.176026
0.543157 0.515500 0.176026
0.600337 0.515500 0.176026
0.657349 0.515500 0.176026
0.714209 0.515500 0.176026
0.770928 0.515500 0.176026
0.827519 0.515500 0.176026
0.883990 0.515500 0.176026
0.940350 0.515500 0.176026
0.996605 0.515500 0.176026
0.075288 0.571469 0.176026
0.135562 0.571469 0.176026
0.194989 0.571469 0.176026
0.253851 0.571469 0.176026
0.312291 0.571469 0.176026
0.370392 0.571469 0.176026
0.428211 0.571469 0.176026
0.485790 0.571469 0.176026
0.543157 0.571469 0.176026
0.600337 0.571469 0.176026
0.657349 0.571469 0.176026
0.714209 0.571469 0.176026
0.770928 0.571469 0.176026
0.827519 0.571469 0.176026
0.883990 0.571469 0.176026
0.940350 0.571469 0.176026
0.996605 0.571469 0.176026
0.075288 0.627438 0.176026
0.135562 0.627438 0.176026
0.194989 0.627438 0.176026
0.253851 0.627438 0.176026
0.312291 0.627438 0.176026
0.370392 0.627438 0.176026
0.428211 0.627438 0.176026
0.485790 0.627438 0.176026
0.543157 0.627438 0.176026
0.600337 0.627438 0.176026
0.657349 0.627438 0.176026
0.714209 0.627438 0.176026
0.770928 0.627438 0.176026
0.827519 0.627438 0.176026
0.883990 0.627438 0.176026
0.940350 0.627438 0.176026
0.996605 0.627438 0.176026
0.075288 0.683406 0.176026
0.135562 0.683406 0.176026
0.194989 0.683406 0.176026
0.253851 0.683406 0.176026
0.312291 0.683406 0.176026
0.370392 0.683406 0.176026
0.428211 0.683406 0.176026
0.485790 0.683406 0.176026
0.543157 0.683406 0.176026
0.600337 0.683406 0.176026
0.657349 0.683406 0.176026
0.714209 0.683406 0.176026
0.770928 0.683406 0.176026
0.827519 0.683406 0.176026
0.883990 0.683406 0.176026
0.940350 0.683406 0.176026
0.996605 0.683406 0.176026
0.075288 0.739375 0.176026
0.135562 0.739375 0.176026
0.194989 0.739375 0.176026
0.253851 0.739375 0.176026
0.312291 0.739375 0.176026
0.370392 0.739375 0.176026
0.428211 0.739375 0.176026
0.485790 0.739375 0.176026
0.543157 0.739375 0.176026
0.600337 0.739375 0.176026
0.657349 0.739375 0.176026
0.714209 0.739375 0.176026
0.770928 0.739375 0.176026
0.827519 0.739375 0.176026
0.883990 0.739375 0.176026
0.940350 0.739375 0.176026
0.996605 0.739375 0.176026
0.075288 0.795344 0.176026
0.135562 0.795344 0.176026
0.194989 0.795344 0.176026
0.253851 0.795344 0.176026
0.312291 0.795344 0.176026
0.370392 0.795344 0.176026
0.428211 0.795344 0.176026
0.485790 0.795344 0.176026
0.543157 0.795344 0.176026
0.600337 0.795344 0.176026
0.657349 0.795344 0.176026
0.714209 0.795344 0.176026
0.770928 0.795344 0.176026
0.827519 0.795344 0.176026
0.883990 0.795344 0.176026
0.940350 0.795344 0.176026
0.996605 0.795344 0.176026
0.075288 0.851313 0.176026
0.135562 0.851313 0.176026
0.194989 0.851313 0.176026
0.253851 0.851313 0.176026
0.312291 0.851313 0.176026
0.370392 0.851313 0.176026
0.428211 0.851313 0.176026
0.485790 0.851313 0.176026
0.543157 0.851313 0.176026
0.600337 0.851313 0.176026
0.657349 0.851313 0.176026
0.714209 0.851313 0.176026
0.770928 0.851313 0.176026
0.827519 0.851313 0.176026
0.883990 0.851313 0.176026
0.940350 0.851313 0.176026
0.996605 0.851313 0.176026
0.075288 0.907281 0.176026
0.135562 0.907281 0.176026
0.194989 0.907281 0.176026
0.253851 0.907281 0.176026
0.312291 0.907281 0.176026
0.370392 0.907281 0.176026
0.428211 0.907281 0.176026
0.485790 0.907281 0.176026
0.543157 0.907281 0.176026
0.600337 0.907281 0.176026
0.657349 0.907281 0.176026
0.714209 0.907281 0.176026
0.770928 0.907281 0.176026
0.827519 0.907281 0.176026
0.883990 0.907281 0.176026
0.940350 0.907281 0.176026
0.996605 0.907281 0.176026
0.075288 0.963250 0.176026
0.135562 0.963250 0.176026
0.194989 0.963250 0.176026
0.253851 0.963250 0.176026
0.312291 0.963250 0.176026
0.370392 0.963250 0.176026
0.428211 0.963250 0.176026
0.485790 0.963250 0.176026
0.543157 0.963250 0.176026
0.600337 0.963250 0.176026
0.657349 0.963250 0.176026
0.714209 0.963250 0.176026
0.770928 0.963250 0.176026
0.827519 0.963250 0.176026
0.883990 0.963250 0.176026
0.940350 0.963250 0.176026
0.996605 0.963250 0.176026
0.075288 0.067750 0.232193
0.135562 0.067750 0.232193
0.194989 0.067750 0.232193
0.253851 0.067750 0.232193
0.312291 0.067750 0.232193
0.370392 0.067750 0.232193
0.428211 0.067750 0.232193
0.485790 0.067750 0.232193
0.543157 0.067750 0.232193
0.600337 0.067750 0.232193
0.657349 0.067750 0.232193
0.714209 0.067750 0.232193
0.770928 0.067750 0.232193
0.827519 0.067750 0.232193
0.883990 0.067750 0.232193
0.940350 0.067750 0.232193
0.996605 0.067750 0.232193
0.075288 0.123719 0.232193
