aicampro/assets/luts/03_soft_portrait.cube
TITLE "Soft Portrait"
LUT_3D_SIZE 9
DOMAIN_MIN 0.0 0.0 0.0
DOMAIN_MAX 1.0 1.0 1.0
0.075288 0.067750 0.064924
0.194989 0.067750 0.064924
0.312291 0.067750 0.064924
0.428211 0.067750 0.064924
0.543157 0.067750 0.064924
0.657349 0.067750 0.064924
0.770928 0.067750 0.064924
0.883990 0.067750 0.064924
0.996605 0.067750 0.064924
0.075288 0.179687 0.064924
0.194989 0.179687 0.064924
0.312291 0.179687 0.064924
0.428211 0.179687 0.064924
0.543157 0.179687 0.064924
0.657349 0.179687 0.064924
0.770928 0.179687 0.064924
0.883990 0.179687 0.064924
0.996605 0.179687 0.064924
0.075288 0.291625 0.064924
0.194989 0.291625 0.064924
0.312291 0.291625 0.064924
0.428211 0.291625 0.064924
0.543157 0.291625 0.064924
0.657349 0.291625 0.064924
0.770928 0.291625 0.064924
0.883990 0.291625 0.064924
0.996605 0.291625 0.064924
0.075288 0.403563 0.064924
0.194989 0.403563 0.064924
0.312291 0.403563 0.064924
0.428211 0.403563 0.064924
0.543157 0.403563 0.064924
0.657349 0.403563 0.064924
0.770928 0.403563 0.064924
0.883990 0.403563 0.064924
0.996605 0.403563 0.064924
0.075288 0.515500 0.064924
0.194989 0.515500 0.064924
0.312291 0.515500 0.064924
0.428211 0.515500 0.064924
0.543157 0.515500 0.064924
0.657349 0.515500 0.064924
0.770928 0.515500 0.064924
0.883990 0.515500 0.064924
0.996605 0.515500 0.064924
0.075288 0.627438 0.064924
0.194989 0.627438 0.064924
0.312291 0.627438 0.064924
0.428211 0.627438 0.064924
0.543157 0.627438 0.064924
0.657349 0.627438 0.064924
0.770928 0.627438 0.064924
0.883990 0.627438 0.064924
0.996605 0.627438 0.064924
0.075288 0.739375 0.064924
0.194989 0.739375 0.064924
0.312291 0.739375 0.064924
0.428211 0.739375 0.064924
0.543157 0.739375 0.064924
0.657349 0.739375 0.064924
0.770928 0.739375 0.064924
0.883990 0.739375 0.064924
0.996605 0.739375 0.064924
0.075288 0.851313 0.064924
0.194989 0.851313 0.064924
0.312291 0.851313 0.064924
0.428211 0.851313 0.064924
0.543157 0.851313 0.064924
0.657349 0.851313 0.064924
0.770928 0.851313 0.064924
0.883990 0.851313 0.064924
0.996605 0.851313 0.064924
0.075288 0.963250 0.064924
0.194989 0.963250 0.064924
0.312291 0.963250 0.064924
0.428211 0.963250 0.064924
0.543157 0.963250 0.064924
0.657349 0.963250 0.064924
0.770928 0.963250 0.064924
0.883990 0.963250 0.064924
0.996605 0.963250 0.064924
0.075288 0.067750 0.176026
0.194989 0.067750 0.176026
0.312291 0.067750 0.176026
0.428211 0.067750 0.176026
0.543157 0.067750 0.176026
0.657349 0.067750 0.176026
0.770928 0.067750 0.176026
0.883990 0.067750 0.176026
0.996605 0.067750 0.176026
0.075288 0.179687 0.176026
0.194989 0.179687 0.176026
0.312291 0.179687 0.176026
0.428211 0.179687 0.176026
0.543157 0.179687 0.176026
0.657349 0.179687 0.176026
0.770928 0.179687 0.176026
0.883990 0.179687 0.176026
0.996605 0.179687 0.176026
0.075288 0.291625 0.176026
0.194989 0.291625 0.176026
0.312291 0.291625 0.176026
0.428211 0.291625 0.176026
0.543157 0.291625 0.176026
0.657349 0.291625 0.176026
0.770928 0.291625 0.176026
0.883990 0.291625 0.176026
0.996605 0.291625 0.176026
0.075288 0.403563 0.176026
0.194989 0.403563 0.176026
0.312291 0.403563 0.176026
0.428211 0.403563 0.176026
0.543157 0.403563 0.176026
0.657349 0.403563 0.176026
0.770928 0.403563 0.176026
0.883990 0.403563 0.176026
0.996605 0.403563 0.176026
0.075288 0.515500 0.176026
0.194989 0.515500 0.176026
0.312291 0.515500 0.176026
0.428211 0.515500 0.176026
0.543157 0.515500 0.176026
0.657349 0.515500 0.176026
0.770928 0.515500 0.176026
0.883990 0.515500 0.176026
0.996605 0.515500 0.176026
0.075288 0.627438 0.176026
0.194989 0.627438 0.176026
0.312291 0.627438 0.176026
0.428211 0.627438 0.176026
0.543157 0.627438 0.176026
0.657349 0.627438 0.176026
0.770928 0.627438 0.176026
0.883990 0.627438 0.176026
0.996605 0.627438 0.176026
0.075288 0.739375 0.176026
0.194989 0.739375 0.176026
0.312291 0.739375 0.176026
0.428211 0.739375 0.176026
0.543157 0.739375 0.176026
0.657349 0.739375 0.176026
0.770928 0.739375 0.176026
0.883990 0.739375 0.176026
0.996605 0.739375 0.176026
0.075288 0.851313 0.176026
0.194989 0.851313 0.176026
0.312291 0.851313 0.176026
0.428211 0.851313 0.176026
0.543157 0.851313 0.176026
0.657349 0.851313 0.176026
0.770928 0.851313 0.176026
0.883990 0.851313 0.176026
0.996605 0.851313 0.176026
0.075288 0.963250 0.176026
0.194989 0.963250 0.176026
0.312291 0.963250 0.176026
0.428211 0.963250 0.176026
0.543157 0.963250 0.176026
0.657349 0.963250 0.176026
0.770928 0.963250 0.176026
0.883990 0.963250 0.176026
0.996605 0.963250 0.176026
0.075288 0.067750 0.288631
0.194989 0.067750 0.288631
0.312291 0.067750 0.288631
0.428211 0.067750 0.288631
0.543157 0.067750 0.288631
0.657349 0.067750 0.288631
0.770928 0.067750 0.288631
0.883990 0.067750 0.288631
0.996605 0.067750 0.288631
0.075288 0.179687 0.288631
0.194989 0.179687 0.288631
0.312291 0.179687 0.288631
0.428211 0.179687 0.288631
0.543157 0.179687 0.288631
0.657349 0.179687 0.288631
0.770928 0.179687 0.288631
0.883990 0.179687 0.288631
0.996605 0.179687 0.288631
0.075288 0.291625 0.288631
0.194989 0.291625 0.288631
0.312291 0.291625 0.288631
0.428211 0.291625 0.288631
0.543157 0.291625 0.288631
0.657349 0.291625 0.288631
0.770928 0.291625 0.288631
0.883990 0.291625 0.288631
0.996605 0.291625 0.288631
0.075288 0.403563 0.288631
0.194989 0.403563 0.288631
0.312291 0.403563 0.288631
0.428211 0.403563 0.288631
0.543157 0.403563 0.288631
0.657349 0.403563 0.288631
0.770928 0.403563 0.288631
0.883990 0.403563 0.288631
0.996605 0.403563 0.288631
0.075288 0.515500 0.288631
0.194989 0.515500 0.288631
0.312291 0.515500 0.288631
0.428211 0.515500 0.288631
0.543157 0.515500 0.288631
0.657349 0.515500 0.288631
0.770928 0.515500 0.288631
0.883990 0.515500 0.288631
0.996605 0.515500 0.288631
0.075288 0.627438 0.288631
0.194989 0.627438 0.288631
0.312291 0.627438 0.288631
0.428211 0.627438 0.288631
0.543157 0.627438 0.288631
0.657349 0.627438 0.288631
0.770928 0.627438 0.288631
0.883990 0.627438 0.288631
0.996605 0.627438 0.288631
0.075288 0.739375 0.288631
0.194989 0.739375 0.288631
0.312291 0.739375 0.288631
0.428211 0.739375 0.288631
0.543157 0.739375 0.288631
0.657349 0.739375 0.288631
0.770928 0.739375 0.288631
0.883990 0.739375 0.288631
0.996605 0.739375 0.288631
0.075288 0.851313 0.288631
0.194989 0.851313 0.288631
0.312291 0.851313 0.288631
0.428211 0.851313 0.288631
0.543157 0.851313 0.288631
0.657349 0.851313 0.288631
0.770928 0.851313 0.288631
0.883990 0.851313 0.288631
0.996605 0.851313 0.288631
0.075288 0.963250 0.288631
0.194989 0.963250 0.288631
0.312291 0.963250 0.288631
0.428211 0.963250 0.288631
0.543157 0.963250 0.288631
0.657349 0.963250 0.288631
0.770928 0.963250 0.288631
0.883990 0.963250 0.288631
0.996605 0.963250 0.288631
0.075288 0.067750 0.402127
0.194989 0.067750 0.402127
0.312291 0.067750 0.402127
0.428211 0.067750 0.402127
0.543157 0.067750 0.402127
0.657349 0.067750 0.402127
0.770928 0.067750 0.402127
0.883990 0.067750 0.402127
0.996605 0.067750 0.402127
0.075288 0.179687 0.402127
0.194989 0.179687 0.402127
0.312291 0.179687 0.402127
0.428211 0.179687 0.402127
0.543157 0.179687 0.402127
0.657349 0.179687 0.402127
0.770928 0.179687 0.402127
0.883990 0.179687 0.402127
0.996605 0.179687 0.402127
0.075288 0.291625 0.402127
0.194989 0.291625 0.402127
0.312291 0.291625 0.402127
0.428211 0.291625 0.402127
0.543157 0.291625 0.402127
0.657349 0.291625 0.402127
0.770928 0.291625 0.402127
0.883990 0.291625 0.402127
0.996605 0.291625 0.402127
0.075288 0.403563 0.402127
0.194989 0.403563 0.402127
0.312291 0.403563 0.402127
0.428211 0.403563 0.402127
0.543157 0.403563 0.402127
0.657349 0.403563 0.402127
0.770928 0.403563 0.402127
0.883990 0.403563 0.402127
0.996605 0.403563 0.402127
0.075288 0.515500 0.402127
0.194989 0.515500 0.402127
0.312291 0.515500 0.402127
0.428211 0.515500 0.402127
0.543157 0.515500 0.402127
0.657349 0.515500 0.402127
0.770928 0.515500 0.402127
0.883990 0.515500 0.402127
0.996605 0.515500 0.402127
0.075288 0.627438 0.402127
0.194989 0.627438 0.402127
0.312291 0.627438 0.402127
0.428211 0.627438 0.402127
0.543157 0.627438 0.402127
0.657349 0.627438 0.402127
0.770928 0.627438 0.402127
0.883990 0.627438 0.402127
0.996605 0.627438 0.402127
0.075288 0.739375 0.402127
0.194989 0.739375 0.402127
0.312291 0.739375 0.402127
0.428211 0.739375 0.402127
0.543157 0.739375 0.402127
0.657349 0.739375 0.402127
0.770928 0.739375 0.402127
0.883990 0.739375 0.402127
0.996605 0.739375 0.402127
0.075288 0.851313 0.402127
0.194989 0.851313 0.402127
0.312291 0.851313 0.402127
0.428211 0.851313 0.402127
0.543157 0.851313 0.402127
0.657349 0.851313 0.402127
0.770928 0.851313 0.402127
0.883990 0.851313 0.402127
0.996605 0.851313 0.402127
0.075288 0.963250 0.402127
0.194989 0.963250 0.402127
0.312291 0.963250 0.402127
0.428211 0.963250 0.402127
0.543157 0.963250 0.402127
0.657349 0.963250 0.402127
0.770928 0.963250 0.402127
0.883990 0.963250 0.402127
0.996605 0.963250 0.402127
0.075288 0.067750 0.516264
0.194989 0.067750 0.516264
0.312291 0.067750 0.516264
0.428211 0.067750 0.516264
0.543157 0.067750 0.516264
0.657349 0.067750 0.516264
0.770928 0.067750 0.516264
0.883990 0.067750 0.516264
0.996605 0.067750 0.516264
0.075288 0.179687 0.516264
0.194989 0.179687 0.516264
0.312291 0.179687 0.516264
0.428211 0.179687 0.516264
0.543157 0.179687 0.516264
0.657349 0.179687 0.516264
0.770928 0.179687 0.516264
0.883990 0.179687 0.516264
0.996605 0.179687 0.516264
0.075288 0.291625 0.516264
0.194989 0.291625 0.516264
0.312291 0.291625 0.516264
0.428211 0.291625 0.516264
0.543157 0.291625 0.516264
0.657349 0.291625 0.516264
0.770928 0.291625 0.516264
0.883990 0.291625 0.516264
0.996605 0.291625 0.516264
0.075288 0.403563 0.516264
0.194989 0.403563 0.516264
0.312291 0.403563 0.516264
0.428211 0.403563 0.516264
0.543157 0.403563 0.516264
0.657349 0.403563 0.516264
0.770928 0.403563 0.516264
0.883990 0.403563 0.516264
0.996605 0.403563 0.516264
0.075288 0.515500 0.516264
0.194989 0.515500 0.516264
0.312291 0.515500 0.516264
0.428211 0.515500 0.516264
0.543157 0.515500 0.516264
0.657349 0.515500 0.516264
0.770928 0.515500 0.516264
0.883990 0.515500 0.516264
0.996605 0.515500 0.516264
0.075288 0.627438 0.516264
0.194989 0.627438 0.516264
0.312291 0.627438 0.516264
0.428211 0.627438 0.516264
0.543157 0.627438 0.516264
0.657349 0.627438 0.516264
0.770928 0.627438 0.516264
0.883990 0.627438 0.516264
0.996605 0.627438 0.516264
0.075288 0.739375 0.516264
0.194989 0.739375 0.516264
0.312291 0.739375 0.516264
0.428211 0.739375 0.516264
0.543157 0.739375 0.516264
0.657349 0.739375 0.516264
0.770928 0.739375 0.516264
0.883990 0.739375 0.516264
0.996605 0.739375 0.516264
0.075288 0.851313 0.516264
0.194989 0.851313 0.516264
0.312291 0.851313 0.516264
0.428211 0.851313 0.516264
0.543157 0.851313 0.516264
0.657349 0.851313 0.516264
0.770928 0.851313 0.516264
0.883990 0.851313 0.516264
0.996605 0.851313 0.516264
0.075288 0.963250 0.516264
0.194989 0.963250 0.516264
0.312291 0.963250 0.516264
0.428211 0.963250 0.516264
0.543157 0.963250 0.516264
0.657349 0.963250 0.516264
0.770928 0.963250 0.516264
0.883990 0.963250 0.516264
0.996605 0.963250 0.516264
0.075288 0.067750 0.630901
0.194989 0.067750 0.630901
0.312291 0.067750 0.630901
0.428211 0.067750 0.630901
0.543157 0.067750 0.630901
0.657349 0.067750 0.630901
0.770928 0.067750 0.630901
0.883990 0.067750 0.630901
0.996605 0.067750 0.630901
0.075288 0.179687 0.630901
0.194989 0.179687 0.630901
0.312291 0.179687 0.630901
0.428211 0.179687 0.630901
0.543157 0.179687 0.630901
0.657349 0.179687 0.630901
0.770928 0.179687 0.630901
0.883990 0.179687 0.630901
0.996605 0.179687 0.630901
0.075288 0.291625 0.630901
0.194989 0.291625 0.630901
0.312291 0.291625 0.630901
0.428211 0.291625 0.630901
0.543157 0.291625 0.630901
0.657349 0.291625 0.630901
0.770928 0.291625 0.630901
0.883990 0.291625 0.630901
0.996605 0.291625 0.630901
0.075288 0.403563 0.630901
0.194989 0.403563 0.630901
0.312291 0.403563 0.630901
0.428211 0.403563 0.630901
0.543157 0.403563 0.630901
0.657349 0.403563 0.630901
0.770928 0.403563 0.630901
0.883990 0.403563 0.630901
0.996605 0.403563 0.630901
0.075288 0.515500 0.630901
0.194989 0.515500 0.630901
0.312291 0.515500 0.630901
0.428211 0.515500 0.630901
0.543157 0.515500 0.630901
0.657349 0.515500 0.630901
0.770928 0.515500 0.630901
0.883990 0.515500 0.630901
0.996605 0.515500 0.630901
0.075288 0.627438 0.630901
0.194989 0.627438 0.630901
0.312291 0.627438 0.630901
0.428211 0.627438 0.630901
0.543157 0.627438 0.630901
0.657349 0.627438 0.630901
0.770928 0.627438 0.630901
0.883990 0.627438 0.630901
0.996605 0.627438 0.630901
0.075288 0.739375 0.630901
0.194989 0.739375 0.630901
0.312291 0.739375 0.630901
0.428211 0.739375 0.630901
0.543157 0.739375 0.630901
0.657349 0.739375 0.630901
0.770928 0.739375 0.630901
0.883990 0.739375 0.630901
0.996605 0.739375 0.630901
0.075288 0.851313 0.630901
0.194989 0.851313 0.630901
0.312291 0.851313 0.630901
0.428211 0.851313 0.630901
0.543157 0.851313 0.630901
0.657349 0.851313 0.630901
0.770928 0.851313 0.630901
0.883990 0.851313 0.630901
0.996605 0.851313 0.630901
0.075288 0.963250 0.630901
0.194989 0.963250 0.630901
0.312291 0.963250 0.630901
0.428211 0.963250 0.630901
0.543157 0.963250 0.630901
0.657349 0.963250 0.630901
0.770928 0.963250 0.630901
0.883990 0.963250 0.630901
0.996605 0.963250 0.630901
0.075288 0.067750 0.745951
0.194989 0.067750 0.745951
0.312291 0.067750 0.745951
0.428211 0.067750 0.745951
0.543157 0.067750 0.745951
0.657349 0.067750 0.745951
0.770928 0.067750 0.745951
0.883990 0.067750 0.745951
0.996605 0.067750 0.745951
0.075288 0.179687 0.745951
0.194989 0.179687 0.745951
0.312291 0.179687 0.745951
0.428211 0.179687 0.745951
0.543157 0.179687 0.745951
0.657349 0.179687 0.745951
0.770928 0.179687 0.745951
0.883990 0.179687 0.745951
0.996605 0.179687 0.745951
0.075288 0.291625 0.745951
0.194989 0.291625 0.745951
0.312291 0.291625 0.745951
0.428211 0.291625 0.745951
0.543157 0.291625 0.745951
0.657349 0.291625 0.745951
0.770928 0.291625 0.745951
0.883990 0.291625 0.745951
0.996605 0.291625 0.745951
0.075288 0.403563 0.745951
0.194989 0.403563 0.745951
0.312291 0.403563 0.745951
0.428211 0.403563 0.745951
0.543157 0.403563 0.745951
0.657349 0.403563 0.745951
0.770928 0.403563 0.745951
0.883990 0.403563 0.745951
0.996605 0.403563 0.745951
0.075288 0.515500 0.745951
0.194989 0.515500 0.745951
0.312291 0.515500 0.745951
0.428211 0.515500 0.745951
0.543157 0.515500 0.745951
0.657349 0.515500 0.745951
0.770928 0.515500 0.745951
0.883990 0.515500 0.745951
0.996605 0.515500 0.745951
0.075288 0.627438 0.745951
0.194989 0.627438 0.745951
0.312291 0.627438 0.745951
0.428211 0.627438 0.745951
0.543157 0.627438 0.745951
0.657349 0.627438 0.745951
0.770928 0.627438 0.745951
0.883990 0.627438 0.745951
0.996605 0.627438 0.745951
0.075288 0.739375 0.745951
0.194989 0.739375 0.745951
0.312291 0.739375 0.745951
0.428211 0.739375 0.745951
0.543157 0.739375 0.745951
0.657349 0.739375 0.745951
0.770928 0.739375 0.745951
0.883990 0.739375 0.745951
0.996605 0.739375 0.745951
0.075288 0.851313 0.745951
0.194989 0.851313 0.745951
0.312291 0.851313 0.745951
0.428211 0.851313 0.745951
0.543157 0.851313 0.745951
0.657349 0.851313 0.745951
0.770928 0.851313 0.745951
0.883990 0.851313 0.745951
0.996605 0.851313 0.745951
0.075288 0.963250 0.745951
0.194989 0.963250 0.745951
0.312291 0.963250 0.745951
0.428211 0.963250 0.745951
0.543157 0.963250 0.745951
0.657349 0.963250 0.745951
0.770928 0.963250 0.745951
0.883990 0.963250 0.745951
0.996605 0.963250 0.745951
0.075288 0.067750 0.861351
0.194989 0.067750 0.861351
0.312291 0.067750 0.861351
0.428211 0.067750 0.861351
0.543157 0.067750 0.861351
0.657349 0.067750 0.861351
0.770928 0.067750 0.861351
0.883990 0.067750 0.861351
0.996605 0.067750 0.861351
0.075288 0.179687 0.861351
0.194989 0.179687 0.861351
0.312291 0.179687 0.861351
0.428211 0.179687 0.861351
0.543157 0.179687 0.861351
0.657349 0.179687 0.861351
0.770928 0.179687 0.861351
0.883990 0.179687 0.861351
0.996605 0.179687 0.861351
0.075288 0.291625 0.861351
0.194989 0.291625 0.861351
0.312291 0.291625 0.861351
0.428211 0.291625 0.861351
0.543157 0.291625 0.861351
0.657349 0.291625 0.861351
0.770928 0.291625 0.861351
0.883990 0.291625 0.861351
0.996605 0.291625 0.861351
0.075288 0.403563 0.861351
0.194989 0.403563 0.861351
0.312291 0.403563 0.861351
0.428211 0.403563 0.861351
0.543157 0.403563 0.861351
0.657349 0.403563 0.861351
0.770928 0.403563 0.861351
0.883990 0.403563 0.861351
0.996605 0.403563 0.861351
0.075288 0.515500 0.861351
0.194989 0.515500 0.861351
0.312291 0.515500 0.861351
0.428211 0.515500 0.861351
0.543157 0.515500 0.861351
0.657349 0.515500 0.861351
0.770928 0.515500 0.861351
0.883990 0.515500 0.861351
0.996605 0.515500 0.861351
0.075288 0.627438 0.861351
0.194989 0.627438 0.861351
0.312291 0.627438 0.861351
0.428211 0.627438 0.861351
0.543157 0.627438 0.861351
0.657349 0.627438 0.861351
0.770928 0.627438 0.861351
0.883990 0.627438 0.861351
0.996605 0.627438 0.861351
0.075288 0.739375 0.861351
0.194989 0.739375 0.861351
0.312291 0.739375 0.861351
0.428211 0.739375 0.861351
0.543157 0.739375 0.861351
0.657349 0.739375 0.861351
0.770928 0.739375 0.861351
0.883990 0.739375 0.861351
0.996605 0.739375 0.861351
0.075288 0.851313 0.861351
0.194989 0.851313 0.861351
0.312291 0.851313 0.861351
0.428211 0.851313 0.861351
0.543157 0.851313 0.861351
0.657349 0.851313 0.861351
0.770928 0.851313 0.861351
0.883990 0.851313 0.861351
0.996605 0.851313 0.861351
0.075288 0.963250 0.861351
0.194989 0.963250 0.861351
0.312291 0.963250 0.861351
0.428211 0.963250 0.861351
0.543157 0.963250 0.861351
0.657349 0.963250 0.861351
0.770928 0.963250 0.861351
0.883990 0.963250 0.861351
0.996605 0.963250 0.861351
0.075288 0.067750 0.977055
0.194989 0.067750 0.977055
0.312291 0.067750 0.977055
0.428211 0.067750 0.977055
0.543157 0.067750 0.977055
0.657349 0.067750 0.977055
0.770928 0.067750 0.977055
0.883990 0.067750 0.977055
0.996605 0.067750 0.977055
0.075288 0.179687 0.977055
0.194989 0.179687 0.977055
0.312291 0.179687 0.977055
0.428211 0.179687 0.977055
0.543157 0.179687 0.977055
0.657349 0.179687 0.977055
0.770928 0.179687 0.977055
0.883990 0.179687 0.977055
0.996605 0.179687 0.977055
0.075288 0.291625 0.977055
0.194989 0.291625 0.977055
0.312291 0.291625 0.977055
0.428211 0.291625 0.977055
0.543157 0.291625 0.977055
0.657349 0.291625 0.977055
0.770928 0.291625 0.977055
0.883990 0.291625 0.977055
0.996605 0.291625 0.977055
0.075288 0.403563 0.977055
0.194989 0.403563 0.977055
0.312291 0.403563 0.977055
0.428211 0.403563 0.977055
0.543157 0.403563 0.977055
0.657349 0.403563 0.977055
0.770928 0.403563 0.977055
0.883990 0.403563 0.977055
0.996605 0.403563 0.977055
0.075288 0.515500 0.977055
0.194989 0.515500 0.977055
0.312291 0.515500 0.977055
0.428211 0.515500 0.977055
0.543157 0.515500 0.977055
0.657349 0.515500 0.977055
0.770928 0.515500 0.977055
0.883990 0.515500 0.977055
0.996605 0.515500 0.977055
0.075288 0.627438 0.977055
0.194989 0.627438 0.977055
0.312291 0.627438 0.977055
0.428211 0.627438 0.977055
0.543157 0.627438 0.977055
0.657349 0.627438 0.977055
0.770928 0.627438 0.977055
0.883990 0.627438 0.977055
0.996605 0.627438 0.977055
0.075288 0.739375 0.977055
0.194989 0.739375 0.977055
0.312291 0.739375 0.977055
0.428211 0.739375 0.977055
0.543157 0.739375 0.977055
0.657349 0.739375 0.977055
0.770928 0.739375 0.977055
0.883990 0.739375 0.977055
0.996605 0.739375 0.977055
0.075288 0.851313 0.977055
0.194989 0.851313 0.977055
0.312291 0.851313 0.977055
0.428211 0.851313 0.977055
0.543157 0.851313 0.977055
0.657349 0.851313 0.977055
0.770928 0.851313 0.977055
0.883990 0.851313 0.977055
0.996605 0.851313 0.977055
0.075288 0.963250 0.977055
0.194989 0.963250 0.977055
0.312291 0.963250 0.977055
0.428211 0.963250 0.977055
0.543157 0.963250 0.977055
0.657349 0.963250 0.977055
0.770928 0.963250 0.977055
0.883990 0.963250 0.977055
0.996605 0.963250 0.977055
