aicampro/assets/luts/05_vintage_fade.cube
TITLE "Vintage Fade"
LUT_3D_SIZE 9
DOMAIN_MIN 0.0 0.0 0.0
DOMAIN_MAX 1.0 1.0 1.0
0.081500 0.061500 0.091500
0.178427 0.068227 0.098227
0.275355 0.074955 0.104955
0.372283 0.081682 0.111682
0.469210 0.088410 0.118410
0.566137 0.095137 0.125137
0.663065 0.101865 0.131865
0.759992 0.108592 0.138592
0.856920 0.115320 0.145320
0.094708 0.164908 0.104707
0.191635 0.171635 0.111435
0.288562 0.178363 0.118162
0.385490 0.185090 0.124890
0.482417 0.191818 0.131617
0.579345 0.198545 0.138345
0.676272 0.205272 0.145072
0.773200 0.212000 0.151800
0.870127 0.218728 0.158527
0.107915 0.268315 0.117915
0.204842 0.275042 0.124642
0.301770 0.281770 0.131370
0.398698 0.288497 0.138097
0.495625 0.295225 0.144825
0.592552 0.301952 0.151552
0.689480 0.308680 0.158280
0.786407 0.315407 0.165007
0.883335 0.322135 0.171735
0.121122 0.371723 0.131122
0.218050 0.378450 0.137850
0.314978 0.385178 0.144577
0.411905 0.391905 0.151305
0.508833 0.398633 0.158032
0.605760 0.405360 0.164760
0.702687 0.412087 0.171487
0.799615 0.418815 0.178215
0.896542 0.425542 0.184942
0.134330 0.475130 0.144330
0.231257 0.481857 0.151057
0.328185 0.488585 0.157785
0.425113 0.495312 0.164512
0.522040 0.502040 0.171240
0.618968 0.508768 0.177968
0.715895 0.515495 0.184695
0.812823 0.522223 0.191422
0.909750 0.528950 0.198150
0.147537 0.578537 0.157537
0.244465 0.585265 0.164265
0.341392 0.591992 0.170992
0.438320 0.598720 0.177720
0.535247 0.605447 0.184447
0.632175 0.612175 0.191175
0.729102 0.618902 0.197902
0.826030 0.625630 0.204630
0.922957 0.632357 0.211357
0.160745 0.681945 0.170745
0.257673 0.688672 0.177472
0.354600 0.695400 0.184200
0.451528 0.702127 0.190927
0.548455 0.708855 0.197655
0.645382 0.715582 0.204382
0.742310 0.722310 0.211110
0.839237 0.729037 0.217837
0.936165 0.735765 0.224565
0.173952 0.785352 0.183952
0.270880 0.792080 0.190680
0.367807 0.798807 0.197407
0.464735 0.805535 0.204135
0.561662 0.812262 0.210862
0.658590 0.818990 0.217590
0.755517 0.825717 0.224318
0.852445 0.832445 0.231045
0.949372 0.839172 0.237772
0.187160 0.888760 0.197160
0.284088 0.895487 0.203887
0.381015 0.902215 0.210615
0.477943 0.908942 0.217342
0.574870 0.915670 0.224070
0.671797 0.922397 0.230797
0.768725 0.929125 0.237525
0.865652 0.935852 0.244252
0.962580 0.942580 0.250980
0.084065 0.064065 0.184265
0.180993 0.070792 0.190993
0.277920 0.077520 0.197720
0.374848 0.084247 0.204448
0.471775 0.090975 0.211175
0.568702 0.097702 0.217902
0.665630 0.104430 0.224630
0.762557 0.111157 0.231357
0.859485 0.117885 0.238085
0.097272 0.167472 0.197472
0.194200 0.174200 0.204200
0.291127 0.180928 0.210928
0.388055 0.187655 0.217655
0.484983 0.194383 0.224383
0.581910 0.201110 0.231110
0.678837 0.207838 0.237838
0.775765 0.214565 0.244565
0.872692 0.221293 0.251293
0.110480 0.270880 0.210680
0.207407 0.277607 0.217408
0.304335 0.284335 0.224135
0.401263 0.291062 0.230862
0.498190 0.297790 0.237590
0.595117 0.304517 0.244317
0.692045 0.311245 0.251045
0.788972 0.317972 0.257772
0.885900 0.324700 0.264500
0.123687 0.374287 0.223887
0.220615 0.381015 0.230615
0.317543 0.387742 0.237342
0.414470 0.394470 0.244070
0.511397 0.401197 0.250798
0.608325 0.407925 0.257525
0.705252 0.414652 0.264253
0.802180 0.421380 0.270980
0.899107 0.428107 0.277707
0.136895 0.477695 0.237095
0.233822 0.484422 0.243822
0.330750 0.491150 0.250550
0.427678 0.497877 0.257277
0.524605 0.504605 0.264005
0.621532 0.511332 0.270732
0.718460 0.518060 0.277460
0.815387 0.524787 0.284188
0.912315 0.531515 0.290915
0.150102 0.581102 0.250302
0.247030 0.587830 0.257030
0.343957 0.594557 0.263757
0.440885 0.601285 0.270485
0.537813 0.608012 0.277212
0.634740 0.614740 0.283940
0.731667 0.621467 0.290667
0.828595 0.628195 0.297395
0.925522 0.634922 0.304122
0.163310 0.684510 0.263510
0.260238 0.691237 0.270238
0.357165 0.697965 0.276965
0.454093 0.704692 0.283693
0.551020 0.711420 0.290420
0.647947 0.718147 0.297148
0.744875 0.724875 0.303875
0.841803 0.731602 0.310603
0.938730 0.738330 0.317330
0.176517 0.787917 0.276717
0.273445 0.794645 0.283445
0.370372 0.801372 0.290172
0.467300 0.808100 0.296900
0.564227 0.814827 0.303627
0.661155 0.821555 0.310355
0.758082 0.828282 0.317083
0.855010 0.835010 0.323810
0.951937 0.841737 0.330538
0.189725 0.891325 0.289925
0.286653 0.898052 0.296652
0.383580 0.904780 0.303380
0.480507 0.911507 0.310107
0.577435 0.918235 0.316835
0.674362 0.924962 0.323562
0.771290 0.931690 0.330290
0.868217 0.938417 0.337017
0.965145 0.945145 0.343745
0.086630 0.066630 0.277030
0.183557 0.073357 0.283757
0.280485 0.080085 0.290485
0.377413 0.086812 0.297212
0.474340 0.093540 0.303940
0.571267 0.100267 0.310667
0.668195 0.106995 0.317395
0.765122 0.113723 0.324122
0.862050 0.120450 0.330850
0.099837 0.170038 0.290237
0.196765 0.176765 0.296965
0.293693 0.183493 0.303693
0.390620 0.190220 0.310420
0.487548 0.196947 0.317148
0.584475 0.203675 0.323875
0.681402 0.210402 0.330603
0.778330 0.217130 0.337330
0.875257 0.223857 0.344058
0.113045 0.273445 0.303445
0.209972 0.280172 0.310172
0.306900 0.286900 0.316900
0.403828 0.293627 0.323627
0.500755 0.300355 0.330355
0.597683 0.307082 0.337082
0.694610 0.313810 0.343810
0.791538 0.320537 0.350537
0.888465 0.327265 0.357265
0.126252 0.376852 0.316653
0.223180 0.383580 0.323380
0.320107 0.390308 0.330107
0.417035 0.397035 0.336835
0.513962 0.403763 0.343562
0.610890 0.410490 0.350290
0.707817 0.417218 0.357017
0.804745 0.423945 0.363745
0.901672 0.430673 0.370472
0.139460 0.480260 0.329860
0.236388 0.486988 0.336587
0.333315 0.493715 0.343315
0.430243 0.500443 0.350043
0.527170 0.507170 0.356770
0.624097 0.513898 0.363497
0.721025 0.520625 0.370225
0.817952 0.527353 0.376953
0.914880 0.534080 0.383680
0.152667 0.583668 0.343067
0.249595 0.590395 0.349795
0.346522 0.597123 0.356522
0.443450 0.603850 0.363250
0.540377 0.610577 0.369977
0.637305 0.617305 0.376705
0.734232 0.624032 0.383432
0.831160 0.630760 0.390160
0.928087 0.637487 0.396887
0.165875 0.687075 0.356275
0.262802 0.693802 0.363003
0.359730 0.700530 0.369730
0.456657 0.707257 0.376458
0.553585 0.713985 0.383185
0.650512 0.720712 0.389912
0.747440 0.727440 0.396640
0.844367 0.734167 0.403367
0.941295 0.740895 0.410095
0.179082 0.790482 0.369482
0.276010 0.797210 0.376210
0.372937 0.803937 0.382937
0.469865 0.810665 0.389665
0.566793 0.817392 0.396392
0.663720 0.824120 0.403120
0.760647 0.830847 0.409848
0.857575 0.837575 0.416575
0.954502 0.844302 0.423302
0.192290 0.893890 0.382690
0.289218 0.900617 0.389417
0.386145 0.907345 0.396145
0.483073 0.914072 0.402872
0.580000 0.920800 0.409600
0.676927 0.927527 0.416327
0.773855 0.934255 0.423055
0.870783 0.940982 0.429782
0.967710 0.947710 0.436510
0.089195 0.069195 0.369795
0.186122 0.075922 0.376522
0.283050 0.082650 0.383250
0.379978 0.089377 0.389977
0.476905 0.096105 0.396705
0.573832 0.102832 0.403432
0.670760 0.109560 0.410160
0.767687 0.116287 0.416887
0.864615 0.123015 0.423615
0.102402 0.172602 0.383003
0.199330 0.179330 0.389730
0.296258 0.186057 0.396458
0.393185 0.192785 0.403185
0.490113 0.199513 0.409913
0.587040 0.206240 0.416640
0.683967 0.212968 0.423368
0.780895 0.219695 0.430095
0.877822 0.226422 0.436823
0.115610 0.276010 0.396210
0.212537 0.282737 0.402938
0.309465 0.289465 0.409665
0.406393 0.296192 0.416393
0.503320 0.302920 0.423120
0.600247 0.309647 0.429848
0.697175 0.316375 0.436575
0.794102 0.323102 0.443303
0.891030 0.329830 0.450030
0.128817 0.379418 0.409417
0.225745 0.386145 0.416145
0.322672 0.392873 0.422872
0.419600 0.399600 0.429600
0.516528 0.406328 0.436327
0.613455 0.413055 0.443055
0.710382 0.419783 0.449782
0.807310 0.426510 0.456510
0.904237 0.433237 0.463237
0.142025 0.482825 0.422625
0.238952 0.489553 0.429353
0.335880 0.496280 0.436080
0.432808 0.503008 0.442808
0.529735 0.509735 0.449535
0.626662 0.516463 0.456263
0.723590 0.523190 0.462990
0.820518 0.529918 0.469718
0.917445 0.536645 0.476445
0.155232 0.586232 0.435832
0.252160 0.592960 0.442560
0.349087 0.599687 0.449287
0.446015 0.606415 0.456015
0.542942 0.613142 0.462742
0.639870 0.619870 0.469470
0.736797 0.626597 0.476197
0.833725 0.633325 0.482925
0.930652 0.640052 0.489653
0.168440 0.689640 0.449040
0.265367 0.696367 0.455767
0.362295 0.703095 0.462495
0.459222 0.709822 0.469222
0.556150 0.716550 0.475950
0.653077 0.723277 0.482677
0.750005 0.730005 0.489405
0.846932 0.736732 0.496132
0.943860 0.743460 0.502860
0.181647 0.793047 0.462248
0.278575 0.799775 0.468975
0.375502 0.806502 0.475703
0.472430 0.813230 0.482430
0.569357 0.819957 0.489158
0.666285 0.826685 0.495885
0.763212 0.833412 0.502613
0.860140 0.840140 0.509340
0.957067 0.846867 0.516068
0.194855 0.896455 0.475455
0.291783 0.903182 0.482182
0.388710 0.909910 0.488910
0.485637 0.916637 0.495637
0.582565 0.923365 0.502365
0.679492 0.930092 0.509092
0.776420 0.936820 0.515820
0.873347 0.943547 0.522548
0.970275 0.950275 0.529275
0.091760 0.071760 0.462560
0.188687 0.078487 0.469287
0.285615 0.085215 0.476015
0.382543 0.091942 0.482742
0.479470 0.098670 0.489470
0.576398 0.105397 0.496197
0.673325 0.112125 0.502925
0.770253 0.118852 0.509652
0.867180 0.125580 0.516380
0.104967 0.175168 0.475768
0.201895 0.181895 0.482495
0.298822 0.188622 0.489223
0.395750 0.195350 0.495950
0.492678 0.202077 0.502677
0.589605 0.208805 0.509405
0.686532 0.215533 0.516132
0.783460 0.222260 0.522860
0.880387 0.228988 0.529587
0.118175 0.278575 0.488975
0.215103 0.285302 0.495703
0.312030 0.292030 0.502430
0.408958 0.298757 0.509158
0.505885 0.305485 0.515885
0.602812 0.312212 0.522613
0.699740 0.318940 0.529340
0.796667 0.325667 0.536068
0.893595 0.332395 0.542795
0.131382 0.381983 0.502182
0.228310 0.388710 0.508910
0.325237 0.395437 0.515637
0.422165 0.402165 0.522365
0.519092 0.408892 0.529092
0.616020 0.415620 0.535820
0.712947 0.422347 0.542548
0.809875 0.429075 0.549275
0.906802 0.435802 0.556003
0.144590 0.485390 0.515390
0.241517 0.492117 0.522118
0.338445 0.498845 0.528845
0.435373 0.505572 0.535573
0.532300 0.512300 0.542300
0.629227 0.519027 0.549028
0.726155 0.525755 0.555755
0.823082 0.532482 0.562482
0.920010 0.539210 0.569210
0.157797 0.588797 0.528598
0.254725 0.595525 0.535325
0.351652 0.602252 0.542053
0.448580 0.608980 0.548780
0.545508 0.615707 0.555508
0.642435 0.622435 0.562235
0.739362 0.629162 0.568963
0.836290 0.635890 0.575690
0.933217 0.642617 0.582418
0.171005 0.692205 0.541805
0.267933 0.698932 0.548533
0.364860 0.705660 0.555260
0.461788 0.712387 0.561988
0.558715 0.719115 0.568715
0.655642 0.725842 0.575443
0.752570 0.732570 0.582170
0.849498 0.739297 0.588898
0.946425 0.746025 0.595625
0.184212 0.795612 0.555013
0.281140 0.802340 0.561740
0.378068 0.809067 0.568468
0.474995 0.815795 0.575195
0.571923 0.822522 0.581923
0.668850 0.829250 0.588650
0.765777 0.835978 0.595378
0.862705 0.842705 0.602105
0.959632 0.849432 0.608832
0.197420 0.899020 0.568220
0.294348 0.905747 0.574948
0.391275 0.912475 0.581675
0.488203 0.919202 0.588403
0.585130 0.925930 0.595130
0.682057 0.932657 0.601858
0.778985 0.939385 0.608585
0.875912 0.946112 0.615313
0.972840 0.952840 0.622040
0.094325 0.074325 0.555325
0.191252 0.081052 0.562052
0.288180 0.087780 0.568780
0.385108 0.094507 0.575507
0.482035 0.101235 0.582235
0.578962 0.107962 0.588962
0.675890 0.114690 0.595690
0.772817 0.121417 0.602417
0.869745 0.128145 0.609145
0.107532 0.177733 0.568532
0.204460 0.184460 0.575260
0.301387 0.191188 0.581987
0.398315 0.197915 0.588715
0.495243 0.204643 0.595442
0.592170 0.211370 0.602170
0.689097 0.218097 0.608897
0.786025 0.224825 0.615625
0.882952 0.231552 0.622352
0.120740 0.281140 0.581740
0.217667 0.287867 0.588468
0.314595 0.294595 0.595195
0.411523 0.301322 0.601923
0.508450 0.308050 0.608650
0.605378 0.314777 0.615378
0.702305 0.321505 0.622105
0.799233 0.328232 0.628833
0.896160 0.334960 0.635560
0.133947 0.384547 0.594947
0.230875 0.391275 0.601675
0.327802 0.398003 0.608402
0.424730 0.404730 0.615130
0.521657 0.411458 0.621857
0.618585 0.418185 0.628585
0.715512 0.424913 0.635312
0.812440 0.431640 0.642040
0.909367 0.438368 0.648767
0.147155 0.487955 0.608155
0.244082 0.494683 0.614882
0.341010 0.501410 0.621610
0.437938 0.508138 0.628337
0.534865 0.514865 0.635065
0.631792 0.521593 0.641792
0.728720 0.528320 0.648520
0.825647 0.535048 0.655247
0.922575 0.541775 0.661975
0.160362 0.591362 0.621362
0.257290 0.598090 0.628090
0.354217 0.604818 0.634818
0.451145 0.611545 0.641545
0.548072 0.618273 0.648273
0.645000 0.625000 0.655000
0.741927 0.631727 0.661728
0.838855 0.638455 0.668455
0.935782 0.645182 0.675183
0.173570 0.694770 0.634570
0.270498 0.701497 0.641297
0.367425 0.708225 0.648025
0.464353 0.714952 0.654752
0.561280 0.721680 0.661480
0.658207 0.728407 0.668207
0.755135 0.735135 0.674935
0.852062 0.741862 0.681662
0.948990 0.748590 0.688390
0.186777 0.798177 0.647778
0.283705 0.804905 0.654505
0.380632 0.811632 0.661233
0.477560 0.818360 0.667960
0.574488 0.825087 0.674687
0.671415 0.831815 0.681415
0.768342 0.838542 0.688142
0.865270 0.845270 0.694870
0.962197 0.851997 0.701597
0.199985 0.901585 0.660985
0.296913 0.908312 0.667712
0.393840 0.915040 0.674440
0.490768 0.921767 0.681167
0.587695 0.928495 0.687895
0.684622 0.935222 0.694622
0.781550 0.941950 0.701350
0.878478 0.948677 0.708077
0.975405 0.955405 0.714805
0.096890 0.076890 0.648090
0.193818 0.083617 0.654817
0.290745 0.090345 0.661545
0.387673 0.097072 0.668272
0.484600 0.103800 0.675000
0.581527 0.110527 0.681727
0.678455 0.117255 0.688455
0.775382 0.123982 0.695182
0.872310 0.130710 0.701910
0.110098 0.180297 0.661297
0.207025 0.187025 0.668025
0.303953 0.193752 0.674752
0.400880 0.200480 0.681480
0.497808 0.207207 0.688207
0.594735 0.213935 0.694935
0.691662 0.220663 0.701662
0.788590 0.227390 0.708390
0.885517 0.234118 0.715117
0.123305 0.283705 0.674505
0.220232 0.290432 0.681232
0.317160 0.297160 0.687960
0.414087 0.303887 0.694687
0.511015 0.310615 0.701415
0.607942 0.317342 0.708142
0.704870 0.324070 0.714870
0.801797 0.330797 0.721597
0.898725 0.337525 0.728325
0.136512 0.387112 0.687712
0.233440 0.393840 0.694440
0.330367 0.400568 0.701167
0.427295 0.407295 0.707895
0.524223 0.414023 0.714622
0.621150 0.420750 0.721350
0.718077 0.427478 0.728077
0.815005 0.434205 0.734805
0.911932 0.440933 0.741532
0.149720 0.490520 0.700920
0.246647 0.497248 0.707647
0.343575 0.503975 0.714375
0.440503 0.510703 0.721102
0.537430 0.517430 0.727830
0.634358 0.524158 0.734557
0.731285 0.530885 0.741285
0.828213 0.537613 0.748012
0.925140 0.544340 0.754740
0.162927 0.593927 0.714127
0.259855 0.600655 0.720855
0.356783 0.607382 0.727582
0.453710 0.614110 0.734310
0.550638 0.620837 0.741037
0.647565 0.627565 0.747765
0.744492 0.634292 0.754492
0.841420 0.641020 0.761220
0.938347 0.647747 0.767947
0.176135 0.697335 0.727335
0.273062 0.704062 0.734062
0.369990 0.710790 0.740790
0.466917 0.717517 0.747517
0.563845 0.724245 0.754245
0.660772 0.730972 0.760972
0.757700 0.737700 0.767700
0.854627 0.744427 0.774427
0.951555 0.751155 0.781155
0.189342 0.800742 0.740542
0.286270 0.807470 0.747270
0.383197 0.814197 0.753997
0.480125 0.820925 0.760725
0.577052 0.827652 0.767452
0.673980 0.834380 0.774180
0.770907 0.841108 0.780907
0.867835 0.847835 0.787635
0.964762 0.854562 0.794362
0.202550 0.904150 0.753750
0.299478 0.910877 0.760477
0.396405 0.917605 0.767205
0.493333 0.924332 0.773932
0.590260 0.931060 0.780660
0.687187 0.937787 0.787387
0.784115 0.944515 0.794115
0.881042 0.951242 0.800842
0.977970 0.957970 0.807570
0.099455 0.079455 0.740855
0.196382 0.086182 0.747583
0.293310 0.092910 0.754310
0.390238 0.099637 0.761038
0.487165 0.106365 0.767765
0.584093 0.113092 0.774493
0.681020 0.119820 0.781220
0.777948 0.126547 0.787948
0.874875 0.133275 0.794675
0.112662 0.182863 0.754062
0.209590 0.189590 0.760790
0.306517 0.196318 0.767517
0.403445 0.203045 0.774245
0.500372 0.209773 0.780972
0.597300 0.216500 0.787700
0.694227 0.223228 0.794427
0.791155 0.229955 0.801155
0.888082 0.236683 0.807882
0.125870 0.286270 0.767270
0.222797 0.292997 0.773998
0.319725 0.299725 0.780725
0.416653 0.306452 0.787452
0.513580 0.313180 0.794180
0.610507 0.319907 0.800907
0.707435 0.326635 0.807635
0.804362 0.333362 0.814362
0.901290 0.340090 0.821090
0.139077 0.389678 0.780477
0.236005 0.396405 0.787205
0.332932 0.403133 0.793932
0.429860 0.409860 0.800660
0.526787 0.416587 0.807387
0.623715 0.423315 0.814115
0.720642 0.430042 0.820842
0.817570 0.436770 0.827570
0.914497 0.443497 0.834297
0.152285 0.493085 0.793685
0.249212 0.499812 0.800412
0.346140 0.506540 0.807140
0.443068 0.513267 0.813867
0.539995 0.519995 0.820595
0.636922 0.526722 0.827322
0.733850 0.533450 0.834050
0.830777 0.540177 0.840777
0.927705 0.546905 0.847505
0.165492 0.596492 0.806893
0.262420 0.603220 0.813620
0.359347 0.609947 0.820348
0.456275 0.616675 0.827075
0.553203 0.623402 0.833803
0.650130 0.630130 0.840530
0.747057 0.636857 0.847257
0.843985 0.643585 0.853985
0.940912 0.650312 0.860712
0.178700 0.699900 0.820100
0.275628 0.706627 0.826827
0.372555 0.713355 0.833555
0.469483 0.720082 0.840282
0.566410 0.726810 0.847010
0.663337 0.733537 0.853738
0.760265 0.740265 0.860465
0.857193 0.746992 0.867193
0.954120 0.753720 0.873920
0.191907 0.803307 0.833307
0.288835 0.810035 0.840035
0.385763 0.816762 0.846762
0.482690 0.823490 0.853490
0.579618 0.830217 0.860217
0.676545 0.836945 0.866945
0.773472 0.843672 0.873672
0.870400 0.850400 0.880400
0.967327 0.857127 0.887127
0.205115 0.906715 0.846515
0.302042 0.913442 0.853243
0.398970 0.920170 0.859970
0.495897 0.926897 0.866698
0.592825 0.933625 0.873425
0.689752 0.940352 0.880153
0.786680 0.947080 0.886880
0.883607 0.953807 0.893607
0.980535 0.960535 0.900335
0.102020 0.082020 0.833620
0.198947 0.088747 0.840347
0.295875 0.095475 0.847075
0.392803 0.102203 0.853802
0.489730 0.108930 0.860530
0.586657 0.115657 0.867257
0.683585 0.122385 0.873985
0.780512 0.129112 0.880712
0.877440 0.135840 0.887440
0.115227 0.185427 0.846827
0.212155 0.192155 0.853555
0.309082 0.198882 0.860282
0.406010 0.205610 0.867010
0.502938 0.212338 0.873737
0.599865 0.219065 0.880465
0.696792 0.225793 0.887192
0.793720 0.232520 0.893920
0.890647 0.239248 0.900647
0.128435 0.288835 0.860035
0.225362 0.295562 0.866762
0.322290 0.302290 0.873490
0.419218 0.309017 0.880217
0.516145 0.315745 0.886945
0.613072 0.322472 0.893672
0.710000 0.329200 0.900400
0.806928 0.335927 0.907127
0.903855 0.342655 0.913855
0.141642 0.392242 0.873242
0.238570 0.398970 0.879970
0.335498 0.405697 0.886697
0.432425 0.412425 0.893425
0.529353 0.419152 0.900152
0.626280 0.425880 0.906880
0.723207 0.432607 0.913607
0.820135 0.439335 0.920335
0.917062 0.446062 0.927062
0.154850 0.495650 0.886450
0.251777 0.502378 0.893177
0.348705 0.509105 0.899905
0.445632 0.515833 0.906632
0.542560 0.522560 0.913360
0.639487 0.529288 0.920087
0.736415 0.536015 0.926815
0.833342 0.542743 0.933542
0.930270 0.549470 0.940270
0.168057 0.599057 0.899657
0.264985 0.605785 0.906385
0.361912 0.612512 0.913112
0.458840 0.619240 0.919840
0.555767 0.625967 0.926567
0.652695 0.632695 0.933295
0.749622 0.639422 0.940022
0.846550 0.646150 0.946750
0.943477 0.652877 0.953477
0.181265 0.702465 0.912865
0.278193 0.709192 0.919592
0.375120 0.715920 0.926320
0.472048 0.722647 0.933047
0.568975 0.729375 0.939775
0.665902 0.736102 0.946502
0.762830 0.742830 0.953230
0.859757 0.749557 0.959957
0.956685 0.756285 0.966685
0.194472 0.805872 0.926072
0.291400 0.812600 0.932800
0.388327 0.819327 0.939527
0.485255 0.826055 0.946255
0.582183 0.832782 0.952982
0.679110 0.839510 0.959710
0.776037 0.846237 0.966437
0.872965 0.852965 0.973165
0.969892 0.859692 0.979892
0.207680 0.909280 0.939280
0.304608 0.916007 0.946007
0.401535 0.922735 0.952735
0.498463 0.929462 0.959462
0.595390 0.936190 0.966190
0.692317 0.942917 0.972917
0.789245 0.949645 0.979645
0.886173 0.956372 0.986372
0.983100 0.963100 0.993100
