aicampro/assets/luts/05_vintage_fade.cube
TITLE "Vintage Fade"
LUT_3D_SIZE 17
DOMAIN_MIN 0.0 0.0 0.0
DOMAIN_MAX 1.0 1.0 1.0
0.081500 0.061500 0.091500
0.129964 0.064864 0.094864
0.178427 0.068227 0.098227
0.226891 0.071591 0.101591
0.275355 0.074955 0.104955
0.323819 0.078319 0.108319
0.372283 0.081682 0.111682
0.420746 0.085046 0.115046
0.469210 0.088410 0.118410
0.517674 0.091774 0.121774
0.566137 0.095137 0.125137
0.614601 0.098501 0.128501
0.663065 0.101865 0.131865
0.711529 0.105229 0.135229
0.759992 0.108592 0.138592
0.808456 0.111956 0.141956
0.856920 0.115320 0.145320
0.088104 0.113204 0.098104
0.136568 0.116568 0.101467
0.185031 0.119931 0.104831
0.233495 0.123295 0.108195
0.281959 0.126659 0.111559
0.330423 0.130022 0.114922
0.378886 0.133386 0.118286
0.427350 0.136750 0.121650
0.475814 0.140114 0.125014
0.524277 0.143477 0.128377
0.572741 0.146841 0.131741
0.621205 0.150205 0.135105
0.669669 0.153569 0.138469
0.718132 0.156933 0.141833
0.766596 0.160296 0.145196
0.815060 0.163660 0.148560
0.863524 0.167024 0.151924
0.094708 0.164908 0.104707
0.143171 0.168271 0.108071
0.191635 0.171635 0.111435
0.240099 0.174999 0.114799
0.288562 0.178363 0.118162
0.337026 0.181726 0.121526
0.385490 0.185090 0.124890
0.433954 0.188454 0.128254
0.482417 0.191818 0.131617
0.530881 0.195181 0.134981
0.579345 0.198545 0.138345
0.627809 0.201909 0.141709
0.676272 0.205272 0.145072
0.724736 0.208636 0.148436
0.773200 0.212000 0.151800
0.821664 0.215364 0.155164
0.870127 0.218728 0.158527
0.101311 0.216611 0.111311
0.149775 0.219975 0.114675
0.198239 0.223339 0.118039
0.246702 0.226702 0.121402
0.295166 0.230066 0.124766
0.343630 0.233430 0.128130
0.392094 0.236794 0.131494
0.440557 0.240157 0.134857
0.489021 0.243521 0.138221
0.537485 0.246885 0.141585
0.585949 0.250249 0.144949
0.634412 0.253612 0.148312
0.682876 0.256976 0.151676
0.731340 0.260340 0.155040
0.779804 0.263704 0.158404
0.828267 0.267067 0.161767
0.876731 0.270431 0.165131
0.107915 0.268315 0.117915
0.156379 0.271679 0.121279
0.204842 0.275042 0.124642
0.253306 0.278406 0.128006
0.301770 0.281770 0.131370
0.350234 0.285134 0.134734
0.398698 0.288497 0.138097
0.447161 0.291861 0.141461
0.495625 0.295225 0.144825
0.544089 0.298589 0.148189
0.592552 0.301952 0.151552
0.641016 0.305316 0.154916
0.689480 0.308680 0.158280
0.737944 0.312044 0.161644
0.786407 0.315407 0.165007
0.834871 0.318771 0.168371
0.883335 0.322135 0.171735
0.114519 0.320019 0.124519
0.162982 0.323383 0.127882
0.211446 0.326746 0.131246
0.259910 0.330110 0.134610
0.308374 0.333474 0.137974
0.356838 0.336838 0.141337
0.405301 0.340201 0.144701
0.453765 0.343565 0.148065
0.502229 0.346929 0.151429
0.550692 0.350293 0.154792
0.599156 0.353656 0.158156
0.647620 0.357020 0.161520
0.696084 0.360384 0.164884
0.744547 0.363748 0.168247
0.793011 0.367111 0.171611
0.841475 0.370475 0.174975
0.889939 0.373839 0.178339
0.121122 0.371723 0.131122
0.169586 0.375086 0.134486
0.218050 0.378450 0.137850
0.266514 0.381814 0.141214
0.314978 0.385178 0.144577
0.363441 0.388541 0.147941
0.411905 0.391905 0.151305
0.460369 0.395269 0.154669
0.508833 0.398633 0.158032
0.557296 0.401996 0.161396
0.605760 0.405360 0.164760
0.654224 0.408724 0.168124
0.702687 0.412087 0.171487
0.751151 0.415451 0.174851
0.799615 0.418815 0.178215
0.848079 0.422179 0.181579
0.896542 0.425542 0.184942
0.127726 0.423426 0.137726
0.176190 0.426790 0.141090
0.224654 0.430154 0.144454
0.273118 0.433518 0.147817
0.321581 0.436881 0.151181
0.370045 0.440245 0.154545
0.418509 0.443609 0.157909
0.466973 0.446972 0.161272
0.515436 0.450336 0.164636
0.563900 0.453700 0.168000
0.612364 0.457064 0.171364
0.660827 0.460427 0.174727
0.709291 0.463791 0.178091
0.757755 0.467155 0.181455
0.806219 0.470519 0.184819
0.854682 0.473882 0.188182
0.903146 0.477246 0.191546
0.134330 0.475130 0.144330
0.182794 0.478494 0.147694
0.231257 0.481857 0.151057
0.279721 0.485221 0.154421
0.328185 0.488585 0.157785
0.376649 0.491949 0.161149
0.425113 0.495312 0.164512
0.473576 0.498676 0.167876
0.522040 0.502040 0.171240
0.570504 0.505404 0.174604
0.618968 0.508768 0.177968
0.667431 0.512131 0.181331
0.715895 0.515495 0.184695
0.764359 0.518859 0.188059
0.812823 0.522223 0.191422
0.861286 0.525586 0.194786
0.909750 0.528950 0.198150
0.140934 0.526834 0.150934
0.189397 0.530197 0.154297
0.237861 0.533561 0.157661
0.286325 0.536925 0.161025
0.334789 0.540289 0.164389
0.383253 0.543652 0.167752
0.431716 0.547016 0.171116
0.480180 0.550380 0.174480
0.528644 0.553744 0.177844
0.577107 0.557107 0.181207
0.625571 0.560471 0.184571
0.674035 0.563835 0.187935
0.722499 0.567199 0.191299
0.770962 0.570562 0.194662
0.819426 0.573926 0.198026
0.867890 0.577290 0.201390
0.916354 0.580654 0.204754
0.147537 0.578537 0.157537
0.196001 0.581901 0.160901
0.244465 0.585265 0.164265
0.292929 0.588629 0.167629
0.341392 0.591992 0.170992
0.389856 0.595356 0.174356
0.438320 0.598720 0.177720
0.486784 0.602084 0.181084
0.535247 0.605447 0.184447
0.583711 0.608811 0.187811
0.632175 0.612175 0.191175
0.680639 0.615539 0.194539
0.729102 0.618902 0.197902
0.777566 0.622266 0.201266
0.826030 0.625630 0.204630
0.874494 0.628994 0.207994
0.922957 0.632357 0.211357
0.154141 0.630241 0.164141
0.202605 0.633605 0.167505
0.251069 0.636969 0.170869
0.299532 0.640332 0.174232
0.347996 0.643696 0.177596
0.396460 0.647060 0.180960
0.444924 0.650424 0.184324
0.493387 0.653787 0.187688
0.541851 0.657151 0.191051
0.590315 0.660515 0.194415
0.638779 0.663879 0.197779
0.687242 0.667242 0.201142
0.735706 0.670606 0.204506
0.784170 0.673970 0.207870
0.832634 0.677334 0.211234
0.881097 0.680697 0.214597
0.929561 0.684061 0.217961
0.160745 0.681945 0.170745
0.209209 0.685309 0.174109
0.257673 0.688672 0.177472
0.306136 0.692036 0.180836
0.354600 0.695400 0.184200
0.403064 0.698764 0.187564
0.451528 0.702127 0.190927
0.499991 0.705491 0.194291
0.548455 0.708855 0.197655
0.596919 0.712219 0.201019
0.645382 0.715582 0.204382
0.693846 0.718946 0.207746
0.742310 0.722310 0.211110
0.790774 0.725674 0.214474
0.839237 0.729037 0.217837
0.887701 0.732401 0.221201
0.936165 0.735765 0.224565
0.167349 0.733649 0.177349
0.215812 0.737012 0.180712
0.264276 0.740376 0.184076
0.312740 0.743740 0.187440
0.361204 0.747104 0.190804
0.409668 0.750467 0.194167
0.458131 0.753831 0.197531
0.506595 0.757195 0.200895
0.555059 0.760559 0.204259
0.603522 0.763922 0.207622
0.651986 0.767286 0.210986
0.700450 0.770650 0.214350
0.748914 0.774014 0.217714
0.797377 0.777377 0.221077
0.845841 0.780741 0.224441
0.894305 0.784105 0.227805
0.942769 0.787469 0.231169
0.173952 0.785352 0.183952
0.222416 0.788716 0.187316
0.270880 0.792080 0.190680
0.319344 0.795444 0.194044
0.367807 0.798807 0.197407
0.416271 0.802171 0.200771
0.464735 0.805535 0.204135
0.513199 0.808899 0.207499
0.561662 0.812262 0.210862
0.610126 0.815626 0.214226
0.658590 0.818990 0.217590
0.707054 0.822354 0.220954
0.755517 0.825717 0.224318
0.803981 0.829081 0.227681
0.852445 0.832445 0.231045
0.900909 0.835809 0.234409
0.949372 0.839172 0.237772
0.180556 0.837056 0.190556
0.229020 0.840420 0.193920
0.277484 0.843784 0.197284
0.325948 0.847147 0.200647
0.374411 0.850511 0.204011
0.422875 0.853875 0.207375
0.471339 0.857239 0.210739
0.519802 0.860602 0.214102
0.568266 0.863966 0.217466
0.616730 0.867330 0.220830
0.665194 0.870694 0.224194
0.713657 0.874057 0.227557
0.762121 0.877421 0.230921
0.810585 0.880785 0.234285
0.859049 0.884149 0.237649
0.907512 0.887512 0.241012
0.955976 0.890876 0.244376
0.187160 0.888760 0.197160
0.235624 0.892124 0.200524
0.284088 0.895487 0.203887
0.332551 0.898851 0.207251
0.381015 0.902215 0.210615
0.429479 0.905579 0.213979
0.477943 0.908942 0.217342
0.526406 0.912306 0.220706
0.574870 0.915670 0.224070
0.623334 0.919034 0.227434
0.671797 0.922397 0.230797
0.720261 0.925761 0.234161
0.768725 0.929125 0.237525
0.817189 0.932489 0.240889
0.865652 0.935852 0.244252
0.914116 0.939216 0.247616
0.962580 0.942580 0.250980
0.082782 0.062782 0.137883
0.131246 0.066146 0.141246
0.179710 0.069510 0.144610
0.228174 0.072874 0.147974
0.276637 0.076237 0.151338
0.325101 0.079601 0.154701
0.373565 0.082965 0.158065
0.422029 0.086329 0.161429
0.470493 0.089692 0.164792
0.518956 0.093056 0.168156
0.567420 0.096420 0.171520
0.615884 0.099784 0.174884
0.664347 0.103147 0.178248
0.712811 0.106511 0.181611
0.761275 0.109875 0.184975
0.809739 0.113239 0.188339
0.858202 0.116602 0.191702
0.089386 0.114486 0.144486
0.137850 0.117850 0.147850
0.186314 0.121214 0.151214
0.234777 0.124578 0.154578
0.283241 0.127941 0.157941
0.331705 0.131305 0.161305
0.380169 0.134669 0.164669
0.428632 0.138033 0.168033
0.477096 0.141396 0.171396
0.525560 0.144760 0.174760
0.574024 0.148124 0.178124
0.622487 0.151487 0.181487
0.670951 0.154851 0.184851
0.719415 0.158215 0.188215
0.767879 0.161579 0.191579
0.816342 0.164942 0.194942
0.864806 0.168306 0.198306
0.095990 0.166190 0.151090
0.144454 0.169554 0.154454
0.192917 0.172918 0.157817
0.241381 0.176281 0.161181
0.289845 0.179645 0.164545
0.338309 0.183009 0.167909
0.386773 0.186372 0.171272
0.435236 0.189736 0.174636
0.483700 0.193100 0.178000
0.532164 0.196464 0.181364
0.580627 0.199827 0.184727
0.629091 0.203191 0.188091
0.677555 0.206555 0.191455
0.726019 0.209919 0.194819
0.774482 0.213282 0.198182
0.822946 0.216646 0.201546
0.871410 0.220010 0.204910
0.102594 0.217894 0.157694
0.151057 0.221257 0.161057
0.199521 0.224621 0.164421
0.247985 0.227985 0.167785
0.296449 0.231349 0.171149
0.344913 0.234712 0.174512
0.393376 0.238076 0.177876
0.441840 0.241440 0.181240
0.490304 0.244804 0.184604
0.538767 0.248167 0.187967
0.587231 0.251531 0.191331
0.635695 0.254895 0.194695
0.684159 0.258259 0.198059
0.732622 0.261622 0.201422
0.781086 0.264986 0.204786
0.829550 0.268350 0.208150
0.878014 0.271714 0.211514
0.109197 0.269597 0.164297
0.157661 0.272961 0.167661
0.206125 0.276325 0.171025
0.254589 0.279689 0.174389
0.303053 0.283052 0.177753
0.351516 0.286416 0.181116
0.399980 0.289780 0.184480
0.448444 0.293144 0.187844
0.496908 0.296507 0.191208
0.545371 0.299871 0.194571
0.593835 0.303235 0.197935
0.642299 0.306599 0.201299
0.690762 0.309962 0.204662
0.739226 0.313326 0.208026
0.787690 0.316690 0.211390
0.836154 0.320054 0.214754
0.884617 0.323417 0.218117
0.115801 0.321301 0.170901
0.164265 0.324665 0.174265
0.212729 0.328029 0.177629
0.261192 0.331393 0.180993
0.309656 0.334756 0.184356
0.358120 0.338120 0.187720
0.406584 0.341484 0.191084
0.455047 0.344848 0.194447
0.503511 0.348211 0.197811
0.551975 0.351575 0.201175
0.600439 0.354939 0.204539
0.648902 0.358303 0.207902
0.697366 0.361666 0.211266
0.745830 0.365030 0.214630
0.794294 0.368394 0.217994
0.842757 0.371758 0.221357
0.891221 0.375121 0.224721
0.122405 0.373005 0.177505
0.170869 0.376369 0.180869
0.219332 0.379733 0.184232
0.267796 0.383096 0.187596
0.316260 0.386460 0.190960
0.364724 0.389824 0.194324
0.413188 0.393188 0.197687
0.461651 0.396551 0.201051
0.510115 0.399915 0.204415
0.558579 0.403279 0.207779
0.607042 0.406643 0.211142
0.655506 0.410006 0.214506
0.703970 0.413370 0.217870
0.752434 0.416734 0.221234
0.800897 0.420098 0.224597
0.849361 0.423461 0.227961
0.897825 0.426825 0.231325
0.129009 0.424709 0.184109
0.177473 0.428072 0.187473
0.225936 0.431436 0.190836
0.274400 0.434800 0.194200
0.322864 0.438164 0.197564
0.371328 0.441527 0.200928
0.419791 0.444891 0.204291
0.468255 0.448255 0.207655
0.516719 0.451619 0.211019
0.565182 0.454982 0.214383
0.613646 0.458346 0.217746
0.662110 0.461710 0.221110
0.710574 0.465074 0.224474
0.759037 0.468438 0.227837
0.807501 0.471801 0.231201
0.855965 0.475165 0.234565
0.904429 0.478529 0.237929
0.135612 0.476413 0.190712
0.184076 0.479776 0.194076
0.232540 0.483140 0.197440
0.281004 0.486504 0.200804
0.329467 0.489868 0.204167
0.377931 0.493231 0.207531
0.426395 0.496595 0.210895
0.474859 0.499959 0.214259
0.523323 0.503323 0.217622
0.571786 0.506686 0.220986
0.620250 0.510050 0.224350
0.668714 0.513414 0.227714
0.717177 0.516778 0.231077
0.765641 0.520141 0.234441
0.814105 0.523505 0.237805
0.862569 0.526869 0.241169
0.911032 0.530232 0.244533
0.142216 0.528116 0.197316
0.190680 0.531480 0.200680
0.239144 0.534844 0.204044
0.287608 0.538207 0.207407
0.336071 0.541571 0.210771
0.384535 0.544935 0.214135
0.432999 0.548299 0.217499
0.481463 0.551662 0.220862
0.529926 0.555026 0.224226
0.578390 0.558390 0.227590
0.626854 0.561754 0.230954
0.675317 0.565117 0.234317
0.723781 0.568481 0.237681
0.772245 0.571845 0.241045
0.820709 0.575209 0.244409
0.869172 0.578572 0.247772
0.917636 0.581936 0.251136
0.148820 0.579820 0.203920
0.197284 0.583184 0.207284
0.245747 0.586547 0.210647
0.294211 0.589911 0.214011
0.342675 0.593275 0.217375
0.391139 0.596639 0.220739
0.439603 0.600002 0.224103
0.488066 0.603366 0.227466
0.536530 0.606730 0.230830
0.584994 0.610094 0.234194
0.633458 0.613457 0.237558
0.681921 0.616821 0.240921
0.730385 0.620185 0.244285
0.778849 0.623549 0.247649
0.827313 0.626912 0.251012
0.875776 0.630276 0.254376
0.924240 0.633640 0.257740
0.155424 0.631524 0.210524
0.203887 0.634887 0.213887
0.252351 0.638251 0.217251
0.300815 0.641615 0.220615
0.349279 0.644979 0.223979
0.397743 0.648342 0.227343
0.446206 0.651706 0.230706
0.494670 0.655070 0.234070
0.543134 0.658434 0.237434
0.591597 0.661797 0.240797
0.640061 0.665161 0.244161
0.688525 0.668525 0.247525
0.736989 0.671889 0.250889
0.785452 0.675252 0.254252
0.833916 0.678616 0.257616
0.882380 0.681980 0.260980
0.930844 0.685344 0.264344
0.162027 0.683227 0.217128
0.210491 0.686591 0.220491
0.258955 0.689955 0.223855
0.307419 0.693319 0.227219
0.355882 0.696682 0.230582
0.404346 0.700046 0.233946
0.452810 0.703410 0.237310
0.501274 0.706774 0.240674
0.549737 0.710137 0.244037
0.598201 0.713501 0.247401
0.646665 0.716865 0.250765
0.695129 0.720229 0.254129
0.743592 0.723592 0.257493
0.792056 0.726956 0.260856
0.840520 0.730320 0.264220
0.888984 0.733684 0.267584
0.937447 0.737047 0.270948
0.168631 0.734931 0.223731
0.217095 0.738295 0.227095
0.265559 0.741659 0.230459
0.314022 0.745022 0.233822
0.362486 0.748386 0.237186
0.410950 0.751750 0.240550
0.459414 0.755114 0.243914
0.507877 0.758477 0.247278
0.556341 0.761841 0.250641
0.604805 0.765205 0.254005
0.653269 0.768569 0.257369
0.701732 0.771932 0.260732
0.750196 0.775296 0.264096
0.798660 0.778660 0.267460
0.847124 0.782024 0.270824
0.895587 0.785387 0.274188
0.944051 0.788751 0.277551
0.175235 0.786635 0.230335
0.223699 0.789999 0.233699
0.272163 0.793362 0.237063
0.320626 0.796726 0.240426
0.369090 0.800090 0.243790
0.417554 0.803454 0.247154
0.466018 0.806817 0.250518
0.514481 0.810181 0.253881
0.562945 0.813545 0.257245
0.611409 0.816909 0.260609
0.659872 0.820272 0.263972
0.708336 0.823636 0.267336
0.756800 0.827000 0.270700
0.805264 0.830364 0.274064
0.853727 0.833727 0.277427
0.902191 0.837091 0.280791
0.950655 0.840455 0.284155
0.181839 0.838339 0.236939
0.230302 0.841702 0.240303
0.278766 0.845066 0.243666
0.327230 0.848430 0.247030
0.375694 0.851794 0.250394
0.424158 0.855157 0.253757
0.472621 0.858521 0.257121
0.521085 0.861885 0.260485
0.569549 0.865249 0.263849
0.618012 0.868612 0.267212
0.666476 0.871976 0.270576
0.714940 0.875340 0.273940
0.763404 0.878704 0.277304
0.811867 0.882067 0.280668
0.860331 0.885431 0.284031
0.908795 0.888795 0.287395
0.957259 0.892159 0.290759
0.188442 0.890042 0.243542
0.236906 0.893406 0.246906
0.285370 0.896770 0.250270
0.333834 0.900134 0.253634
0.382297 0.903497 0.256997
0.430761 0.906861 0.260361
0.479225 0.910225 0.263725
0.527689 0.913589 0.267089
0.576153 0.916952 0.270452
0.624616 0.920316 0.273816
0.673080 0.923680 0.277180
0.721544 0.927044 0.280544
0.770007 0.930407 0.283907
0.818471 0.933771 0.287271
0.866935 0.937135 0.290635
0.915399 0.940499 0.293999
0.963862 0.943862 0.297362
0.084065 0.064065 0.184265
0.132529 0.067429 0.187629
0.180993 0.070792 0.190993
0.229456 0.074156 0.194356
0.277920 0.077520 0.197720
0.326384 0.080884 0.201084
0.374848 0.084247 0.204448
0.423311 0.087611 0.207811
0.471775 0.090975 0.211175
0.520239 0.094339 0.214539
0.568702 0.097702 0.217902
0.617166 0.101066 0.221266
0.665630 0.104430 0.224630
0.714094 0.107794 0.227994
0.762557 0.111157 0.231357
0.811021 0.114521 0.234721
0.859485 0.117885 0.238085
0.090669 0.115769 0.190869
0.139132 0.119133 0.194233
0.187596 0.122496 0.197596
0.236060 0.125860 0.200960
0.284524 0.129224 0.204324
0.332988 0.132587 0.207687
0.381451 0.135951 0.211051
0.429915 0.139315 0.214415
0.478379 0.142679 0.217779
0.526842 0.146042 0.221142
0.575306 0.149406 0.224506
0.623770 0.152770 0.227870
0.672234 0.156134 0.231234
0.720697 0.159498 0.234597
0.769161 0.162861 0.237961
0.817625 0.166225 0.241325
0.866089 0.169589 0.244689
0.097272 0.167472 0.197472
0.145736 0.170836 0.200836
0.194200 0.174200 0.204200
0.242664 0.177564 0.207564
0.291127 0.180928 0.210928
0.339591 0.184291 0.214291
0.388055 0.187655 0.217655
0.436519 0.191019 0.221019
0.484983 0.194383 0.224383
0.533446 0.197746 0.227746
0.581910 0.201110 0.231110
0.630374 0.204474 0.234474
0.678837 0.207838 0.237838
0.727301 0.211201 0.241201
0.775765 0.214565 0.244565
0.824229 0.217929 0.247929
0.872692 0.221293 0.251293
0.103876 0.219176 0.204076
0.152340 0.222540 0.207440
0.200804 0.225904 0.210804
0.249267 0.229267 0.214168
0.297731 0.232631 0.217531
0.346195 0.235995 0.220895
0.394659 0.239359 0.224259
0.443122 0.242722 0.227623
0.491586 0.246086 0.230986
0.540050 0.249450 0.234350
0.588514 0.252814 0.237714
0.636977 0.256177 0.241078
0.685441 0.259541 0.244441
0.733905 0.262905 0.247805
0.782369 0.266269 0.251169
0.830832 0.269632 0.254532
0.879296 0.272996 0.257896
0.110480 0.270880 0.210680
0.158944 0.274244 0.214044
0.207407 0.277607 0.217408
0.255871 0.280971 0.220771
0.304335 0.284335 0.224135
0.352799 0.287699 0.227499
0.401263 0.291062 0.230862
0.449726 0.294426 0.234226
0.498190 0.297790 0.237590
0.546654 0.301154 0.240954
0.595117 0.304517 0.244317
0.643581 0.307881 0.247681
0.692045 0.311245 0.251045
0.740509 0.314609 0.254409
0.788972 0.317972 0.257772
0.837436 0.321336 0.261136
0.885900 0.324700 0.264500
0.117084 0.322584 0.217284
0.165547 0.325948 0.220647
0.214011 0.329311 0.224011
0.262475 0.332675 0.227375
0.310939 0.336039 0.230739
0.359403 0.339403 0.234102
0.407866 0.342766 0.237466
0.456330 0.346130 0.240830
0.504794 0.349494 0.244194
0.553257 0.352858 0.247557
0.601721 0.356221 0.250921
0.650185 0.359585 0.254285
0.698649 0.362949 0.257649
0.747112 0.366313 0.261012
0.795576 0.369676 0.264376
0.844040 0.373040 0.267740
0.892504 0.376404 0.271104
0.123687 0.374287 0.223887
0.172151 0.377651 0.227251
0.220615 0.381015 0.230615
0.269079 0.384379 0.233979
0.317543 0.387742 0.237342
0.366006 0.391106 0.240706
0.414470 0.394470 0.244070
0.462934 0.397834 0.247434
0.511397 0.401197 0.250798
0.559861 0.404561 0.254161
0.608325 0.407925 0.257525
0.656789 0.411289 0.260889
0.705252 0.414652 0.264253
0.753716 0.418016 0.267616
0.802180 0.421380 0.270980
0.850644 0.424744 0.274344
0.899107 0.428107 0.277707
0.130291 0.425991 0.230491
0.178755 0.429355 0.233855
0.227219 0.432719 0.237219
0.275682 0.436082 0.240583
0.324146 0.439446 0.243946
0.372610 0.442810 0.247310
0.421074 0.446174 0.250674
0.469537 0.449537 0.254038
0.518001 0.452901 0.257401
0.566465 0.456265 0.260765
0.614929 0.459629 0.264129
0.663392 0.462992 0.267493
0.711856 0.466356 0.270856
0.760320 0.469720 0.274220
0.808784 0.473084 0.277584
0.857247 0.476447 0.280948
0.905711 0.479811 0.284311
0.136895 0.477695 0.237095
0.185359 0.481059 0.240459
0.233822 0.484422 0.243822
0.282286 0.487786 0.247186
0.330750 0.491150 0.250550
0.379214 0.494514 0.253914
0.427678 0.497877 0.257277
0.476141 0.501241 0.260641
0.524605 0.504605 0.264005
0.573069 0.507969 0.267369
0.621532 0.511332 0.270732
0.669996 0.514696 0.274096
0.718460 0.518060 0.277460
0.766924 0.521424 0.280824
0.815387 0.524787 0.284188
0.863851 0.528151 0.287551
0.912315 0.531515 0.290915
0.143499 0.529399 0.243699
0.191962 0.532762 0.247062
0.240426 0.536126 0.250426
0.288890 0.539490 0.253790
0.337354 0.542854 0.257154
0.385818 0.546217 0.260517
0.434281 0.549581 0.263881
0.482745 0.552945 0.267245
0.531209 0.556309 0.270609
0.579672 0.559672 0.273972
0.628136 0.563036 0.277336
0.676600 0.566400 0.280700
0.725064 0.569764 0.284064
0.773527 0.573127 0.287427
0.821991 0.576491 0.290791
0.870455 0.579855 0.294155
0.918919 0.583219 0.297519
0.150102 0.581102 0.250302
0.198566 0.584466 0.253666
0.247030 0.587830 0.257030
0.295494 0.591194 0.260394
0.343957 0.594557 0.263757
0.392421 0.597921 0.267121
0.440885 0.601285 0.270485
0.489349 0.604649 0.273849
0.537813 0.608012 0.277212
0.586276 0.611376 0.280576
0.634740 0.614740 0.283940
0.683204 0.618104 0.287304
0.731667 0.621467 0.290667
0.780131 0.624831 0.294031
0.828595 0.628195 0.297395
0.877059 0.631559 0.300759
0.925522 0.634922 0.304122
0.156706 0.632806 0.256906
0.205170 0.636170 0.260270
0.253634 0.639534 0.263634
0.302098 0.642897 0.266997
0.350561 0.646261 0.270361
0.399025 0.649625 0.273725
0.447489 0.652989 0.277089
0.495953 0.656352 0.280452
0.544416 0.659716 0.283816
0.592880 0.663080 0.287180
0.641344 0.666444 0.290544
0.689807 0.669807 0.293907
0.738271 0.673171 0.297271
0.786735 0.676535 0.300635
0.835199 0.679899 0.303999
0.883662 0.683262 0.307362
0.932126 0.686626 0.310726
0.163310 0.684510 0.263510
0.211774 0.687874 0.266874
0.260238 0.691237 0.270238
0.308701 0.694601 0.273601
0.357165 0.697965 0.276965
0.405629 0.701329 0.280329
0.454093 0.704692 0.283693
0.502556 0.708056 0.287056
0.551020 0.711420 0.290420
0.599484 0.714784 0.293784
0.647947 0.718147 0.297148
0.696411 0.721511 0.300511
0.744875 0.724875 0.303875
0.793339 0.728239 0.307239
0.841803 0.731602 0.310603
0.890266 0.734966 0.313966
0.938730 0.738330 0.317330
0.169914 0.736214 0.270114
0.218377 0.739577 0.273477
0.266841 0.742941 0.276841
0.315305 0.746305 0.280205
0.363769 0.749669 0.283569
0.412233 0.753032 0.286933
0.460696 0.756396 0.290296
0.509160 0.759760 0.293660
0.557624 0.763124 0.297024
0.606087 0.766487 0.300388
0.654551 0.769851 0.303751
0.703015 0.773215 0.307115
0.751479 0.776579 0.310479
0.799942 0.779942 0.313843
0.848406 0.783306 0.317206
0.896870 0.786670 0.320570
0.945334 0.790034 0.323934
0.176517 0.787917 0.276717
0.224981 0.791281 0.280081
0.273445 0.794645 0.283445
0.321909 0.798009 0.286809
0.370372 0.801372 0.290172
0.418836 0.804736 0.293536
0.467300 0.808100 0.296900
0.515764 0.811464 0.300264
0.564227 0.814827 0.303627
0.612691 0.818191 0.306991
0.661155 0.821555 0.310355
0.709619 0.824919 0.313719
0.758082 0.828282 0.317083
0.806546 0.831646 0.320446
0.855010 0.835010 0.323810
0.903474 0.838374 0.327174
0.951937 0.841737 0.330538
0.183121 0.839621 0.283321
0.231585 0.842985 0.286685
0.280049 0.846349 0.290049
0.328512 0.849712 0.293412
0.376976 0.853076 0.296776
0.425440 0.856440 0.300140
0.473904 0.859804 0.303504
0.522367 0.863167 0.306867
0.570831 0.866531 0.310231
0.619295 0.869895 0.313595
0.667759 0.873259 0.316959
0.716222 0.876622 0.320322
0.764686 0.879986 0.323686
0.813150 0.883350 0.327050
0.861614 0.886714 0.330414
0.910077 0.890077 0.333777
0.958541 0.893441 0.337141
0.189725 0.891325 0.289925
0.238189 0.894689 0.293289
0.286653 0.898052 0.296652
0.335116 0.901416 0.300016
0.383580 0.904780 0.303380
0.432044 0.908144 0.306744
0.480507 0.911507 0.310107
0.528971 0.914871 0.313471
0.577435 0.918235 0.316835
0.625899 0.921599 0.320199
0.674362 0.924962 0.323562
0.722826 0.928326 0.326926
0.771290 0.931690 0.330290
0.819754 0.935054 0.333654
0.868217 0.938417 0.337017
0.916681 0.941781 0.340381
0.965145 0.945145 0.343745
0.085347 0.065347 0.230647
0.133811 0.068711 0.234011
0.182275 0.072075 0.237375
0.230739 0.075439 0.240739
0.279203 0.078802 0.244102
0.327666 0.082166 0.247466
0.376130 0.085530 0.250830
0.424594 0.088894 0.254194
0.473058 0.092257 0.257557
0.521521 0.095621 0.260921
0.569985 0.098985 0.264285
0.618449 0.102349 0.267649
0.666912 0.105712 0.271012
0.715376 0.109076 0.274376
0.763840 0.112440 0.277740
0.812304 0.115804 0.281104
0.860767 0.119167 0.284467
0.091951 0.117051 0.237251
