aicampro/assets/luts/05_vintage_fade.cube
TITLE "Vintage Fade"
LUT_3D_SIZE 5
DOMAIN_MIN 0.0 0.0 0.0
DOMAIN_MAX 1.0 1.0 1.0
0.081500 0.061500 0.091500
0.275355 0.074955 0.104955
0.469210 0.088410 0.118410
0.663065 0.101865 0.131865
0.856920 0.115320 0.145320
0.107915 0.268315 0.117915
0.301770 0.281770 0.131370
0.495625 0.295225 0.144825
0.689480 0.308680 0.158280
0.883335 0.322135 0.171735
0.134330 0.475130 0.144330
0.328185 0.488585 0.157785
0.522040 0.502040 0.171240
0.715895 0.515495 0.184695
0.909750 0.528950 0.198150
0.160745 0.681945 0.170745
0.354600 0.695400 0.184200
0.548455 0.708855 0.197655
0.742310 0.722310 0.211110
0.936165 0.735765 0.224565
0.187160 0.888760 0.197160
0.381015 0.902215 0.210615
0.574870 0.915670 0.224070
0.768725 0.929125 0.237525
0.962580 0.942580 0.250980
0.086630 0.066630 0.277030
0.280485 0.080085 0.290485
0.474340 0.093540 0.303940
0.668195 0.106995 0.317395
0.862050 0.120450 0.330850
0.113045 0.273445 0.303445
0.306900 0.286900 0.316900
0.500755 0.300355 0.330355
0.694610 0.313810 0.343810
0.888465 0.327265 0.357265
0.139460 0.480260 0.329860
0.333315 0.493715 0.343315
0.527170 0.507170 0.356770
0.721025 0.520625 0.370225
0.914880 0.534080 0.383680
0.165875 0.687075 0.356275
0.359730 0.700530 0.369730
0.553585 0.713985 0.383185
0.747440 0.727440 0.396640
0.941295 0.740895 0.410095
0.192290 0.893890 0.382690
0.386145 0.907345 0.396145
0.580000 0.920800 0.409600
0.773855 0.934255 0.423055
0.967710 0.947710 0.436510
0.091760 0.071760 0.462560
0.285615 0.085215 0.476015
0.479470 0.098670 0.489470
0.673325 0.112125 0.502925
0.867180 0.125580 0.516380
0.118175 0.278575 0.488975
0.312030 0.292030 0.502430
0.505885 0.305485 0.515885
0.699740 0.318940 0.529340
0.893595 0.332395 0.542795
0.144590 0.485390 0.515390
0.338445 0.498845 0.528845
0.532300 0.512300 0.542300
0.726155 0.525755 0.555755
0.920010 0.539210 0.569210
0.171005 0.692205 0.541805
0.364860 0.705660 0.555260
0.558715 0.719115 0.568715
0.752570 0.732570 0.582170
0.946425 0.746025 0.595625
0.197420 0.899020 0.568220
0.391275 0.912475 0.581675
0.585130 0.925930 0.595130
0.778985 0.939385 0.608585
0.972840 0.952840 0.622040
0.096890 0.076890 0.648090
0.290745 0.090345 0.661545
0.484600 0.103800 0.675000
0.678455 0.117255 0.688455
0.872310 0.130710 0.701910
0.123305 0.283705 0.674505
0.317160 0.297160 0.687960
0.511015 0.310615 0.701415
0.704870 0.324070 0.714870
0.898725 0.337525 0.728325
0.149720 0.490520 0.700920
0.343575 0.503975 0.714375
0.537430 0.517430 0.727830
0.731285 0.530885 0.741285
0.925140 0.544340 0.754740
0.176135 0.697335 0.727335
0.369990 0.710790 0.740790
0.563845 0.724245 0.754245
0.757700 0.737700 0.767700
0.951555 0.751155 0.781155
0.202550 0.904150 0.753750
0.396405 0.917605 0.767205
0.590260 0.931060 0.780660
0.784115 0.944515 0.794115
0.977970 0.957970 0.807570
0.102020 0.082020 0.833620
0.295875 0.095475 0.847075
0.489730 0.108930 0.860530
0.683585 0.122385 0.873985
0.877440 0.135840 0.887440
0.128435 0.288835 0.860035
0.322290 0.302290 0.873490
0.516145 0.315745 0.886945
0.710000 0.329200 0.900400
0.903855 0.342655 0.913855
0.154850 0.495650 0.886450
0.348705 0.509105 0.899905
0.542560 0.522560 0.913360
0.736415 0.536015 0.926815
0.930270 0.549470 0.940270
0.181265 0.702465 0.912865
0.375120 0.715920 0.926320
0.568975 0.729375 0.939775
0.762830 0.742830 0.953230
0.956685 0.756285 0.966685
0.207680 0.909280 0.939280
0.401535 0.922735 0.952735
0.595390 0.936190 0.966190
0.789245 0.949645 0.979645
0.983100 0.963100 0.993100
